skorbiz/ur5-force-experiment-data-visualization/base.txt
force force0 force1 force2 force3 force4 force5 dforce dforce0 dforce1 dforce2 dforce3 dforce4 dforce5 TcpPose TcpPose0 TcpPose1 TcpPose2 TcpPose3 TcpPose4 TcpPose5 dTcpPose dTcpPose0 dTcpPose1 dTcpPose2 dTcpPose3 dTcpPose4 dTcpPose5 q q0 q1 q2 q3 q4 q5 dq dq0 dq1 dq2 dq3 dq4 dq5 iActual iActual0 iActual1 iActual2 iActual3 iActual4 iActual5 iControl iControl0 iControl1 iControl2 iControl3 iControl4 iControl5 sampleN time timeRelative timePc timePcRelative safetyMode errorState meanForce meanForce0 meanForce1 meanForce2 meanForce3 meanForce4 meanForce5 medianForce medianForce0 medianForce1 medianForce2 medianForce3 medianForce4 medianForce5 maxForce maxForce0 maxForce1 maxForce2 maxForce3 maxForce4 maxForce5 minForce minForce0 minForce1 minForce2 minForce3 minForce4 minForce5 stdDForce stdDForce0 stdDForce1 stdDForce2 stdDForce3 stdDForce4 stdDForce5 varForce varForce0 varForce1 varForce2 varForce3 varForce4 varForce5 meanCurrent meanCurrent0 meanCurrent1 meanCurrent2 meanCurrent3 meanCurrent4 meanCurrent5 medianCurrent medianCurrent0 medianCurrent1 medianCurrent2 medianCurrent3 medianCurrent4 medianCurrent5 maxCurrent maxCurrent0 maxCurrent1 maxCurrent2 maxCurrent3 maxCurrent4 maxCurrent5 minCurrent minCurrent0 minCurrent1 minCurrent2 minCurrent3 minCurrent4 minCurrent5 stdDCurrent stdDCurrent0 stdDCurrent1 stdDCurrent2 stdDCurrent3 stdDCurrent4 stdDCurrent5 varCurrent varCurrent0 varCurrent1 varCurrent2 varCurrent3 varCurrent4 varCurrent5 corrIndexSet0 corrIndexPercentageSet0 corrIndexQEndDistSet0 datasetForce0Sample datasetForce0Sample0 datasetForce0Sample1 datasetForce0Sample2 datasetForce0Sample3 datasetForce0Sample4 datasetForce0Sample5 datasetCurrent0Sample datasetCurrent0Sample0 datasetCurrent0Sample1 datasetCurrent0Sample2 datasetCurrent0Sample3 datasetCurrent0Sample4 datasetCurrent0Sample5 
27.6471 -21.6228 4.65304 -16.5881 0.453444 -4.18711 -2.0876 27.6471 -21.6228 4.65304 -16.5881 0.453444 -4.18711 -2.0876 0.70118 0.562335 -0.275877 0.315159 -2.20792 -2.22027 0.00469993 0.70118 0.562335 -0.275877 0.315159 -2.20792 -2.22027 0.00469993 3.15808 2.50886 -1.23271 1.46953 -1.79657 -1.57864 2.5035 3.15808 2.50886 -1.23271 1.46953 -1.79657 -1.57864 2.5035 3.48996 0.428186 -2.77088 -2.07816 -0.18453 -0.207406 0.394986 3.46533 0.430428 -2.74622 -2.06919 -0.18758 -0.210456 0.410236 1 4209.13 0 1.46972e+09 0 1 0 32.3019 -27.3073 -3.94483 -16.7976 0.912604 -4.53888 4.28653 32.3019 -27.3073 -3.94483 -16.7976 0.912604 -4.53888 4.28653 32.3019 -27.3073 -3.94483 -16.7976 0.912604 -4.53888 4.28653 32.3019 -27.3073 -3.94483 -16.7976 0.912604 -4.53888 4.28653 0 0 0 0 0 0 0 0 0 0 0 0 0 0 3.52033 0.44612 -2.7776 -2.11627 -0.17233 -0.20283 -0.205881 3.52033 0.44612 -2.7776 -2.11627 -0.17233 -0.20283 -0.205881 3.52033 0.44612 -2.7776 -2.11627 -0.17233 -0.20283 -0.205881 3.52033 0.44612 -2.7776 -2.11627 -0.17233 -0.20283 -0.205881 0 0 0 0 0 0 0 0 0 0 0 0 0 0 2 0.00540541 0.466003 32.3019 -27.3073 -3.94483 -16.7976 0.912604 -4.53888 4.28653 3.52033 0.44612 -2.7776 -2.11627 -0.17233 -0.20283 -0.205881 
31.1111 -26.4156 -3.68073 -16.0179 1.1421 -4.51825 3.86289 9.63057 -4.79281 -8.33377 0.570255 0.688661 -0.331138 5.95049 0.701164 0.562337 -0.275855 0.315137 -2.20789 -2.22014 0.00478398 3.14167e-05 2.25579e-06 2.22902e-05 -2.20242e-05 2.74468e-05 0.000131997 8.40493e-05 3.15811 2.5089 -1.2327 1.46954 -1.79648 -1.57868 2.50358 3.9753e-05 3.60012e-05 1.19209e-05 1.19209e-05 9.58443e-05 -3.57628e-05 8.39233e-05 3.42764 0.441637 -2.71035 -2.05126 -0.19368 -0.216556 -0.0549015 3.41769 0.437153 -2.71035 -2.03556 -0.18758 -0.210456 0.0442262 2 4209.14 0.008 1.46972e+09 0.00197315 1 0 28.4603 -22.2538 4.39374 -17.1887 0.268413 -4.26903 -2.05638 28.4603 -22.2538 4.39374 -17.1887 0.268413 -4.26903 -2.05638 28.4603 -22.2538 4.39374 -17.1887 0.268413 -4.26903 -2.05638 28.4603 -22.2538 4.39374 -17.1887 0.268413 -4.26903 -2.05638 0 0 0 0 0 0 0 0 0 0 0 0 0 0 3.49306 0.441637 -2.73501 -2.12748 -0.166229 -0.19673 -0.0716769 3.49306 0.441637 -2.73501 -2.12748 -0.166229 -0.19673 -0.0716769 3.49306 0.441637 -2.73501 -2.12748 -0.166229 -0.19673 -0.0716769 3.49306 0.441637 -2.73501 -2.12748 -0.166229 -0.19673 -0.0716769 0 0 0 0 0 0 0 0 0 0 0 0 0 0 3 0.00810811 0.465997 28.4603 -22.2538 4.39374 -17.1887 0.268413 -4.26903 -2.05638 3.49306 0.441637 -2.73501 -2.12748 -0.166229 -0.19673 -0.0716769 
27.2601 -22.8743 2.16034 -14.67 0.834127 -4.05618 -0.570899 6.96243 3.54125 5.84107 1.3479 -0.307978 0.46207 -4.43379 0.701163 0.562332 -0.275868 0.315135 -2.20801 -2.22005 0.00476053 1.45411e-05 -5.41623e-06 -1.32533e-05 -2.54092e-06 -0.000121593 9.07016e-05 -2.34462e-05 3.1581 2.50888 -1.2327 1.46956 -1.79651 -1.57867 2.50365 2.70844e-05 -2.40803e-05 0 1.23978e-05 -3.57628e-05 1.19209e-05 7.15256e-05 3.45641 0.437153 -2.7507 -2.04677 -0.17538 -0.219606 -0.0488013 3.45876 0.441637 -2.75294 -2.04677 -0.18758 -0.210456 -0.157079 3 4209.14 0.016 1.46972e+09 0.00958061 1 0 28.4603 -22.2538 4.39374 -17.1887 0.268413 -4.26903 -2.05638 28.4603 -22.2538 4.39374 -17.1887 0.268413 -4.26903 -2.05638 28.4603 -22.2538 4.39374 -17.1887 0.268413 -4.26903 -2.05638 28.4603 -22.2538 4.39374 -17.1887 0.268413 -4.26903 -2.05638 0 0 0 0 0 0 0 0 0 0 0 0 0 0 3.49306 0.441637 -2.73501 -2.12748 -0.166229 -0.19673 -0.0716769 3.49306 0.441637 -2.73501 -2.12748 -0.166229 -0.19673 -0.0716769 3.49306 0.441637 -2.73501 -2.12748 -0.166229 -0.19673 -0.0716769 3.49306 0.441637 -2.73501 -2.12748 -0.166229 -0.19673 -0.0716769 0 0 0 0 0 0 0 0 0 0 0 0 0 0 3 0.00810811 0.465997 28.4603 -22.2538 4.39374 -17.1887 0.268413 -4.26903 -2.05638 3.49306 0.441637 -2.73501 -2.12748 -0.166229 -0.19673 -0.0716769 
26.6435 -21.7662 1.61246 -15.281 0.764095 -4.17297 -0.510649 1.37896 1.10813 -0.547881 -0.611061 -0.070032 -0.116784 0.0602497 0.701164 0.562339 -0.275884 0.315109 -2.20783 -2.22021 0.00478033 3.15068e-05 7.33878e-06 -1.57318e-05 -2.62932e-05 0.000179676 -0.000164155 1.97985e-05 3.15807 2.50886 -1.23265 1.46956 -1.79655 -1.57868 2.50348 4.9614e-05 -1.19209e-05 4.81606e-05 0 -3.62396e-05 -1.19209e-05 -0.00016737 3.44131 0.430428 -2.72604 -2.05574 -0.18758 -0.205881 0.419386 3.43769 0.419219 -2.72828 -2.04901 -0.18758 -0.210456 0.439212 4 4209.15 0.024 1.46972e+09 0.0175962 1 0 28.4603 -22.2538 4.39374 -17.1887 0.268413 -4.26903 -2.05638 28.4603 -22.2538 4.39374 -17.1887 0.268413 -4.26903 -2.05638 28.4603 -22.2538 4.39374 -17.1887 0.268413 -4.26903 -2.05638 28.4603 -22.2538 4.39374 -17.1887 0.268413 -4.26903 -2.05638 0 0 0 0 0 0 0 0 0 0 0 0 0 0 3.49306 0.441637 -2.73501 -2.12748 -0.166229 -0.19673 -0.0716769 3.49306 0.441637 -2.73501 -2.12748 -0.166229 -0.19673 -0.0716769 3.49306 0.441637 -2.73501 -2.12748 -0.166229 -0.19673 -0.0716769 3.49306 0.441637 -2.73501 -2.12748 -0.166229 -0.19673 -0.0716769 0 0 0 0 0 0 0 0 0 0 0 0 0 0 3 0.00810811 0.465997 28.4603 -22.2538 4.39374 -17.1887 0.268413 -4.26903 -2.05638 3.49306 0.441637 -2.73501 -2.12748 -0.166229 -0.19673 -0.0716769 
29.0779 25.0953 -5.53051 -13.6074 0.141107 2.55124 1.67804 47.4323 46.8615 -7.14297 1.67363 -0.622988 6.72421 2.18869 0.701162 0.562374 -0.27585 0.315072 -2.20816 -2.21977 0.00516466 6.06098e-05 3.50221e-05 3.35426e-05 -3.63579e-05 -0.000323922 0.000440023 0.000384335 3.1581 2.50897 -1.23256 1.46951 -1.79646 -1.57891 2.50394 0.000144555 0.000107765 8.34465e-05 -4.81606e-05 8.39233e-05 -0.000227451 0.000454664 3.51611 1.12763 -2.10282 -2.58257 -0.0228756 -0.416336 0.0930275 3.49256 1.1904 -2.03332 -2.57808 0.0122003 -0.298908 0.0869273 5 4209.16 0.032 1.46972e+09 0.025805 1 0 28.4603 -22.2538 4.39374 -17.1887 0.268413 -4.26903 -2.05638 28.4603 -22.2538 4.39374 -17.1887 0.268413 -4.26903 -2.05638 28.4603 -22.2538 4.39374 -17.1887 0.268413 -4.26903 -2.05638 28.4603 -22.2538 4.39374 -17.1887 0.268413 -4.26903 -2.05638 0 0 0 0 0 0 0 0 0 0 0 0 0 0 3.49306 0.441637 -2.73501 -2.12748 -0.166229 -0.19673 -0.0716769 3.49306 0.441637 -2.73501 -2.12748 -0.166229 -0.19673 -0.0716769 3.49306 0.441637 -2.73501 -2.12748 -0.166229 -0.19673 -0.0716769 3.49306 0.441637 -2.73501 -2.12748 -0.166229 -0.19673 -0.0716769 0 0 0 0 0 0 0 0 0 0 0 0 0 0 3 0.00810811 0.465997 28.4603 -22.2538 4.39374 -17.1887 0.268413 -4.26903 -2.05638 3.49306 0.441637 -2.73501 -2.12748 -0.166229 -0.19673 -0.0716769 
123.754 -94.2902 42.4487 -67.9895 -7.30267 -17.4012 -0.876884 139.686 -119.385 47.9792 -54.3821 -7.44378 -19.9525 -2.55492 0.701142 0.562445 -0.275784 0.314959 -2.20824 -2.21957 0.00590915 0.000149053 7.08174e-05 6.65633e-05 -0.000113009 -8.24977e-05 0.000203876 0.000744484 3.15821 2.50919 -1.23238 1.46952 -1.7965 -1.57936 2.50429 0.000281096 0.000215769 0.000179768 1.19209e-05 -3.57628e-05 -0.000454426 0.000347614 2.97846 0.840679 -2.80451 -0.547002 -0.510889 -0.228756 0.201305 3.00278 0.856372 -2.83589 -0.490957 -0.36296 -0.236381 0.147929 6 4209.17 0.04 1.46972e+09 0.0328889 1 0 28.4603 -22.2538 4.39374 -17.1887 0.268413 -4.26903 -2.05638 28.4603 -22.2538 4.39374 -17.1887 0.268413 -4.26903 -2.05638 28.4603 -22.2538 4.39374 -17.1887 0.268413 -4.26903 -2.05638 28.4603 -22.2538 4.39374 -17.1887 0.268413 -4.26903 -2.05638 0 0 0 0 0 0 0 0 0 0 0 0 0 0 3.49306 0.441637 -2.73501 -2.12748 -0.166229 -0.19673 -0.0716769 3.49306 0.441637 -2.73501 -2.12748 -0.166229 -0.19673 -0.0716769 3.49306 0.441637 -2.73501 -2.12748 -0.166229 -0.19673 -0.0716769 3.49306 0.441637 -2.73501 -2.12748 -0.166229 -0.19673 -0.0716769 0 0 0 0 0 0 0 0 0 0 0 0 0 0 3 0.00810811 0.465997 28.4603 -22.2538 4.39374 -17.1887 0.268413 -4.26903 -2.05638 3.49306 0.441637 -2.73501 -2.12748 -0.166229 -0.19673 -0.0716769 
13.1944 9.33901 -6.29375 -6.87485 1.59975 0.917978 0.237737 129.807 103.629 -48.7424 61.1146 8.90242 18.3192 1.11462 0.70104 0.562483 -0.275647 0.314784 -2.20864 -2.21968 0.00624827 0.000225244 3.83045e-05 0.000136713 -0.000174863 -0.000404918 -0.000106856 0.000339125 3.15866 2.50944 -1.23238 1.47006 -1.79736 -1.57962 2.50467 0.000594414 0.000252008 0 0.000538349 -0.000863075 -0.000263691 0.000382662 2.80007 1.13436 -2.4077 -0.869823 -0.312633 -0.138779 0.219606 2.79703 1.15453 -2.40098 -0.851888 -0.236381 -0.140304 0.19368 7 4209.18 0.048 1.46972e+09 0.0415392 1 0 25.8314 -22.3423 -3.26573 -12.5467 1.38619 -3.51502 3.83185 25.8314 -22.3423 -3.26573 -12.5467 1.38619 -3.51502 3.83185 25.8314 -22.3423 -3.26573 -12.5467 1.38619 -3.51502 3.83185 25.8314 -22.3423 -3.26573 -12.5467 1.38619 -3.51502 3.83185 0 0 0 0 0 0 0 0 0 0 0 0 0 0 2.87861 1.01106 -2.49289 -1.02451 -0.253157 -0.17843 0.0991277 2.87861 1.01106 -2.49289 -1.02451 -0.253157 -0.17843 0.0991277 2.87861 1.01106 -2.49289 -1.02451 -0.253157 -0.17843 0.0991277 2.87861 1.01106 -2.49289 -1.02451 -0.253157 -0.17843 0.0991277 0 0 0 0 0 0 0 0 0 0 0 0 0 0 5 0.0135135 0.464805 25.8314 -22.3423 -3.26573 -12.5467 1.38619 -3.51502 3.83185 2.87861 1.01106 -2.49289 -1.02451 -0.253157 -0.17843 0.0991277 
20.7415 -17.2244 -2.47242 -11.288 -0.739354 -2.58383 0.489515 27.1973 -26.5634 3.82133 -4.41317 -2.3391 -3.5018 0.251778 0.700844 0.562519 -0.275397 0.314501 -2.20845 -2.21927 0.00633776 0.000379316 3.59702e-05 0.000249682 -0.000283276 0.000194133 0.00040842 8.94854e-05 3.1592 2.5098 -1.23235 1.47065 -1.79755 -1.57961 2.50512 0.000689522 0.000360012 3.57628e-05 0.000586987 -0.000191689 1.19209e-05 0.000455141 2.67175 1.00881 -2.23733 -1.05589 -0.414811 -0.154029 0.131154 2.6789 1.01778 -2.24181 -1.05589 -0.388885 -0.163179 0.123528 8 4209.18 0.056 1.46972e+09 0.0496604 1 0 27.6809 -21.8506 6.45283 -15.7208 -0.423078 -4.90961 -0.860384 27.6809 -21.8506 6.45283 -15.7208 -0.423078 -4.90961 -0.860384 27.6809 -21.8506 6.45283 -15.7208 -0.423078 -4.90961 -0.860384 27.6809 -21.8506 6.45283 -15.7208 -0.423078 -4.90961 -0.860384 0 0 0 0 0 0 0 0 0 0 0 0 0 0 2.97474 1.21058 -2.51307 -1.03347 -0.449887 -0.146404 0.141829 2.97474 1.21058 -2.51307 -1.03347 -0.449887 -0.146404 0.141829 2.97474 1.21058 -2.51307 -1.03347 -0.449887 -0.146404 0.141829 2.97474 1.21058 -2.51307 -1.03347 -0.449887 -0.146404 0.141829 0 0 0 0 0 0 0 0 0 0 0 0 0 0 6 0.0162162 0.464006 27.6809 -21.8506 6.45283 -15.7208 -0.423078 -4.90961 -0.860384 2.97474 1.21058 -2.51307 -1.03347 -0.449887 -0.146404 0.141829 
25.0274 -23.4969 3.52617 -7.86356 0.150047 -2.34296 -0.38556 9.33028 -6.2725 5.99859 3.42446 0.889401 0.240868 -0.875074 0.700609 0.562604 -0.275093 0.314091 -2.20821 -2.21913 0.00639268 0.000517737 8.51384e-05 0.00030442 -0.000410039 0.000240347 0.000143802 5.49167e-05 3.15992 2.51028 -1.23222 1.47147 -1.79824 -1.5796 2.50556 0.000964059 0.00047946 0.000132084 0.000825882 -0.000683308 1.19209e-05 0.000431061 3.11352 0.688236 -2.68569 -1.41682 -0.481913 -0.158604 0.0823522 3.09923 0.699445 -2.67448 -1.40113 -0.463613 -0.164704 0.073202 9 4209.19 0.064 1.46972e+09 0.0566692 1 0 21.3637 -19.8094 -1.88527 -7.77443 1.63649 -2.30636 -0.384232 21.3637 -19.8094 -1.88527 -7.77443 1.63649 -2.30636 -0.384232 21.3637 -19.8094 -1.88527 -7.77443 1.63649 -2.30636 -0.384232 21.3637 -19.8094 -1.88527 -7.77443 1.63649 -2.30636 -0.384232 0 0 0 0 0 0 0 0 0 0 0 0 0 0 2.93544 0.905691 -2.48841 -1.26662 -0.423961 -0.146404 0.269932 2.93544 0.905691 -2.48841 -1.26662 -0.423961 -0.146404 0.269932 2.93544 0.905691 -2.48841 -1.26662 -0.423961 -0.146404 0.269932 2.93544 0.905691 -2.48841 -1.26662 -0.423961 -0.146404 0.269932 0 0 0 0 0 0 0 0 0 0 0 0 0 0 7 0.0189189 0.462842 21.3637 -19.8094 -1.88527 -7.77443 1.63649 -2.30636 -0.384232 2.93544 0.905691 -2.48841 -1.26662 -0.423961 -0.146404 0.269932 
24.6882 -17.707 7.83023 -15.3186 0.0533597 -2.00078 -0.8591 10.3742 5.78988 4.30406 -7.45501 -0.0966875 0.342178 -0.473541 0.700409 0.562664 -0.274822 0.313776 -2.20814 -2.21905 0.00634877 0.000420378 6.01775e-05 0.000271272 -0.000315448 6.51048e-05 7.52127e-05 -4.39066e-05 3.16058 2.51069 -1.23218 1.47223 -1.79893 -1.57955 2.50596 0.000858111 0.000407457 3.57628e-05 0.000754356 -0.000695229 4.81606e-05 0.000406981 3.13077 0.540276 -2.70811 -1.47511 -0.489538 -0.140304 0.115903 3.13199 0.538035 -2.71483 -1.46614 -0.466663 -0.147929 0.109803 10 4209.2 0.072 1.46972e+09 0.0644534 1 0 26.9795 -24.3856 3.39457 -11.0322 0.894957 -3.09584 0.932949 26.9795 -24.3856 3.39457 -11.0322 0.894957 -3.09584 0.932949 26.9795 -24.3856 3.39457 -11.0322 0.894957 -3.09584 0.932949 26.9795 -24.3856 3.39457 -11.0322 0.894957 -3.09584 0.932949 0 0 0 0 0 0 0 0 0 0 0 0 0 0 2.91695 0.672543 -2.52876 -1.28904 -0.396511 -0.146404 0.164704 2.91695 0.672543 -2.52876 -1.28904 -0.396511 -0.146404 0.164704 2.91695 0.672543 -2.52876 -1.28904 -0.396511 -0.146404 0.164704 2.91695 0.672543 -2.52876 -1.28904 -0.396511 -0.146404 0.164704 0 0 0 0 0 0 0 0 0 0 0 0 0 0 8 0.0216216 0.461692 26.9795 -24.3856 3.39457 -11.0322 0.894957 -3.09584 0.932949 2.91695 0.672543 -2.52876 -1.28904 -0.396511 -0.146404 0.164704 
24.7612 -17.2325 9.57862 -14.9803 -0.0472884 -1.84272 -0.514121 1.84295 0.47449 1.7484 0.338267 -0.100648 0.158062 0.344979 0.700156 0.56274 -0.274518 0.313341 -2.20787 -2.2189 0.00639127 0.000535879 7.55958e-05 0.000303624 -0.000435045 0.000271656 0.000148464 4.24994e-05 3.16131 2.51115 -1.23205 1.47311 -1.79965 -1.57953 2.50637 0.00101065 0.000468016 0.000132084 0.000885963 -0.000719547 2.38419e-05 0.000407219 3.47057 0.466297 -3.05559 -1.57823 -0.423961 -0.123528 0.106753 3.46478 0.468538 -3.05559 -1.56478 -0.423961 -0.120478 0.106753 11 4209.21 0.08 1.46972e+09 0.0734713 1 0 23.249 -19.1266 7.30725 -11.0133 0.370289 -2.81918 -0.087648 23.249 -19.1266 7.30725 -11.0133 0.370289 -2.81918 -0.087648 23.249 -19.1266 7.30725 -11.0133 0.370289 -2.81918 -0.087648 23.249 -19.1266 7.30725 -11.0133 0.370289 -2.81918 -0.087648 0 0 0 0 0 0 0 0 0 0 0 0 0 0 3.00269 0.423702 -2.59602 -1.44821 -0.433112 -0.173855 0.103703 3.00269 0.423702 -2.59602 -1.44821 -0.433112 -0.173855 0.103703 3.00269 0.423702 -2.59602 -1.44821 -0.433112 -0.173855 0.103703 3.00269 0.423702 -2.59602 -1.44821 -0.433112 -0.173855 0.103703 0 0 0 0 0 0 0 0 0 0 0 0 0 0 9 0.0243243 0.460491 23.249 -19.1266 7.30725 -11.0133 0.370289 -2.81918 -0.087648 3.00269 0.423702 -2.59602 -1.44821 -0.433112 -0.173855 0.103703 
24.2747 -10.803 8.07827 -20.1817 -0.574987 -2.14528 -0.60512 8.40495 6.42947 -1.50035 -5.20135 -0.527699 -0.30256 -0.0909998 0.699941 0.562778 -0.274266 0.313012 -2.20782 -2.21892 0.00644419 0.000416389 3.78696e-05 0.000252398 -0.000329 5.52413e-05 -1.36209e-05 5.29264e-05 3.16199 2.51153 -1.23204 1.47395 -1.80047 -1.57955 2.5067 0.000916534 0.000371456 1.19209e-05 0.000837803 -0.000814915 -2.38419e-05 0.000334978 3.67437 0.468538 -3.2977 -1.55133 -0.518514 -0.108278 0.0899774 3.668 0.461813 -3.29995 -1.5334 -0.509364 -0.108278 0.0915025 12 4209.22 0.088 1.46972e+09 0.0821495 1 0 26.5034 -18.5884 13.2274 -13.4884 0.204038 -2.78352 -0.670724 26.5034 -18.5884 13.2274 -13.4884 0.204038 -2.78352 -0.670724 26.5034 -18.5884 13.2274 -13.4884 0.204038 -2.78352 -0.670724 26.5034 -18.5884 13.2274 -13.4884 0.204038 -2.78352 -0.670724 0 0 0 0 0 0 0 0 0 0 0 0 0 0 3.53374 0.372141 -3.15423 -1.54909 -0.498688 -0.138779 0.0930275 3.53374 0.372141 -3.15423 -1.54909 -0.498688 -0.138779 0.0930275 3.53374 0.372141 -3.15423 -1.54909 -0.498688 -0.138779 0.0930275 3.53374 0.372141 -3.15423 -1.54909 -0.498688 -0.138779 0.0930275 0 0 0 0 0 0 0 0 0 0 0 0 0 0 10 0.027027 0.459179 26.5034 -18.5884 13.2274 -13.4884 0.204038 -2.78352 -0.670724 3.53374 0.372141 -3.15423 -1.54909 -0.498688 -0.138779 0.0930275 
19.1293 -1.94722 4.01194 -18.6023 0.379691 -0.493176 -0.768903 9.87192 8.85581 -4.06633 1.57939 0.954679 1.6521 -0.163783 0.699709 0.562825 -0.273985 0.312655 -2.20782 -2.21883 0.00652637 0.000456542 4.68919e-05 0.000281157 -0.000356626 -7.90212e-07 8.88729e-05 8.21796e-05 3.16273 2.51195 -1.23201 1.47484 -1.80131 -1.57959 2.50716 0.000980589 0.000419617 2.3365e-05 0.000885963 -0.000838757 -3.62396e-05 0.000454664 3.49614 0.540276 -3.06904 -1.58496 -0.445312 -0.0793021 0.125053 3.4975 0.524584 -3.08249 -1.56703 -0.446837 -0.0884524 0.128103 13 4209.22 0.096 1.46972e+09 0.089231 1 0 20.1755 -5.96609 8.19439 -17.4444 0.512875 -1.29518 -0.756502 20.1755 -5.96609 8.19439 -17.4444 0.512875 -1.29518 -0.756502 20.1755 -5.96609 8.19439 -17.4444 0.512875 -1.29518 -0.756502 20.1755 -5.96609 8.19439 -17.4444 0.512875 -1.29518 -0.756502 0 0 0 0 0 0 0 0 0 0 0 0 0 0 3.65108 0.497682 -3.18337 -1.71723 -0.54444 -0.123528 0.123528 3.65108 0.497682 -3.18337 -1.71723 -0.54444 -0.123528 0.123528 3.65108 0.497682 -3.18337 -1.71723 -0.54444 -0.123528 0.123528 3.65108 0.497682 -3.18337 -1.71723 -0.54444 -0.123528 0.123528 0 0 0 0 0 0 0 0 0 0 0 0 0 0 11 0.0297297 0.457922 20.1755 -5.96609 8.19439 -17.4444 0.512875 -1.29518 -0.756502 3.65108 0.497682 -3.18337 -1.71723 -0.54444 -0.123528 0.123528 
22.5869 -10.4904 5.69619 -19.1749 -0.3624 -1.70029 -0.417443 8.72639 -8.54315 1.68425 -0.572603 -0.742091 -1.20711 0.35146 0.699514 0.562855 -0.273733 0.312384 -2.20797 -2.21876 0.00652092 0.000370777 3.0477e-05 0.000251128 -0.000271075 -0.000155356 6.82405e-05 -5.45839e-06 3.1634 2.5123 -1.23206 1.47563 -1.80211 -1.57959 2.50761 0.000869889 0.000359774 -4.72069e-05 0.000790596 -0.000803471 0 0.000455379 3.4288 0.600805 -3.03093 -1.48632 -0.564265 -0.0854023 0.167755 3.42705 0.61874 -3.02644 -1.48408 -0.54139 -0.0777771 0.158604 14 4209.23 0.104 1.46972e+09 0.0964193 1 0 24.9079 -12.2228 7.62324 -20.3197 0.551894 -1.5657 -0.452895 24.9079 -12.2228 7.62324 -20.3197 0.551894 -1.5657 -0.452895 24.9079 -12.2228 7.62324 -20.3197 0.551894 -1.5657 -0.452895 24.9079 -12.2228 7.62324 -20.3197 0.551894 -1.5657 -0.452895 0 0 0 0 0 0 0 0 0 0 0 0 0 0 3.52232 0.654609 -3.05559 -1.62531 -0.564265 -0.128103 0.0762521 3.52232 0.654609 -3.05559 -1.62531 -0.564265 -0.128103 0.0762521 3.52232 0.654609 -3.05559 -1.62531 -0.564265 -0.128103 0.0762521 3.52232 0.654609 -3.05559 -1.62531 -0.564265 -0.128103 0.0762521 0 0 0 0 0 0 0 0 0 0 0 0 0 0 12 0.0324324 0.456629 24.9079 -12.2228 7.62324 -20.3197 0.551894 -1.5657 -0.452895 3.52232 0.654609 -3.05559 -1.62531 -0.564265 -0.128103 0.0762521 
15.7906 -7.53893 1.96624 -13.7346 1.09214 -0.191626 -0.00147882 7.22632 2.95144 -3.72995 5.44023 1.45454 1.50866 0.415965 0.69932 0.562893 -0.273467 0.312114 -2.20808 -2.21885 0.00645728 0.00038106 3.77755e-05 0.000266451 -0.000269784 -0.000105837 -9.41251e-05 -6.36343e-05 3.16412 2.51269 -1.23212 1.47645 -1.80302 -1.57956 2.508 0.000912707 0.000383854 -6.00815e-05 0.000825882 -0.000910759 2.43187e-05 0.0003829 3.34072 0.708412 -2.96143 -1.37423 -0.497163 -0.0472763 0.17538 3.33792 0.715138 -2.95246 -1.3832 -0.495638 -0.0564265 0.163179 15 4209.24 0.112 1.46972e+09 0.105551 1 0 21.5099 -12.7637 4.95534 -16.5895 1.13385 -1.17262 -0.919015 21.5099 -12.7637 4.95534 -16.5895 1.13385 -1.17262 -0.919015 21.5099 -12.7637 4.95534 -16.5895 1.13385 -1.17262 -0.919015 21.5099 -12.7637 4.95534 -16.5895 1.13385 -1.17262 -0.919015 0 0 0 0 0 0 0 0 0 0 0 0 0 0 3.44328 0.735314 -2.99058 -1.54012 -0.521564 -0.129628 0.111328 3.44328 0.735314 -2.99058 -1.54012 -0.521564 -0.129628 0.111328 3.44328 0.735314 -2.99058 -1.54012 -0.521564 -0.129628 0.111328 3.44328 0.735314 -2.99058 -1.54012 -0.521564 -0.129628 0.111328 0 0 0 0 0 0 0 0 0 0 0 0 0 0 13 0.0351351 0.455363 21.5099 -12.7637 4.95534 -16.5895 1.13385 -1.17262 -0.919015 3.44328 0.735314 -2.99058 -1.54012 -0.521564 -0.129628 0.111328 
13.6946 -6.78097 -1.13147 -11.844 0.792722 -0.322737 0.0788377 3.70741 0.757964 -3.09771 1.89066 -0.29942 -0.131111 0.0803166 0.699117 0.56294 -0.273215 0.311795 -2.20812 -2.21891 0.00637412 0.000409192 4.73085e-05 0.000252374 -0.000318602 -4.08267e-05 -5.3946e-05 -8.31581e-05 3.1648 2.51306 -1.23211 1.47729 -1.80394 -1.57952 2.50836 0.000916534 0.000371456 1.19209e-05 0.000837803 -0.000923157 4.76837e-05 0.000359058 3.17816 0.685994 -2.82692 -1.28007 -0.532239 -0.0594766 0.117428 3.17474 0.661334 -2.82692 -1.28456 -0.512414 -0.0503264 0.108278 16 4209.25 0.12 1.46972e+09 0.113558 1 0 19.6597 -12.2095 2.26453 -15.2416 1.20115 -1.36391 -0.56316 19.6597 -12.2095 2.26453 -15.2416 1.20115 -1.36391 -0.56316 19.6597 -12.2095 2.26453 -15.2416 1.20115 -1.36391 -0.56316 19.6597 -12.2095 2.26453 -15.2416 1.20115 -1.36391 -0.56316 0 0 0 0 0 0 0 0 0 0 0 0 0 0 3.30199 0.737556 -2.85831 -1.47959 -0.500214 -0.123528 0.161654 3.30199 0.737556 -2.85831 -1.47959 -0.500214 -0.123528 0.161654 3.30199 0.737556 -2.85831 -1.47959 -0.500214 -0.123528 0.161654 3.30199 0.737556 -2.85831 -1.47959 -0.500214 -0.123528 0.161654 0 0 0 0 0 0 0 0 0 0 0 0 0 0 14 0.0378378 0.454007 19.6597 -12.2095 2.26453 -15.2416 1.20115 -1.36391 -0.56316 3.30199 0.737556 -2.85831 -1.47959 -0.500214 -0.123528 0.161654 
9.61079 -5.76418 -0.207301 -7.68756 1.2733 0.274365 -0.493168 4.37764 1.01678 0.924166 4.15642 0.480574 0.597102 -0.572006 0.698902 0.563008 -0.272906 0.31146 -2.2081 -2.21888 0.00635535 0.000460342 6.76713e-05 0.000308292 -0.000335099 1.96128e-05 3.1268e-05 -1.87701e-05 3.16555 2.51353 -1.23209 1.47813 -1.80477 -1.57949 2.50882 0.000960143 0.000467539 2.38419e-05 0.00083828 -0.000827312 2.38419e-05 0.000467062 3.15846 0.506649 -2.83141 -1.30473 -0.500214 -0.0686269 0.117428 3.15768 0.511133 -2.83589 -1.29128 -0.509364 -0.0716769 0.109803 17 4209.26 0.128 1.46972e+09 0.12117 1 0 19.3476 -13.8959 1.98957 -13.3144 1.1591 -1.49104 -0.0653494 19.3476 -13.8959 1.98957 -13.3144 1.1591 -1.49104 -0.0653494 19.3476 -13.8959 1.98957 -13.3144 1.1591 -1.49104 -0.0653494 19.3476 -13.8959 1.98957 -13.3144 1.1591 -1.49104 -0.0653494 0 0 0 0 0 0 0 0 0 0 0 0 0 0 3.16825 0.609772 -2.78881 -1.37423 -0.526139 -0.112853 0.163179 3.16825 0.609772 -2.78881 -1.37423 -0.526139 -0.112853 0.163179 3.16825 0.609772 -2.78881 -1.37423 -0.526139 -0.112853 0.163179 3.16825 0.609772 -2.78881 -1.37423 -0.526139 -0.112853 0.163179 0 0 0 0 0 0 0 0 0 0 0 0 0 0 15 0.0405405 0.452757 19.3476 -13.8959 1.98957 -13.3144 1.1591 -1.49104 -0.0653494 3.16825 0.609772 -2.78881 -1.37423 -0.526139 -0.112853 0.163179 
10.3115 -4.3981 3.12883 -8.78603 0.842559 -0.0169336 -0.495932 3.76863 1.36608 3.33613 -1.09847 -0.430737 -0.291298 -0.00276446 0.698679 0.563067 -0.272612 0.311113 -2.20792 -2.21892 0.00638663 0.000458881 5.87753e-05 0.000294464 -0.000346998 0.00018046 -4.89809e-05 3.12731e-05 3.16628 2.51397 -1.23205 1.47897 -1.80555 -1.57949 2.50916 0.000948956 0.000444174 3.62396e-05 0.000837803 -0.000778675 0 0.000335217 3.17554 0.423702 -2.80451 -1.42803 -0.53834 -0.0655768 0.125053 3.17782 0.425944 -2.80675 -1.42803 -0.532239 -0.073202 0.108278 18 4209.26 0.136 1.46972e+09 0.129654 1 0 14.1332 -9.93276 2.82751 -9.64849 1.35549 -0.612175 -0.0538216 14.1332 -9.93276 2.82751 -9.64849 1.35549 -0.612175 -0.0538216 14.1332 -9.93276 2.82751 -9.64849 1.35549 -0.612175 -0.0538216 14.1332 -9.93276 2.82751 -9.64849 1.35549 -0.612175 -0.0538216 0 0 0 0 0 0 0 0 0 0 0 0 0 0 3.15223 0.481989 -2.77088 -1.42355 -0.524614 -0.141829 0.143354 3.15223 0.481989 -2.77088 -1.42355 -0.524614 -0.141829 0.143354 3.15223 0.481989 -2.77088 -1.42355 -0.524614 -0.141829 0.143354 3.15223 0.481989 -2.77088 -1.42355 -0.524614 -0.141829 0.143354 0 0 0 0 0 0 0 0 0 0 0 0 0 0 16 0.0432432 0.45139 14.1332 -9.93276 2.82751 -9.64849 1.35549 -0.612175 -0.0538216 3.15223 0.481989 -2.77088 -1.42355 -0.524614 -0.141829 0.143354 
15.1755 -8.85548 6.95939 -10.1707 0.650025 -0.194088 -0.408985 6.03811 -4.45738 3.83056 -1.38469 -0.192534 -0.177154 0.0869472 0.69843 0.563104 -0.272338 0.310726 -2.2079 -2.21881 0.00639998 0.000476173 3.71127e-05 0.000274157 -0.000387558 1.97939e-05 0.000111943 1.33576e-05 3.16702 2.51437 -1.23201 1.47991 -1.80644 -1.57948 2.50959 0.00102601 0.000395536 3.52859e-05 0.000946045 -0.000886917 1.19209e-05 0.000431061 3.20291 0.3968 -2.83141 -1.44373 -0.500214 -0.074727 0.123528 3.18713 0.390075 -2.8202 -1.43252 -0.491063 -0.0762521 0.129628 19 4209.27 0.144 1.46972e+09 0.13657 1 0 15.8494 -10.2821 5.93606 -10.4997 1.25746 -0.8869 -0.247214 15.8494 -10.2821 5.93606 -10.4997 1.25746 -0.8869 -0.247214 15.8494 -10.2821 5.93606 -10.4997 1.25746 -0.8869 -0.247214 15.8494 -10.2821 5.93606 -10.4997 1.25746 -0.8869 -0.247214 0 0 0 0 0 0 0 0 0 0 0 0 0 0 2.99872 0.369899 -2.67672 -1.30025 -0.469713 -0.123528 0.123528 2.99872 0.369899 -2.67672 -1.30025 -0.469713 -0.123528 0.123528 2.99872 0.369899 -2.67672 -1.30025 -0.469713 -0.123528 0.123528 2.99872 0.369899 -2.67672 -1.30025 -0.469713 -0.123528 0.123528 0 0 0 0 0 0 0 0 0 0 0 0 0 0 17 0.0459459 0.45006 15.8494 -10.2821 5.93606 -10.4997 1.25746 -0.8869 -0.247214 2.99872 0.369899 -2.67672 -1.30025 -0.469713 -0.123528 0.123528 
16.2118 -8.8753 7.33372 -11.4135 0.445906 -0.681465 -0.423411 1.2981 -0.0198233 0.374337 -1.2428 -0.204119 -0.487377 -0.0144256 0.698188 0.563152 -0.272044 0.310353 -2.2078 -2.21873 0.00642156 0.000477065 4.80018e-05 0.000293483 -0.000373034 9.86326e-05 8.40625e-05 2.15735e-05 3.16777 2.5148 -1.23198 1.48081 -1.80724 -1.57947 2.51001 0.000996759 0.000431299 3.62396e-05 0.000897884 -0.000803471 1.23978e-05 0.00041914 3.20524 0.428186 -2.86279 -1.37647 -0.539865 -0.0655768 0.0915025 3.19287 0.416977 -2.85382 -1.36975 -0.533764 -0.0701519 0.117428 20 4209.28 0.152 1.46972e+09 0.145359 1 0 13.3468 -7.63863 7.50632 -7.96517 0.798199 -0.806806 -0.428003 13.3468 -7.63863 7.50632 -7.96517 0.798199 -0.806806 -0.428003 13.3468 -7.63863 7.50632 -7.96517 0.798199 -0.806806 -0.428003 13.3468 -7.63863 7.50632 -7.96517 0.798199 -0.806806 -0.428003 0 0 0 0 0 0 0 0 0 0 0 0 0 0 2.99205 0.365415 -2.70362 -1.22851 -0.520039 -0.125053 0.115903 2.99205 0.365415 -2.70362 -1.22851 -0.520039 -0.125053 0.115903 2.99205 0.365415 -2.70362 -1.22851 -0.520039 -0.125053 0.115903 2.99205 0.365415 -2.70362 -1.22851 -0.520039 -0.125053 0.115903 0 0 0 0 0 0 0 0 0 0 0 0 0 0 18 0.0486486 0.448802 13.3468 -7.63863 7.50632 -7.96517 0.798199 -0.806806 -0.428003 2.99205 0.365415 -2.70362 -1.22851 -0.520039 -0.125053 0.115903 
11.9256 -5.02899 5.51172 -9.30318 0.898937 0.152178 -0.746886 4.75052 3.84632 -1.82201 2.11035 0.453031 0.833643 -0.323475 0.697977 0.563172 -0.271786 0.310067 -2.20795 -2.21871 0.0065428 0.000385611 2.06028e-05 0.000258201 -0.000285664 -0.000145114 2.27244e-05 0.000121246 3.16849 2.51517 -1.23204 1.48166 -1.8081 -1.57955 2.51045 0.000929908 0.000371933 -5.96046e-05 0.000850201 -0.000863075 -8.39233e-05 0.000442505 3.2298 0.450604 -2.85607 -1.43924 -0.549015 -0.0823522 0.138779 3.20634 0.44612 -2.84486 -1.4101 -0.55664 -0.0686269 0.132679 21 4209.29 0.16 1.46972e+09 0.155645 1 0 8.5708 -3.75593 5.83904 -5.02567 1.39893 0.137571 -0.511545 8.5708 -3.75593 5.83904 -5.02567 1.39893 0.137571 -0.511545 8.5708 -3.75593 5.83904 -5.02567 1.39893 0.137571 -0.511545 8.5708 -3.75593 5.83904 -5.02567 1.39893 0.137571 -0.511545 0 0 0 0 0 0 0 0 0 0 0 0 0 0 3.19505 0.403526 -2.81347 -1.45942 -0.558165 -0.111328 0.144879 3.19505 0.403526 -2.81347 -1.45942 -0.558165 -0.111328 0.144879 3.19505 0.403526 -2.81347 -1.45942 -0.558165 -0.111328 0.144879 3.19505 0.403526 -2.81347 -1.45942 -0.558165 -0.111328 0.144879 0 0 0 0 0 0 0 0 0 0 0 0 0 0 19 0.0513514 0.447473 8.5708 -3.75593 5.83904 -5.02567 1.39893 0.137571 -0.511545 3.19505 0.403526 -2.81347 -1.45942 -0.558165 -0.111328 0.144879 
17.236 -9.7903 7.28613 -12.1713 0.779888 -0.533575 -0.303422 5.83482 -4.76132 1.77441 -2.86817 -0.119049 -0.685753 0.443464 0.697743 0.563218 -0.271541 0.309672 -2.20789 -2.21855 0.00649353 0.000467725 4.57941e-05 0.000245342 -0.000395572 5.82206e-05 0.000150648 -4.92746e-05 3.16914 2.51553 -1.23194 1.48253 -1.80893 -1.57949 2.51085 0.000949552 0.000359774 9.53674e-05 0.000873566 -0.000826836 5.96046e-05 0.000395536 3.31243 0.529067 -2.96816 -1.37199 -0.539865 -0.0640517 0.183005 3.28772 0.535793 -2.9435 -1.36302 -0.539865 -0.0625267 0.183005 22 4209.3 0.168 1.46972e+09 0.160397 1 0 16.2438 -9.93558 7.6097 -10.3555 1.06123 -0.402765 -0.223421 16.2438 -9.93558 7.6097 -10.3555 1.06123 -0.402765 -0.223421 16.2438 -9.93558 7.6097 -10.3555 1.06123 -0.402765 -0.223421 16.2438 -9.93558 7.6097 -10.3555 1.06123 -0.402765 -0.223421 0 0 0 0 0 0 0 0 0 0 0 0 0 0 3.20307 0.477506 -2.8471 -1.38768 -0.526139 -0.126578 0.132679 3.20307 0.477506 -2.8471 -1.38768 -0.526139 -0.126578 0.132679 3.20307 0.477506 -2.8471 -1.38768 -0.526139 -0.126578 0.132679 3.20307 0.477506 -2.8471 -1.38768 -0.526139 -0.126578 0.132679 0 0 0 0 0 0 0 0 0 0 0 0 0 0 20 0.0540541 0.446211 16.2438 -9.93558 7.6097 -10.3555 1.06123 -0.402765 -0.223421 3.20307 0.477506 -2.8471 -1.38768 -0.526139 -0.126578 0.132679 
10.4555 -4.02309 0.818468 -9.61573 1.30741 0.208873 0.167926 9.03452 5.76721 -6.46766 2.55562 0.527521 0.742448 0.471348 0.697551 0.563268 -0.271246 0.309406 -2.20811 -2.21871 0.00651307 0.000399735 5.0068e-05 0.000294547 -0.000265562 -0.000224574 -0.000158651 1.95461e-05 3.16993 2.51597 -1.23201 1.4834 -1.80998 -1.57954 2.51131 0.000972159 0.000443459 -7.20024e-05 0.000862122 -0.00105476 -4.76837e-05 0.000466585 3.23878 0.535793 -2.90539 -1.32715 -0.446837 -0.074727 0.189105 3.23958 0.551485 -2.90539 -1.32267 -0.449887 -0.0610016 0.18148 23 4209.3 0.176 1.46972e+09 0.168475 1 0 12.9852 -7.43884 4.85762 -9.47012 1.26884 -0.466519 -0.344773 12.9852 -7.43884 4.85762 -9.47012 1.26884 -0.466519 -0.344773 12.9852 -7.43884 4.85762 -9.47012 1.26884 -0.466519 -0.344773 12.9852 -7.43884 4.85762 -9.47012 1.26884 -0.466519 -0.344773 0 0 0 0 0 0 0 0 0 0 0 0 0 0 3.34838 0.54476 -2.97488 -1.437 -0.494113 -0.0899774 0.128103 3.34838 0.54476 -2.97488 -1.437 -0.494113 -0.0899774 0.128103 3.34838 0.54476 -2.97488 -1.437 -0.494113 -0.0899774 0.128103 3.34838 0.54476 -2.97488 -1.437 -0.494113 -0.0899774 0.128103 0 0 0 0 0 0 0 0 0 0 0 0 0 0 21 0.0567568 0.444815 12.9852 -7.43884 4.85762 -9.47012 1.26884 -0.466519 -0.344773 3.34838 0.54476 -2.97488 -1.437 -0.494113 -0.0899774 0.128103 
11.4906 -4.47217 0.973739 -10.5397 0.80484 -0.698991 0.220745 1.03901 -0.449074 0.155272 -0.92399 -0.50257 -0.907864 0.0528192 0.697333 0.563299 -0.270973 0.309098 -2.2081 -2.21874 0.00644447 0.000412973 3.02015e-05 0.000273256 -0.000308165 1.5354e-05 -2.52287e-05 -6.86035e-05 3.17065 2.51636 -1.23205 1.48426 -1.81082 -1.57949 2.51167 0.000943842 0.000383615 -3.52859e-05 0.000861645 -0.000839233 4.76837e-05 0.000359297 3.2566 0.636674 -2.92108 -1.29128 -0.477338 -0.0274507 0.150979 3.23615 0.620982 -2.89866 -1.29801 -0.481913 -0.0533764 0.164704 24 4209.31 0.184 1.46972e+09 0.176633 1 0 14.3059 -6.80495 3.22915 -12.1624 0.781684 -0.655042 -0.384525 14.3059 -6.80495 3.22915 -12.1624 0.781684 -0.655042 -0.384525 14.3059 -6.80495 3.22915 -12.1624 0.781684 -0.655042 -0.384525 14.3059 -6.80495 3.22915 -12.1624 0.781684 -0.655042 -0.384525 0 0 0 0 0 0 0 0 0 0 0 0 0 0 3.30628 0.638916 -2.93005 -1.39216 -0.474288 -0.106753 0.157079 3.30628 0.638916 -2.93005 -1.39216 -0.474288 -0.106753 0.157079 3.30628 0.638916 -2.93005 -1.39216 -0.474288 -0.106753 0.157079 3.30628 0.638916 -2.93005 -1.39216 -0.474288 -0.106753 0.157079 0 0 0 0 0 0 0 0 0 0 0 0 0 0 22 0.0594595 0.443538 14.3059 -6.80495 3.22915 -12.1624 0.781684 -0.655042 -0.384525 3.30628 0.638916 -2.93005 -1.39216 -0.474288 -0.106753 0.157079 
9.64707 -3.7803 -1.22556 -8.79053 0.841753 0.0265229 -0.151245 2.89401 0.691866 -2.1993 1.74919 0.0369133 0.725514 -0.371991 0.697123 0.563361 -0.27071 0.308741 -2.20814 -2.21887 0.00642365 0.000447653 6.27175e-05 0.000262942 -0.000356821 -3.97072e-05 -0.000131756 -2.08203e-05 3.17137 2.51677 -1.23199 1.48514 -1.81189 -1.57949 2.51203 0.00097752 0.000407696 5.96046e-05 0.00088644 -0.00106716 0 0.000359058 3.25131 0.629949 -2.87848 -1.37423 -0.427012 -0.0442262 0.103703 3.25546 0.625465 -2.88521 -1.37199 -0.439212 -0.0472763 0.0777771 25 4209.32 0.192 1.46972e+09 0.185799 1 0 14.1573 -7.96881 0.825334 -11.6725 1.02683 -0.96322 -0.101436 14.1573 -7.96881 0.825334 -11.6725 1.02683 -0.96322 -0.101436 14.1573 -7.96881 0.825334 -11.6725 1.02683 -0.96322 -0.101436 14.1573 -7.96881 0.825334 -11.6725 1.02683 -0.96322 -0.101436 0 0 0 0 0 0 0 0 0 0 0 0 0 0 3.28587 0.632191 -2.9009 -1.40786 -0.468188 -0.118953 0.204356 3.28587 0.632191 -2.9009 -1.40786 -0.468188 -0.118953 0.204356 3.28587 0.632191 -2.9009 -1.40786 -0.468188 -0.118953 0.204356 3.28587 0.632191 -2.9009 -1.40786 -0.468188 -0.118953 0.204356 0 0 0 0 0 0 0 0 0 0 0 0 0 0 23 0.0621622 0.442176 14.1573 -7.96881 0.825334 -11.6725 1.02683 -0.96322 -0.101436 3.28587 0.632191 -2.9009 -1.40786 -0.468188 -0.118953 0.204356 
16.5194 -9.42014 3.35948 -13.1479 0.00195759 -1.30276 -0.652752 8.47448 -5.63983 4.58504 -4.35735 -0.839796 -1.32928 -0.501506 0.696882 0.563402 -0.270394 0.308399 -2.20808 -2.21886 0.00642631 0.000467798 4.1139e-05 0.000316283 -0.00034221 5.3909e-05 1.19967e-05 2.6592e-06 3.17217 2.51722 -1.23201 1.48607 -1.81274 -1.57948 2.51246 0.00102858 0.000455856 -2.43187e-05 0.000921726 -0.000850201 1.19209e-05 0.000431061 3.22527 0.670301 -2.87848 -1.29128 -0.38126 -0.0289758 0.109803 3.22145 0.665818 -2.87624 -1.28904 -0.37821 -0.0457512 0.102178 26 4209.33 0.2 1.46972e+09 0.193455 1 0 15.1866 -9.52054 0.866306 -11.8001 1.08328 -1.21407 0.364233 15.1866 -9.52054 0.866306 -11.8001 1.08328 -1.21407 0.364233 15.1866 -9.52054 0.866306 -11.8001 1.08328 -1.21407 0.364233 15.1866 -9.52054 0.866306 -11.8001 1.08328 -1.21407 0.364233 0 0 0 0 0 0 0 0 0 0 0 0 0 0 3.1947 0.665818 -2.8202 -1.34509 -0.379735 -0.102178 0.189105 3.1947 0.665818 -2.8202 -1.34509 -0.379735 -0.102178 0.189105 3.1947 0.665818 -2.8202 -1.34509 -0.379735 -0.102178 0.189105 3.1947 0.665818 -2.8202 -1.34509 -0.379735 -0.102178 0.189105 0 0 0 0 0 0 0 0 0 0 0 0 0 0 24 0.0648649 0.44087 15.1866 -9.52054 0.866306 -11.8001 1.08328 -1.21407 0.364233 3.1947 0.665818 -2.8202 -1.34509 -0.379735 -0.102178 0.189105 
11.8125 -5.7037 -0.529717 -10.3306 0.11219 -0.992483 -0.553656 6.07245 3.71644 -3.88919 2.81725 0.110232 0.310275 0.0990954 0.696657 0.563406 -0.270162 0.308087 -2.20832 -2.21881 0.00642054 0.000388028 3.15829e-06 0.000231592 -0.000311322 -0.00023533 4.38004e-05 -5.76686e-06 3.17288 2.51753 -1.23207 1.487 -1.81375 -1.57949 2.51289 0.000986079 0.000311613 -5.96046e-05 0.000933647 -0.00100708 -1.19209e-05 0.000431061 3.20242 0.694961 -2.80675 -1.37647 -0.394986 -0.0518514 0.074727 3.18493 0.685994 -2.79778 -1.35854 -0.391936 -0.0472763 0.0777771 27 4209.34 0.208 1.46972e+09 0.201408 1 0 15.6084 -9.87185 0.488354 -12.0802 0.450359 -1.87564 0.217527 15.6084 -9.87185 0.488354 -12.0802 0.450359 -1.87564 0.217527 15.6084 -9.87185 0.488354 -12.0802 0.450359 -1.87564 0.217527 15.6084 -9.87185 0.488354 -12.0802 0.450359 -1.87564 0.217527 0 0 0 0 0 0 0 0 0 0 0 0 0 0 3.13969 0.670301 -2.78433 -1.2868 -0.390411 -0.0945526 0.161654 3.13969 0.670301 -2.78433 -1.2868 -0.390411 -0.0945526 0.161654 3.13969 0.670301 -2.78433 -1.2868 -0.390411 -0.0945526 0.161654 3.13969 0.670301 -2.78433 -1.2868 -0.390411 -0.0945526 0.161654 0 0 0 0 0 0 0 0 0 0 0 0 0 0 25 0.0675676 0.439454 15.6084 -9.87185 0.488354 -12.0802 0.450359 -1.87564 0.217527 3.13969 0.670301 -2.78433 -1.2868 -0.390411 -0.0945526 0.161654 
16.0505 -10.9481 2.06954 -11.5531 0.108725 -1.54997 -0.894118 5.97949 -5.24439 2.59926 -1.22251 -0.00346441 -0.557483 -0.340462 0.696444 0.563473 -0.269854 0.307752 -2.2083 -2.21889 0.00636208 0.000460814 6.79353e-05 0.000308219 -0.000335761 1.5938e-05 -7.84538e-05 -5.84611e-05 3.17364 2.518 -1.23205 1.48786 -1.81468 -1.57946 2.51331 0.000981153 0.000467777 2.43187e-05 0.000862122 -0.000935078 3.62396e-05 0.000418663 3.21531 0.717379 -2.8202 -1.3675 -0.440737 -0.0503264 0.0671018 3.21325 0.712896 -2.81571 -1.37423 -0.431587 -0.0427012 0.0671018 28 4209.34 0.216 1.46972e+09 0.209421 1 0 13.1979 -8.30679 0.0997238 -10.2554 0.579353 -1.47544 -0.0519849 13.1979 -8.30679 0.0997238 -10.2554 0.579353 -1.47544 -0.0519849 13.1979 -8.30679 0.0997238 -10.2554 0.579353 -1.47544 -0.0519849 13.1979 -8.30679 0.0997238 -10.2554 0.579353 -1.47544 -0.0519849 0 0 0 0 0 0 0 0 0 0 0 0 0 0 3.01622 0.699445 -2.64758 -1.26438 -0.402611 -0.0915025 0.0869273 3.01622 0.699445 -2.64758 -1.26438 -0.402611 -0.0915025 0.0869273 3.01622 0.699445 -2.64758 -1.26438 -0.402611 -0.0915025 0.0869273 3.01622 0.699445 -2.64758 -1.26438 -0.402611 -0.0915025 0.0869273 0 0 0 0 0 0 0 0 0 0 0 0 0 0 26 0.0702703 0.438144 13.1979 -8.30679 0.0997238 -10.2554 0.579353 -1.47544 -0.0519849 3.01622 0.699445 -2.64758 -1.26438 -0.402611 -0.0915025 0.0869273 
17.2275 -11.8121 3.22349 -12.119 0.206428 -1.34806 -1.00083 1.54865 -0.864045 1.15394 -0.565831 0.0977029 0.201909 -0.106713 0.696222 0.563534 -0.26955 0.307405 -2.20826 -2.21897 0.00630955 0.000464801 6.04869e-05 0.000304012 -0.00034635 4.403e-05 -7.51337e-05 -5.25333e-05 3.17441 2.51846 -1.23203 1.48875 -1.81562 -1.57942 2.51371 0.000996417 0.000455379 2.3365e-05 0.000885963 -0.000935555 3.57628e-05 0.00039506 3.22305 0.764457 -2.80899 -1.3832 -0.448362 -0.0411761 0.0701519 3.2308 0.764457 -2.81123 -1.39665 -0.468188 -0.0442262 0.0686269 29 4209.35 0.224 1.46972e+09 0.216779 1 0 13.788 -10.9984 2.03542 -8.06234 0.569122 -1.42118 -0.788398 13.788 -10.9984 2.03542 -8.06234 0.569122 -1.42118 -0.788398 13.788 -10.9984 2.03542 -8.06234 0.569122 -1.42118 -0.788398 13.788 -10.9984 2.03542 -8.06234 0.569122 -1.42118 -0.788398 0 0 0 0 0 0 0 0 0 0 0 0 0 0 3.08156 0.746523 -2.68569 -1.3137 -0.439212 -0.0930275 0.0884524 3.08156 0.746523 -2.68569 -1.3137 -0.439212 -0.0930275 0.0884524 3.08156 0.746523 -2.68569 -1.3137 -0.439212 -0.0930275 0.0884524 3.08156 0.746523 -2.68569 -1.3137 -0.439212 -0.0930275 0.0884524 0 0 0 0 0 0 0 0 0 0 0 0 0 0 27 0.072973 0.436713 13.788 -10.9984 2.03542 -8.06234 0.569122 -1.42118 -0.788398 3.08156 0.746523 -2.68569 -1.3137 -0.439212 -0.0930275 0.0884524 
15.5524 -11.6496 0.921035 -10.2623 0.506141 -1.03345 -0.936837 2.96224 0.162536 -2.30245 1.85666 0.299713 0.314609 0.0639947 0.695977 0.563562 -0.2693 0.307016 -2.20823 -2.21893 0.00634792 0.000463117 2.8225e-05 0.000249826 -0.000388931 2.41276e-05 3.75384e-05 3.83723e-05 3.17512 2.51882 -1.23198 1.48969 -1.81657 -1.57943 2.51407 0.00101329 0.000359774 4.81606e-05 0.000946045 -0.000946522 -1.19209e-05 0.000359535 3.26143 0.802568 -2.8202 -1.42803 -0.414811 -0.0549015 0.100653 3.25989 0.775666 -2.81796 -1.44373 -0.434637 -0.0411761 0.108278 30 4209.36 0.232 1.46972e+09 0.225584 1 0 14.57 -11.6331 1.20972 -8.6886 0.823432 -1.23556 -0.774489 14.57 -11.6331 1.20972 -8.6886 0.823432 -1.23556 -0.774489 14.57 -11.6331 1.20972 -8.6886 0.823432 -1.23556 -0.774489 14.57 -11.6331 1.20972 -8.6886 0.823432 -1.23556 -0.774489 0 0 0 0 0 0 0 0 0 0 0 0 0 0 3.11321 0.768941 -2.69241 -1.36078 -0.436162 -0.0899774 0.0793021 3.11321 0.768941 -2.69241 -1.36078 -0.436162 -0.0899774 0.0793021 3.11321 0.768941 -2.69241 -1.36078 -0.436162 -0.0899774 0.0793021 3.11321 0.768941 -2.69241 -1.36078 -0.436162 -0.0899774 0.0793021 0 0 0 0 0 0 0 0 0 0 0 0 0 0 28 0.0756757 0.435448 14.57 -11.6331 1.20972 -8.6886 0.823432 -1.23556 -0.774489 3.11321 0.768941 -2.69241 -1.36078 -0.436162 -0.0899774 0.0793021 
18.9422 -14.3722 0.642734 -12.3221 0.328281 -1.77322 -0.63924 3.42533 -2.72265 -0.278301 -2.05976 -0.177861 -0.739771 0.297597 0.695772 0.563585 -0.269052 0.306727 -2.20839 -2.21886 0.00632292 0.000381264 2.23312e-05 0.000247638 -0.000289031 -0.000153961 6.83636e-05 -2.49986e-05 3.1758 2.51916 -1.23201 1.49052 -1.81742 -1.57942 2.51451 0.000896974 0.000348091 -3.62396e-05 0.000825882 -0.000850677 1.19209e-05 0.000442743 3.25554 0.757732 -2.82692 -1.42579 -0.500214 -0.0228756 0.117428 3.24996 0.771183 -2.81571 -1.42803 -0.507839 -0.0442262 0.134204 31 4209.37 0.24 1.46972e+09 0.233405 1 0 17.208 -14.0089 2.00299 -9.79041 0.646494 -1.52912 -0.864255 17.208 -14.0089 2.00299 -9.79041 0.646494 -1.52912 -0.864255 17.208 -14.0089 2.00299 -9.79041 0.646494 -1.52912 -0.864255 17.208 -14.0089 2.00299 -9.79041 0.646494 -1.52912 -0.864255 0 0 0 0 0 0 0 0 0 0 0 0 0 0 3.20408 0.75549 -2.7238 -1.50874 -0.500214 -0.074727 0.102178 3.20408 0.75549 -2.7238 -1.50874 -0.500214 -0.074727 0.102178 3.20408 0.75549 -2.7238 -1.50874 -0.500214 -0.074727 0.102178 3.20408 0.75549 -2.7238 -1.50874 -0.500214 -0.074727 0.102178 0 0 0 0 0 0 0 0 0 0 0 0 0 0 29 0.0783784 0.434083 17.208 -14.0089 2.00299 -9.79041 0.646494 -1.52912 -0.864255 3.20408 0.75549 -2.7238 -1.50874 -0.500214 -0.074727 0.102178 
16.8472 -13.2047 1.08913 -10.4057 0.626833 -0.676248 -0.48058 2.288 1.1675 0.446396 1.91641 0.298552 1.09697 0.15866 0.695547 0.563647 -0.268723 0.306392 -2.20829 -2.21897 0.00627382 0.00047416 6.24081e-05 0.00032956 -0.000335146 9.31952e-05 -0.000106148 -4.91059e-05 3.1766 2.51965 -1.23201 1.49141 -1.81832 -1.57938 2.5149 0.00101311 0.000491381 0 0.000885963 -0.000899315 3.57628e-05 0.00039506 3.23033 0.68151 -2.79778 -1.4639 -0.506314 -0.0167755 0.122003 3.24482 0.690478 -2.81347 -1.46166 -0.500214 -0.0320259 0.132679 32 4209.38 0.248 1.46972e+09 0.241748 1 0 22.3911 -18.4847 4.0325 -11.9757 0.602624 -1.47036 -0.637573 22.3911 -18.4847 4.0325 -11.9757 0.602624 -1.47036 -0.637573 22.3911 -18.4847 4.0325 -11.9757 0.602624 -1.47036 -0.637573 22.3911 -18.4847 4.0325 -11.9757 0.602624 -1.47036 -0.637573 0 0 0 0 0 0 0 0 0 0 0 0 0 0 3.27554 0.798085 -2.81123 -1.47959 -0.498688 -0.0854023 0.0671018 3.27554 0.798085 -2.81123 -1.47959 -0.498688 -0.0854023 0.0671018 3.27554 0.798085 -2.81123 -1.47959 -0.498688 -0.0854023 0.0671018 3.27554 0.798085 -2.81123 -1.47959 -0.498688 -0.0854023 0.0671018 0 0 0 0 0 0 0 0 0 0 0 0 0 0 30 0.0810811 0.432794 22.3911 -18.4847 4.0325 -11.9757 0.602624 -1.47036 -0.637573 3.27554 0.798085 -2.81123 -1.47959 -0.498688 -0.0854023 0.0671018 
18.6611 -14.6823 3.43875 -10.9929 0.419256 -0.785259 -0.425902 2.837 -1.47751 2.34962 -0.587193 -0.207577 -0.109011 0.0546773 0.695337 0.563674 -0.268481 0.306078 -2.20836 -2.21896 0.00629081 0.000397331 2.66266e-05 0.00024138 -0.000314482 -6.18894e-05 4.22384e-06 1.69925e-05 3.17727 2.52 -1.23201 1.49224 -1.81919 -1.5794 2.51528 0.000906964 0.000347376 0 0.000837803 -0.000875473 -1.19209e-05 0.000371456 3.23725 0.688236 -2.81571 -1.44148 -0.54139 -0.036601 0.126578 3.23374 0.703929 -2.81123 -1.43476 -0.536815 -0.0289758 0.114378 33 4209.38 0.256 1.46972e+09 0.249516 1 0 19.7401 -15.5071 2.26133 -12.0037 0.823349 -1.28888 -0.992353 19.7401 -15.5071 2.26133 -12.0037 0.823349 -1.28888 -0.992353 19.7401 -15.5071 2.26133 -12.0037 0.823349 -1.28888 -0.992353 19.7401 -15.5071 2.26133 -12.0037 0.823349 -1.28888 -0.992353 0 0 0 0 0 0 0 0 0 0 0 0 0 0 3.36737 0.701687 -2.94126 -1.48184 -0.532239 -0.0686269 0.120478 3.36737 0.701687 -2.94126 -1.48184 -0.532239 -0.0686269 0.120478 3.36737 0.701687 -2.94126 -1.48184 -0.532239 -0.0686269 0.120478 3.36737 0.701687 -2.94126 -1.48184 -0.532239 -0.0686269 0.120478 0 0 0 0 0 0 0 0 0 0 0 0 0 0 31 0.0837838 0.4315 19.7401 -15.5071 2.26133 -12.0037 0.823349 -1.28888 -0.992353 3.36737 0.701687 -2.94126 -1.48184 -0.532239 -0.0686269 0.120478 
16.522 -12.8954 2.35038 -10.0578 0.933524 -0.413429 -0.385739 2.29162 1.78682 -1.08837 0.935013 0.514268 0.37183 0.0401637 0.69511 0.563705 -0.268203 0.305748 -2.20837 -2.21894 0.00626182 0.000432694 3.17087e-05 0.000278073 -0.000329991 -1.74711e-05 1.96635e-05 -2.89852e-05 3.17801 2.5204 -1.23203 1.49313 -1.82007 -1.57937 2.51568 0.000970515 0.000396013 -1.19209e-05 0.000885963 -0.000874519 2.43187e-05 0.000406742 3.15362 0.659092 -2.74846 -1.39889 -0.445312 -0.0320259 0.0991277 3.11922 0.677027 -2.71483 -1.37871 -0.451412 -0.0320259 0.0976026 34 4209.39 0.264 1.46972e+09 0.257931 1 0 16.62 -10.8948 1.27929 -12.4857 0.943007 -0.580297 -0.453905 16.62 -10.8948 1.27929 -12.4857 0.943007 -0.580297 -0.453905 16.62 -10.8948 1.27929 -12.4857 0.943007 -0.580297 -0.453905 16.62 -10.8948 1.27929 -12.4857 0.943007 -0.580297 -0.453905 0 0 0 0 0 0 0 0 0 0 0 0 0 0 3.35692 0.739797 -2.9278 -1.46614 -0.443787 -0.0899774 0.144879 3.35692 0.739797 -2.9278 -1.46614 -0.443787 -0.0899774 0.144879 3.35692 0.739797 -2.9278 -1.46614 -0.443787 -0.0899774 0.144879 3.35692 0.739797 -2.9278 -1.46614 -0.443787 -0.0899774 0.144879 0 0 0 0 0 0 0 0 0 0 0 0 0 0 32 0.0864865 0.430201 16.62 -10.8948 1.27929 -12.4857 0.943007 -0.580297 -0.453905 3.35692 0.739797 -2.9278 -1.46614 -0.443787 -0.0899774 0.144879 
17.8504 -13.8102 3.76242 -10.6658 0.209891 -1.27349 -0.661891 1.78892 -0.914764 1.41204 -0.607936 -0.723633 -0.860057 -0.276153 0.694886 0.563744 -0.267924 0.305412 -2.20839 -2.219 0.00625811 0.000438679 3.85432e-05 0.000279368 -0.000336016 -1.56353e-05 -5.59755e-05 -3.71122e-06 3.17875 2.52081 -1.23203 1.49403 -1.82101 -1.57937 2.51607 0.00098611 0.000407696 0 0.000897884 -0.000947475 0 0.000383139 3.13522 0.61874 -2.7776 -1.31594 -0.472763 -0.0549015 0.111328 3.13065 0.609772 -2.7776 -1.30922 -0.474288 -0.0350759 0.111328 35 4209.4 0.272 1.46972e+09 0.26521 1 0 18.5324 -11.9669 0.698623 -14.1335 0.566761 -1.62124 -0.214968 18.5324 -11.9669 0.698623 -14.1335 0.566761 -1.62124 -0.214968 18.5324 -11.9669 0.698623 -14.1335 0.566761 -1.62124 -0.214968 18.5324 -11.9669 0.698623 -14.1335 0.566761 -1.62124 -0.214968 0 0 0 0 0 0 0 0 0 0 0 0 0 0 3.20074 0.715138 -2.75743 -1.45942 -0.504789 -0.0869273 0.163179 3.20074 0.715138 -2.75743 -1.45942 -0.504789 -0.0869273 0.163179 3.20074 0.715138 -2.75743 -1.45942 -0.504789 -0.0869273 0.163179 3.20074 0.715138 -2.75743 -1.45942 -0.504789 -0.0869273 0.163179 0 0 0 0 0 0 0 0 0 0 0 0 0 0 33 0.0891892 0.428855 18.5324 -11.9669 0.698623 -14.1335 0.566761 -1.62124 -0.214968 3.20074 0.715138 -2.75743 -1.45942 -0.504789 -0.0869273 0.163179 
12.8956 -9.47238 2.64982 -8.33952 0.775748 -0.650327 -0.536317 5.04639 4.33782 -1.1126 2.32625 0.565858 0.623159 0.125574 0.69467 0.56378 -0.267637 0.305104 -2.20842 -2.21902 0.00629864 0.000422787 3.67093e-05 0.000287189 -0.000308096 -2.63128e-05 -1.50419e-05 4.05226e-05 3.17949 2.52123 -1.23205 1.49488 -1.82186 -1.5794 2.51649 0.000948401 0.000419617 -2.3365e-05 0.000850201 -0.000850677 -2.43187e-05 0.00041914 3.05308 0.533551 -2.71035 -1.30025 -0.475813 -0.0457512 0.134204 3.08379 0.551485 -2.73277 -1.31818 -0.478863 -0.038126 0.129628 36 4209.41 0.28 1.46972e+09 0.27375 1 0 19.5769 -15.8363 2.52927 -11.2281 0.89673 -1.21873 -0.0356163 19.5769 -15.8363 2.52927 -11.2281 0.89673 -1.21873 -0.0356163 19.5769 -15.8363 2.52927 -11.2281 0.89673 -1.21873 -0.0356163 19.5769 -15.8363 2.52927 -11.2281 0.89673 -1.21873 -0.0356163 0 0 0 0 0 0 0 0 0 0 0 0 0 0 3.14102 0.641158 -2.75294 -1.36975 -0.465138 -0.0716769 0.131154 3.14102 0.641158 -2.75294 -1.36975 -0.465138 -0.0716769 0.131154 3.14102 0.641158 -2.75294 -1.36975 -0.465138 -0.0716769 0.131154 3.14102 0.641158 -2.75294 -1.36975 -0.465138 -0.0716769 0.131154 0 0 0 0 0 0 0 0 0 0 0 0 0 0 34 0.0918919 0.427563 19.5769 -15.8363 2.52927 -11.2281 0.89673 -1.21873 -0.0356163 3.14102 0.641158 -2.75294 -1.36975 -0.465138 -0.0716769 0.131154 
12.9355 -9.81363 4.34084 -7.22339 0.641044 -0.522526 -0.309695 2.05469 -0.341244 1.69102 1.11613 -0.134704 0.127801 0.226622 0.694441 0.563823 -0.267357 0.304748 -2.20827 -2.21907 0.00626524 0.000454246 4.27441e-05 0.000279742 -0.000355326 0.000143809 -5.61988e-05 -3.3398e-05 3.18021 2.52163 -1.23201 1.49575 -1.82272 -1.57936 2.5168 0.000964996 0.000407457 3.52859e-05 0.000874043 -0.000851154 3.62396e-05 0.000311136 3.10955 0.533551 -2.76639 -1.31594 -0.523089 -0.0396511 0.146404 3.10965 0.533551 -2.76864 -1.31146 -0.523089 -0.0320259 0.138779 37 4209.42 0.288 1.46972e+09 0.281285 1 0 15.4797 -11.6057 2.76122 -9.86426 0.607906 -0.983367 -0.34757 15.4797 -11.6057 2.76122 -9.86426 0.607906 -0.983367 -0.34757 15.4797 -11.6057 2.76122 -9.86426 0.607906 -0.983367 -0.34757 15.4797 -11.6057 2.76122 -9.86426 0.607906 -0.983367 -0.34757 0 0 0 0 0 0 0 0 0 0 0 0 0 0 3.07649 0.591838 -2.68121 -1.38768 -0.506314 -0.0579516 0.114378 3.07649 0.591838 -2.68121 -1.38768 -0.506314 -0.0579516 0.114378 3.07649 0.591838 -2.68121 -1.38768 -0.506314 -0.0579516 0.114378 3.07649 0.591838 -2.68121 -1.38768 -0.506314 -0.0579516 0.114378 0 0 0 0 0 0 0 0 0 0 0 0 0 0 35 0.0945946 0.42623 15.4797 -11.6057 2.76122 -9.86426 0.607906 -0.983367 -0.34757 3.07649 0.591838 -2.68121 -1.38768 -0.506314 -0.0579516 0.114378 
11.8129 -8.8199 3.65456 -6.95683 0.93149 -0.00500059 -0.190791 1.23675 0.993729 -0.686286 0.266565 0.290446 0.517525 0.118905 0.694214 0.563869 -0.267052 0.304415 -2.20818 -2.21913 0.00622531 0.000454282 4.59261e-05 0.000304955 -0.000333565 9.30311e-05 -5.52648e-05 -3.99262e-05 3.18098 2.52208 -1.23201 1.49663 -1.82357 -1.57933 2.51717 0.000980429 0.000444174 0 0.000874043 -0.000851154 3.52859e-05 0.000371218 3.11309 0.533551 -2.75743 -1.34284 -0.492588 -0.0350759 0.131154 3.10991 0.526825 -2.75294 -1.34733 -0.497163 -0.0396511 0.131154 38 4209.42 0.296 1.46972e+09 0.289246 1 0 16.2694 -12.7226 4.70671 -8.98194 0.619401 -0.599189 -0.519002 16.2694 -12.7226 4.70671 -8.98194 0.619401 -0.599189 -0.519002 16.2694 -12.7226 4.70671 -8.98194 0.619401 -0.599189 -0.519002 16.2694 -12.7226 4.70671 -8.98194 0.619401 -0.599189 -0.519002 0 0 0 0 0 0 0 0 0 0 0 0 0 0 3.03078 0.564936 -2.67 -1.31818 -0.489538 -0.0777771 0.106753 3.03078 0.564936 -2.67 -1.31818 -0.489538 -0.0777771 0.106753 3.03078 0.564936 -2.67 -1.31818 -0.489538 -0.0777771 0.106753 3.03078 0.564936 -2.67 -1.31818 -0.489538 -0.0777771 0.106753 0 0 0 0 0 0 0 0 0 0 0 0 0 0 36 0.0972973 0.424972 16.2694 -12.7226 4.70671 -8.98194 0.619401 -0.599189 -0.519002 3.03078 0.564936 -2.67 -1.31818 -0.489538 -0.0777771 0.106753 
13.9788 -10.2915 4.61364 -8.25875 0.563564 -0.437556 -0.340384 2.18641 -1.47158 0.95908 -1.30193 -0.367926 -0.432555 -0.149593 0.69397 0.563888 -0.266818 0.304029 -2.20818 -2.21899 0.00633329 0.000451702 1.85538e-05 0.000233993 -0.000385924 -4.53955e-06 0.000139677 0.000107979 3.18165 2.52241 -1.23195 1.49753 -1.82443 -1.57937 2.51756 0.000971091 0.000335455 6.00815e-05 0.000909328 -0.000863075 -4.72069e-05 0.00039506 3.15158 0.5201 -2.75743 -1.43476 -0.535289 -0.0289758 0.176905 3.13938 0.524584 -2.74846 -1.42355 -0.53834 -0.0457512 0.17843 39 4209.43 0.304 1.46972e+09 0.297454 1 0 13.794 -10.6555 4.48452 -7.52491 0.777117 -0.563755 -0.58658 13.794 -10.6555 4.48452 -7.52491 0.777117 -0.563755 -0.58658 13.794 -10.6555 4.48452 -7.52491 0.777117 -0.563755 -0.58658 13.794 -10.6555 4.48452 -7.52491 0.777117 -0.563755 -0.58658 0 0 0 0 0 0 0 0 0 0 0 0 0 0 3.04343 0.47078 -2.65206 -1.41682 -0.54139 -0.0457512 0.138779 3.04343 0.47078 -2.65206 -1.41682 -0.54139 -0.0457512 0.138779 3.04343 0.47078 -2.65206 -1.41682 -0.54139 -0.0457512 0.138779 3.04343 0.47078 -2.65206 -1.41682 -0.54139 -0.0457512 0.138779 0 0 0 0 0 0 0 0 0 0 0 0 0 0 37 0.1 0.423623 13.794 -10.6555 4.48452 -7.52491 0.777117 -0.563755 -0.58658 3.04343 0.47078 -2.65206 -1.41682 -0.54139 -0.0457512 0.138779 
17.3333 -13.5406 5.64982 -9.22904 0.61138 -0.40787 0.110038 3.54568 -3.24912 1.03618 -0.970283 0.0478162 0.0296861 0.450422 0.693743 0.563934 -0.266513 0.303691 -2.20812 -2.21907 0.00626309 0.000457459 4.67492e-05 0.000304742 -0.000337959 5.9729e-05 -8.58371e-05 -7.02009e-05 3.18242 2.52286 -1.23195 1.49843 -1.82535 -1.57933 2.51793 0.00100142 0.000443459 0 0.000897884 -0.00092268 4.72069e-05 0.000371218 3.16981 0.502166 -2.7507 -1.49305 -0.54749 -0.0503264 0.231806 3.15873 0.508891 -2.74398 -1.47959 -0.545965 -0.0503264 0.231806 40 4209.44 0.312 1.46972e+09 0.304447 1 0 17.7616 -13.7197 7.51298 -8.41422 0.521722 -0.289599 -0.266976 17.7616 -13.7197 7.51298 -8.41422 0.521722 -0.289599 -0.266976 17.7616 -13.7197 7.51298 -8.41422 0.521722 -0.289599 -0.266976 17.7616 -13.7197 7.51298 -8.41422 0.521722 -0.289599 -0.266976 0 0 0 0 0 0 0 0 0 0 0 0 0 0 3.07732 0.535793 -2.66551 -1.44148 -0.545965 -0.0472763 0.160129 3.07732 0.535793 -2.66551 -1.44148 -0.545965 -0.0472763 0.160129 3.07732 0.535793 -2.66551 -1.44148 -0.545965 -0.0472763 0.160129 3.07732 0.535793 -2.66551 -1.44148 -0.545965 -0.0472763 0.160129 0 0 0 0 0 0 0 0 0 0 0 0 0 0 38 0.102703 0.422319 17.7616 -13.7197 7.51298 -8.41422 0.521722 -0.289599 -0.266976 3.07732 0.535793 -2.66551 -1.44148 -0.545965 -0.0472763 0.160129 
20.2248 -16.2193 6.34989 -10.2788 0.73336 -0.726877 0.655906 2.96103 -2.67872 0.700068 -1.04978 0.12198 -0.319007 0.545868 0.693505 0.563962 -0.266231 0.303343 -2.20814 -2.21902 0.0063356 0.000449411 2.77857e-05 0.00028284 -0.000348137 -1.32502e-05 5.10611e-05 7.25054e-05 3.18317 2.52326 -1.23195 1.49934 -1.82623 -1.57936 2.51837 0.000997411 0.000407696 0 0.000910282 -0.000875473 -3.52859e-05 0.000431061 3.15077 0.585113 -2.77536 -1.37199 -0.567315 -0.0335509 0.236381 3.15101 0.591838 -2.77088 -1.37871 -0.55969 -0.0518514 0.228756 41 4209.45 0.32 1.46972e+09 0.312806 1 0 18.6689 -15.185 6.35523 -8.80653 0.663845 -0.449715 -0.0588531 18.6689 -15.185 6.35523 -8.80653 0.663845 -0.449715 -0.0588531 18.6689 -15.185 6.35523 -8.80653 0.663845 -0.449715 -0.0588531 18.6689 -15.185 6.35523 -8.80653 0.663845 -0.449715 -0.0588531 0 0 0 0 0 0 0 0 0 0 0 0 0 0 3.16952 0.529067 -2.80226 -1.3832 -0.570365 -0.0472763 0.155554 3.16952 0.529067 -2.80226 -1.3832 -0.570365 -0.0472763 0.155554 3.16952 0.529067 -2.80226 -1.3832 -0.570365 -0.0472763 0.155554 3.16952 0.529067 -2.80226 -1.3832 -0.570365 -0.0472763 0.155554 0 0 0 0 0 0 0 0 0 0 0 0 0 0 39 0.105405 0.421007 18.6689 -15.185 6.35523 -8.80653 0.663845 -0.449715 -0.0588531 3.16952 0.529067 -2.80226 -1.3832 -0.570365 -0.0472763 0.155554 
14.3213 -12.0964 2.43967 -7.26791 1.23083 0.0821536 0.697811 6.43067 4.12287 -3.91022 3.01091 0.497468 0.809031 0.041905 0.69329 0.563988 -0.265956 0.303045 -2.20811 -2.21906 0.00626677 0.000405784 2.57349e-05 0.000274693 -0.000297561 2.96038e-05 -3.88398e-05 -6.88216e-05 3.18389 2.52365 -1.23199 1.50018 -1.82704 -1.57931 2.51871 0.000922245 0.000383854 -3.57628e-05 0.000837803 -0.000814915 4.76837e-05 0.000347137 3.15158 0.663576 -2.76191 -1.36526 -0.504789 -0.0274507 0.189105 3.13299 0.659092 -2.74622 -1.3563 -0.501739 -0.036601 0.18758 42 4209.46 0.328 1.46972e+09 0.320811 1 0 12.7898 -9.25066 3.78594 -7.97945 1.05214 0.32236 -0.10415 12.7898 -9.25066 3.78594 -7.97945 1.05214 0.32236 -0.10415 12.7898 -9.25066 3.78594 -7.97945 1.05214 0.32236 -0.10415 12.7898 -9.25066 3.78594 -7.97945 1.05214 0.32236 -0.10415 0 0 0 0 0 0 0 0 0 0 0 0 0 0 3.11001 0.567178 -2.73053 -1.37647 -0.536815 -0.036601 0.201305 3.11001 0.567178 -2.73053 -1.37647 -0.536815 -0.036601 0.201305 3.11001 0.567178 -2.73053 -1.37647 -0.536815 -0.036601 0.201305 3.11001 0.567178 -2.73053 -1.37647 -0.536815 -0.036601 0.201305 0 0 0 0 0 0 0 0 0 0 0 0 0 0 40 0.108108 0.419729 12.7898 -9.25066 3.78594 -7.97945 1.05214 0.32236 -0.10415 3.11001 0.567178 -2.73053 -1.37647 -0.536815 -0.036601 0.201305 
17.9597 -14.291 3.37088 -10.3419 0.568989 -0.835197 0.201617 3.8901 -2.19459 0.931212 -3.07401 -0.661839 -0.917351 -0.496194 0.693053 0.564032 -0.265645 0.302693 -2.20797 -2.21912 0.00629082 0.00047169 4.37029e-05 0.000310974 -0.000351961 0.000140743 -6.02466e-05 2.40456e-05 3.18467 2.5241 -1.23198 1.50108 -1.82789 -1.57931 2.51907 0.00100736 0.000455618 1.19209e-05 0.000898361 -0.000851154 0 0.000359058 3.05511 0.701687 -2.69017 -1.26662 -0.55359 -0.0198255 0.157079 3.0659 0.70617 -2.69914 -1.27111 -0.545965 -0.036601 0.150979 43 4209.46 0.336 1.46972e+09 0.328688 1 0 15.0533 -12.1708 3.68347 -8.05641 0.776187 -0.134522 0.355078 15.0533 -12.1708 3.68347 -8.05641 0.776187 -0.134522 0.355078 15.0533 -12.1708 3.68347 -8.05641 0.776187 -0.134522 0.355078 15.0533 -12.1708 3.68347 -8.05641 0.776187 -0.134522 0.355078 0 0 0 0 0 0 0 0 0 0 0 0 0 0 3.17057 0.674785 -2.77088 -1.38544 -0.545965 -0.0183005 0.227231 3.17057 0.674785 -2.77088 -1.38544 -0.545965 -0.0183005 0.227231 3.17057 0.674785 -2.77088 -1.38544 -0.545965 -0.0183005 0.227231 3.17057 0.674785 -2.77088 -1.38544 -0.545965 -0.0183005 0.227231 0 0 0 0 0 0 0 0 0 0 0 0 0 0 41 0.110811 0.418346 15.0533 -12.1708 3.68347 -8.05641 0.776187 -0.134522 0.355078 3.17057 0.674785 -2.77088 -1.38544 -0.545965 -0.0183005 0.227231 
11.308 -10.4078 0.159696 -4.41848 1.40967 0.422612 -0.0819606 7.77677 3.88322 -3.21118 5.92343 0.840684 1.25781 -0.283578 0.692852 0.564063 -0.26538 0.302408 -2.20813 -2.21916 0.00626273 0.000390308 3.14733e-05 0.000265092 -0.000284739 -0.000162273 -4.28727e-05 -2.80919e-05 3.18538 2.52449 -1.23201 1.50192 -1.82884 -1.57931 2.5195 0.000922066 0.000383377 -3.62396e-05 0.000837803 -0.000946522 0 0.000431061 3.10607 0.697203 -2.69914 -1.36975 -0.513939 -0.0228756 0.128103 3.09288 0.68151 -2.68569 -1.37423 -0.506314 -0.0320259 0.132679 44 4209.47 0.344 1.46972e+09 0.34275 1 0 15.2855 -12.6313 0.735996 -8.57647 0.9001 -0.0235655 0.608579 15.2855 -12.6313 0.735996 -8.57647 0.9001 -0.0235655 0.608579 15.2855 -12.6313 0.735996 -8.57647 0.9001 -0.0235655 0.608579 15.2855 -12.6313 0.735996 -8.57647 0.9001 -0.0235655 0.608579 0 0 0 0 0 0 0 0 0 0 0 0 0 0 3.1395 0.647883 -2.73949 -1.38992 -0.524614 -0.0518514 0.19978 3.1395 0.647883 -2.73949 -1.38992 -0.524614 -0.0518514 0.19978 3.1395 0.647883 -2.73949 -1.38992 -0.524614 -0.0518514 0.19978 3.1395 0.647883 -2.73949 -1.38992 -0.524614 -0.0518514 0.19978 0 0 0 0 0 0 0 0 0 0 0 0 0 0 42 0.113514 0.417076 15.2855 -12.6313 0.735996 -8.57647 0.9001 -0.0235655 0.608579 3.1395 0.647883 -2.73949 -1.38992 -0.524614 -0.0518514 0.19978 
16.2175 -13.9492 2.46654 -7.89562 0.785481 -0.446778 -0.367719 5.473 -3.54142 2.30685 -3.47714 -0.624192 -0.86939 -0.285759 0.692604 0.564085 -0.265116 0.302031 -2.2081 -2.21905 0.00629864 0.0004611 2.14021e-05 0.0002636 -0.000377717 2.79379e-05 0.000117794 3.59151e-05 3.1861 2.52486 -1.23198 1.50284 -1.82969 -1.57931 2.51991 0.000994599 0.000371933 3.62396e-05 0.000921726 -0.000851631 0 0.000406742 3.12322 0.674785 -2.68121 -1.45269 -0.567315 -0.0259257 0.122003 3.10417 0.670301 -2.67224 -1.43028 -0.55664 -0.0320259 0.126578 45 4209.48 0.352 1.46972e+09 0.346211 1 0 15.7473 -12.8809 2.17583 -8.7936 0.905292 -0.420558 0.326362 15.7473 -12.8809 2.17583 -8.7936 0.905292 -0.420558 0.326362 15.7473 -12.8809 2.17583 -8.7936 0.905292 -0.420558 0.326362 15.7473 -12.8809 2.17583 -8.7936 0.905292 -0.420558 0.326362 0 0 0 0 0 0 0 0 0 0 0 0 0 0 3.20533 0.733072 -2.76864 -1.43924 -0.542915 -0.036601 0.18148 3.20533 0.733072 -2.76864 -1.43924 -0.542915 -0.036601 0.18148 3.20533 0.733072 -2.76864 -1.43924 -0.542915 -0.036601 0.18148 3.20533 0.733072 -2.76864 -1.43924 -0.542915 -0.036601 0.18148 0 0 0 0 0 0 0 0 0 0 0 0 0 0 43 0.116216 0.415849 15.7473 -12.8809 2.17583 -8.7936 0.905292 -0.420558 0.326362 3.20533 0.733072 -2.76864 -1.43924 -0.542915 -0.036601 0.18148 
21.4413 -18.012 6.0858 -9.91267 0.686563 -0.578892 -0.452208 5.8029 -4.06278 3.61926 -2.01705 -0.0989181 -0.132114 -0.0844885 0.692362 0.564122 -0.264819 0.301667 -2.20795 -2.2191 0.00632551 0.000470912 3.72747e-05 0.000297227 -0.000363353 0.000149025 -5.17973e-05 2.68665e-05 3.18686 2.52529 -1.23195 1.50375 -1.83055 -1.57931 2.52024 0.00100735 0.000431776 2.38419e-05 0.000909805 -0.000862598 0 0.000335217 3.13026 0.636674 -2.69017 -1.46839 -0.463613 -0.0274507 0.132679 3.13625 0.661334 -2.69241 -1.46614 -0.459037 -0.0183005 0.126578 46 4209.49 0.36 1.46972e+09 0.354266 1 0 17.702 -14.7024 1.36022 -9.76485 0.900724 -0.402762 0.15389 17.702 -14.7024 1.36022 -9.76485 0.900724 -0.402762 0.15389 17.702 -14.7024 1.36022 -9.76485 0.900724 -0.402762 0.15389 17.702 -14.7024 1.36022 -9.76485 0.900724 -0.402762 0.15389 0 0 0 0 0 0 0 0 0 0 0 0 0 0 3.15268 0.692719 -2.69017 -1.4908 -0.478863 -0.0442262 0.141829 3.15268 0.692719 -2.69017 -1.4908 -0.478863 -0.0442262 0.141829 3.15268 0.692719 -2.69017 -1.4908 -0.478863 -0.0442262 0.141829 3.15268 0.692719 -2.69017 -1.4908 -0.478863 -0.0442262 0.141829 0 0 0 0 0 0 0 0 0 0 0 0 0 0 44 0.118919 0.414465 17.702 -14.7024 1.36022 -9.76485 0.900724 -0.402762 0.15389 3.15268 0.692719 -2.69017 -1.4908 -0.478863 -0.0442262 0.141829 
20.8814 -17.0358 5.19828 -10.8993 0.160527 -1.36531 -0.311735 1.64747 0.976241 -0.887521 -0.986616 -0.526035 -0.78642 0.140472 0.692124 0.564168 -0.264517 0.301298 -2.2079 -2.21911 0.00630408 0.000479508 4.61554e-05 0.000301947 -0.00036963 5.01981e-05 -1.52756e-05 -2.14258e-05 3.18763 2.52573 -1.23192 1.50467 -1.83149 -1.57929 2.52065 0.00102391 0.000443459 3.57628e-05 0.000922203 -0.000935078 2.38419e-05 0.000407457 3.04793 0.634432 -2.59826 -1.46166 -0.471238 -0.0152504 0.117428 3.04838 0.603047 -2.60498 -1.4639 -0.469713 -0.0137254 0.122003 47 4209.5 0.368 1.46972e+09 0.361265 1 0 22.4003 -18.4165 4.69544 -11.8558 0.198594 -1.42452 -0.244463 22.4003 -18.4165 4.69544 -11.8558 0.198594 -1.42452 -0.244463 22.4003 -18.4165 4.69544 -11.8558 0.198594 -1.42452 -0.244463 22.4003 -18.4165 4.69544 -11.8558 0.198594 -1.42452 -0.244463 0 0 0 0 0 0 0 0 0 0 0 0 0 0 3.08859 0.659092 -2.60274 -1.52667 -0.484963 -0.0503264 0.149454 3.08859 0.659092 -2.60274 -1.52667 -0.484963 -0.0503264 0.149454 3.08859 0.659092 -2.60274 -1.52667 -0.484963 -0.0503264 0.149454 3.08859 0.659092 -2.60274 -1.52667 -0.484963 -0.0503264 0.149454 0 0 0 0 0 0 0 0 0 0 0 0 0 0 45 0.121622 0.41322 22.4003 -18.4165 4.69544 -11.8558 0.198594 -1.42452 -0.244463 3.08859 0.659092 -2.60274 -1.52667 -0.484963 -0.0503264 0.149454 
22.9938 -19.6866 6.80341 -9.73993 0.0271466 -1.36988 -0.47184 3.30869 -2.65084 1.60512 1.15935 -0.133381 -0.00456267 -0.160105 0.691917 0.564229 -0.264251 0.300942 -2.20794 -2.21914 0.00624522 0.000448341 6.06679e-05 0.000265921 -0.00035583 -3.80469e-05 -2.54711e-05 -5.88642e-05 3.18832 2.52614 -1.23183 1.50551 -1.83246 -1.57925 2.52106 0.000935507 0.000407696 8.39233e-05 0.000837803 -0.000971317 3.57628e-05 0.000406742 3.24454 0.560453 -2.88521 -1.37423 -0.459037 -0.0259257 0.155554 3.22401 0.54476 -2.86728 -1.36975 -0.455987 -0.0106753 0.155554 48 4209.5 0.376 1.46972e+09 0.37143 1 0 25.7473 -21.8055 6.87022 -11.8424 0.0975843 -1.69381 -0.161429 25.7473 -21.8055 6.87022 -11.8424 0.0975843 -1.69381 -0.161429 25.7473 -21.8055 6.87022 -11.8424 0.0975843 -1.69381 -0.161429 25.7473 -21.8055 6.87022 -11.8424 0.0975843 -1.69381 -0.161429 0 0 0 0 0 0 0 0 0 0 0 0 0 0 3.06779 0.560453 -2.67448 -1.39441 -0.431587 -0.0427012 0.114378 3.06779 0.560453 -2.67448 -1.39441 -0.431587 -0.0427012 0.114378 3.06779 0.560453 -2.67448 -1.39441 -0.431587 -0.0427012 0.114378 3.06779 0.560453 -2.67448 -1.39441 -0.431587 -0.0427012 0.114378 0 0 0 0 0 0 0 0 0 0 0 0 0 0 46 0.124324 0.411863 25.7473 -21.8055 6.87022 -11.8424 0.0975843 -1.69381 -0.161429 3.06779 0.560453 -2.67448 -1.39441 -0.431587 -0.0427012 0.114378 
13.662 -8.23029 2.24581 -10.6709 0.370924 -0.644339 -0.0970274 12.3647 11.4563 -4.55759 -0.930994 0.343778 0.725536 0.374813 0.691677 0.564265 -0.263926 0.300608 -2.20782 -2.21933 0.00622308 0.000467966 3.67944e-05 0.000325337 -0.000334356 0.000118993 -0.000186455 -2.21422e-05 3.18915 2.52661 -1.23187 1.50645 -1.83342 -1.57924 2.52138 0.00105555 0.000467777 -3.57628e-05 0.000945568 -0.00095892 1.19209e-05 0.000323296 3.23366 0.452846 -2.90763 -1.3406 -0.382785 -0.00152504 0.183005 3.24423 0.455088 -2.92108 -1.33612 -0.37211 -0.0122003 0.17843 49 4209.51 0.384 1.46972e+09 0.377008 1 0 18.3069 -13.7905 5.93876 -10.4737 -0.10797 -1.29216 -0.504365 18.3069 -13.7905 5.93876 -10.4737 -0.10797 -1.29216 -0.504365 18.3069 -13.7905 5.93876 -10.4737 -0.10797 -1.29216 -0.504365 18.3069 -13.7905 5.93876 -10.4737 -0.10797 -1.29216 -0.504365 0 0 0 0 0 0 0 0 0 0 0 0 0 0 3.01342 0.540276 -2.65206 -1.32491 -0.420911 -0.0274507 0.105228 3.01342 0.540276 -2.65206 -1.32491 -0.420911 -0.0274507 0.105228 3.01342 0.540276 -2.65206 -1.32491 -0.420911 -0.0274507 0.105228 3.01342 0.540276 -2.65206 -1.32491 -0.420911 -0.0274507 0.105228 0 0 0 0 0 0 0 0 0 0 0 0 0 0 47 0.127027 0.410452 18.3069 -13.7905 5.93876 -10.4737 -0.10797 -1.29216 -0.504365 3.01342 0.540276 -2.65206 -1.32491 -0.420911 -0.0274507 0.105228 
13.8006 -5.92992 3.37657 -11.9954 -0.426521 -1.02996 0.186919 2.88524 2.30036 1.13076 -1.3245 -0.797445 -0.385617 0.283946 0.691483 0.564296 -0.263669 0.300328 -2.20802 -2.2193 0.00620102 0.000380497 3.05114e-05 0.000256418 -0.000279458 -0.000197248 2.64555e-05 -2.20519e-05 3.18983 2.52698 -1.23189 1.50726 -1.83432 -1.57924 2.52185 0.00088475 0.000371695 -2.43187e-05 0.000802517 -0.000898361 0 0.000466824 3.21189 0.493198 -2.86728 -1.36078 -0.373635 -0.00457512 0.173855 3.20451 0.481989 -2.86728 -1.34733 -0.38736 -0.0122003 0.16928 50 4209.52 0.392 1.46972e+09 0.384835 1 0 15.8183 -11.7422 5.57868 -9.01217 -0.151758 -1.04345 -0.593837 15.8183 -11.7422 5.57868 -9.01217 -0.151758 -1.04345 -0.593837 15.8183 -11.7422 5.57868 -9.01217 -0.151758 -1.04345 -0.593837 15.8183 -11.7422 5.57868 -9.01217 -0.151758 -1.04345 -0.593837 0 0 0 0 0 0 0 0 0 0 0 0 0 0 3.00547 0.533551 -2.63189 -1.34957 -0.35381 -0.0213506 0.108278 3.00547 0.533551 -2.63189 -1.34957 -0.35381 -0.0213506 0.108278 3.00547 0.533551 -2.63189 -1.34957 -0.35381 -0.0213506 0.108278 3.00547 0.533551 -2.63189 -1.34957 -0.35381 -0.0213506 0.108278 0 0 0 0 0 0 0 0 0 0 0 0 0 0 48 0.12973 0.409154 15.8183 -11.7422 5.57868 -9.01217 -0.151758 -1.04345 -0.593837 3.00547 0.533551 -2.63189 -1.34957 -0.35381 -0.0213506 0.108278 
15.4069 -8.31388 3.74109 -12.42 -0.518406 -1.34644 0.0935938 2.44875 -2.38395 0.364525 -0.424592 -0.0918848 -0.31648 -0.0933249 0.691242 0.564312 -0.263403 0.299978 -2.20801 -2.21928 0.00621526 0.000440613 1.59436e-05 0.000266567 -0.000350467 8.27713e-06 2.06218e-05 1.42372e-05 3.19056 2.52735 -1.23189 1.50818 -1.83522 -1.57924 2.52222 0.000993849 0.000371695 0 0.000921726 -0.000899315 0 0.000371218 3.19335 0.38335 -2.82244 -1.44373 -0.398036 0.0122003 0.144879 3.19266 0.369899 -2.82916 -1.43252 -0.408711 -0.0122003 0.131154 51 4209.53 0.4 1.46972e+09 0.392905 1 0 18.578 -13.6006 6.52368 -10.8447 -0.77715 -1.8341 -0.562442 18.578 -13.6006 6.52368 -10.8447 -0.77715 -1.8341 -0.562442 18.578 -13.6006 6.52368 -10.8447 -0.77715 -1.8341 -0.562442 18.578 -13.6006 6.52368 -10.8447 -0.77715 -1.8341 -0.562442 0 0 0 0 0 0 0 0 0 0 0 0 0 0 3.06386 0.448362 -2.69914 -1.37871 -0.414811 -0.0228756 0.141829 3.06386 0.448362 -2.69914 -1.37871 -0.414811 -0.0228756 0.141829 3.06386 0.448362 -2.69914 -1.37871 -0.414811 -0.0228756 0.141829 3.06386 0.448362 -2.69914 -1.37871 -0.414811 -0.0228756 0.141829 0 0 0 0 0 0 0 0 0 0 0 0 0 0 49 0.132432 0.407868 18.578 -13.6006 6.52368 -10.8447 -0.77715 -1.8341 -0.562442 3.06386 0.448362 -2.69914 -1.37871 -0.414811 -0.0228756 0.141829 
18.7961 -10.3825 7.68998 -13.6515 -0.925515 -1.32264 -0.189992 4.62484 -2.06859 3.94888 -1.23144 -0.40711 0.023794 -0.283586 0.691018 0.564348 -0.263127 0.299635 -2.20795 -2.21933 0.00614896 0.000441102 3.57385e-05 0.000275272 -0.000342811 6.3732e-05 -5.58129e-05 -6.62982e-05 3.19128 2.52775 -1.23187 1.50905 -1.83612 -1.57919 2.52256 0.000959683 0.000395536 2.43187e-05 0.000874043 -0.000899315 4.81606e-05 0.000335217 3.14027 0.49544 -2.77536 -1.3832 -0.390411 -0.0289758 0.125053 3.14878 0.486473 -2.78433 -1.38768 -0.411761 -0.0411761 0.120478 52 4209.54 0.408 1.46972e+09 0.403414 1 0 17.4641 -11.8825 7.05936 -10.6755 -0.460451 -1.19927 -0.231845 17.4641 -11.8825 7.05936 -10.6755 -0.460451 -1.19927 -0.231845 17.4641 -11.8825 7.05936 -10.6755 -0.460451 -1.19927 -0.231845 17.4641 -11.8825 7.05936 -10.6755 -0.460451 -1.19927 -0.231845 0 0 0 0 0 0 0 0 0 0 0 0 0 0 3.11865 0.448362 -2.73949 -1.42131 -0.423961 -0.0274507 0.167755 3.11865 0.448362 -2.73949 -1.42131 -0.423961 -0.0274507 0.167755 3.11865 0.448362 -2.73949 -1.42131 -0.423961 -0.0274507 0.167755 3.11865 0.448362 -2.73949 -1.42131 -0.423961 -0.0274507 0.167755 0 0 0 0 0 0 0 0 0 0 0 0 0 0 50 0.135135 0.406512 17.4641 -11.8825 7.05936 -10.6755 -0.460451 -1.19927 -0.231845 3.11865 0.448362 -2.73949 -1.42131 -0.423961 -0.0274507 0.167755 
17.0181 -10.457 5.72984 -12.1423 -0.405318 -1.49646 -0.385955 2.47493 -0.0745821 -1.96014 1.50915 0.520198 -0.173813 -0.195963 0.690798 0.564382 -0.262843 0.299313 -2.20805 -2.2193 0.00622314 0.00043068 3.48005e-05 0.000283965 -0.000321929 -0.000105728 3.88063e-05 7.41801e-05 3.19202 2.52817 -1.23187 1.50991 -1.83702 -1.57924 2.52303 0.000958285 0.000419378 0 0.000861645 -0.000899315 -4.81606e-05 0.000478983 3.14221 0.488715 -2.77088 -1.39889 -0.417861 -0.0625267 0.120478 3.13496 0.486473 -2.76191 -1.40113 -0.410236 -0.0549015 0.120478 53 4209.54 0.416 1.46972e+09 0.409214 1 0 18.7217 -12.725 6.98923 -11.8206 -0.442558 -1.32228 0.02262 18.7217 -12.725 6.98923 -11.8206 -0.442558 -1.32228 0.02262 18.7217 -12.725 6.98923 -11.8206 -0.442558 -1.32228 0.02262 18.7217 -12.725 6.98923 -11.8206 -0.442558 -1.32228 0.02262 0 0 0 0 0 0 0 0 0 0 0 0 0 0 3.05738 0.399042 -2.6543 -1.4639 -0.433112 -0.0335509 0.152504 3.05738 0.399042 -2.6543 -1.4639 -0.433112 -0.0335509 0.152504 3.05738 0.399042 -2.6543 -1.4639 -0.433112 -0.0335509 0.152504 3.05738 0.399042 -2.6543 -1.4639 -0.433112 -0.0335509 0.152504 0 0 0 0 0 0 0 0 0 0 0 0 0 0 51 0.137838 0.405242 18.7217 -12.725 6.98923 -11.8206 -0.442558 -1.32228 0.02262 3.05738 0.399042 -2.6543 -1.4639 -0.433112 -0.0335509 0.152504 
16.8785 -10.6661 5.8388 -11.7059 0.0192628 -1.44403 -0.445857 0.496 -0.209015 0.10896 0.436413 0.42458 0.0524291 -0.0599026 0.690563 0.564387 -0.262558 0.29901 -2.20803 -2.21929 0.00619686 0.000416325 4.77636e-06 0.000285712 -0.000302774 1.70341e-05 1.64587e-06 -2.62879e-05 3.19277 2.52855 -1.23194 1.51081 -1.83783 -1.57922 2.52341 0.000979145 0.000383854 -7.20024e-05 0.000897884 -0.000814915 2.43187e-05 0.000371218 3.16263 0.614256 -2.7507 -1.43476 -0.449887 -0.0289758 0.132679 3.15684 0.609772 -2.74622 -1.43252 -0.454462 -0.0533764 0.135729 54 4209.55 0.424 1.46972e+09 0.417109 1 0 24.1981 -16.7244 11.0894 -13.5228 -0.760693 -1.7959 -0.157989 24.1981 -16.7244 11.0894 -13.5228 -0.760693 -1.7959 -0.157989 24.1981 -16.7244 11.0894 -13.5228 -0.760693 -1.7959 -0.157989 24.1981 -16.7244 11.0894 -13.5228 -0.760693 -1.7959 -0.157989 0 0 0 0 0 0 0 0 0 0 0 0 0 0 3.04163 0.56942 -2.65655 -1.3675 -0.439212 -0.0335509 0.0960776 3.04163 0.56942 -2.65655 -1.3675 -0.439212 -0.0335509 0.0960776 3.04163 0.56942 -2.65655 -1.3675 -0.439212 -0.0335509 0.0960776 3.04163 0.56942 -2.65655 -1.3675 -0.439212 -0.0335509 0.0960776 0 0 0 0 0 0 0 0 0 0 0 0 0 0 52 0.140541 0.403858 24.1981 -16.7244 11.0894 -13.5228 -0.760693 -1.7959 -0.157989 3.04163 0.56942 -2.65655 -1.3675 -0.439212 -0.0335509 0.0960776 
18.6843 -13.9487 4.30946 -11.6605 0.0524462 -1.26107 -0.325932 3.62171 -3.28266 -1.52934 0.0454502 0.0331834 0.182958 0.119925 0.690325 0.564433 -0.262291 0.298609 -2.20787 -2.2193 0.00617798 0.000483719 4.56848e-05 0.000267087 -0.000400701 0.000165209 -8.97171e-06 -1.88774e-05 3.19347 2.52895 -1.23183 1.5117 -1.83872 -1.57918 2.52372 0.00097684 0.000396013 0.000107765 0.00088644 -0.000886917 3.57628e-05 0.000311136 3.0527 0.672543 -2.67224 -1.3137 -0.462087 -0.038126 0.128103 3.03257 0.661334 -2.64758 -1.32267 -0.463613 -0.0488013 0.131154 55 4209.56 0.432 1.46972e+09 0.425227 1 0 16.6276 -12.7326 5.26353 -9.30879 0.0336152 -1.04554 -0.682772 16.6276 -12.7326 5.26353 -9.30879 0.0336152 -1.04554 -0.682772 16.6276 -12.7326 5.26353 -9.30879 0.0336152 -1.04554 -0.682772 16.6276 -12.7326 5.26353 -9.30879 0.0336152 -1.04554 -0.682772 0 0 0 0 0 0 0 0 0 0 0 0 0 0 3.08309 0.578387 -2.68121 -1.40786 -0.495638 -0.0183005 0.123528 3.08309 0.578387 -2.68121 -1.40786 -0.495638 -0.0183005 0.123528 3.08309 0.578387 -2.68121 -1.40786 -0.495638 -0.0183005 0.123528 3.08309 0.578387 -2.68121 -1.40786 -0.495638 -0.0183005 0.123528 0 0 0 0 0 0 0 0 0 0 0 0 0 0 53 0.143243 0.402574 16.6276 -12.7326 5.26353 -9.30879 0.0336152 -1.04554 -0.682772 3.08309 0.578387 -2.68121 -1.40786 -0.495638 -0.0183005 0.123528 
14.7911 -12.2138 2.26216 -8.03007 0.589656 -0.809138 -0.367475 4.51454 1.73494 -2.04729 3.63038 0.53721 0.451929 -0.0415427 0.690121 0.564435 -0.262036 0.298357 -2.20807 -2.21931 0.00618526 0.000359071 2.44922e-06 0.000254893 -0.000252895 -0.000204301 -6.37882e-06 7.27977e-06 3.19417 2.52929 -1.23193 1.51254 -1.8396 -1.5792 2.52415 0.000912014 0.000347376 -9.58443e-05 0.000837803 -0.000886917 -2.38419e-05 0.000431061 3.04279 0.710654 -2.6543 -1.30698 -0.504789 -0.0320259 0.131154 3.05301 0.712896 -2.65655 -1.32491 -0.512414 -0.0442262 0.138779 56 4209.57 0.44 1.46972e+09 0.433633 1 0 17.4615 -13.7985 5.10945 -9.40205 0.247118 -0.621403 -0.41315 17.4615 -13.7985 5.10945 -9.40205 0.247118 -0.621403 -0.41315 17.4615 -13.7985 5.10945 -9.40205 0.247118 -0.621403 -0.41315 17.4615 -13.7985 5.10945 -9.40205 0.247118 -0.621403 -0.41315 0 0 0 0 0 0 0 0 0 0 0 0 0 0 3.09761 0.70617 -2.65655 -1.42803 -0.516989 -0.00762521 0.115903 3.09761 0.70617 -2.65655 -1.42803 -0.516989 -0.00762521 0.115903 3.09761 0.70617 -2.65655 -1.42803 -0.516989 -0.00762521 0.115903 3.09761 0.70617 -2.65655 -1.42803 -0.516989 -0.00762521 0.115903 0 0 0 0 0 0 0 0 0 0 0 0 0 0 54 0.145946 0.401235 17.4615 -13.7985 5.10945 -9.40205 0.247118 -0.621403 -0.41315 3.09761 0.70617 -2.65655 -1.42803 -0.516989 -0.00762521 0.115903 
14.4491 -12.6783 1.58064 -6.74837 0.883488 -0.35507 -0.348007 1.52413 -0.464479 -0.681524 1.2817 0.293832 0.454068 0.0194675 0.689881 0.564482 -0.261725 0.297987 -2.20797 -2.21925 0.00616783 0.000485217 4.63989e-05 0.000311196 -0.000369378 9.88994e-05 5.58713e-05 -1.74241e-05 3.19494 2.52975 -1.23188 1.51342 -1.84043 -1.57917 2.52458 0.000997525 0.000455856 4.81606e-05 0.000885963 -0.000827312 3.57628e-05 0.000430584 3.11837 0.751007 -2.67448 -1.41682 -0.446837 -0.0320259 0.18453 3.11238 0.753248 -2.66327 -1.42355 -0.448362 -0.0442262 0.183005 57 4209.58 0.448 1.46972e+09 0.441667 1 0 19.0175 -16.3677 3.54381 -9.01144 0.443295 -0.573203 -0.483525 19.0175 -16.3677 3.54381 -9.01144 0.443295 -0.573203 -0.483525 19.0175 -16.3677 3.54381 -9.01144 0.443295 -0.573203 -0.483525 19.0175 -16.3677 3.54381 -9.01144 0.443295 -0.573203 -0.483525 0 0 0 0 0 0 0 0 0 0 0 0 0 0 3.18611 0.75549 -2.70138 -1.51098 -0.480388 -0.0122003 0.122003 3.18611 0.75549 -2.70138 -1.51098 -0.480388 -0.0122003 0.122003 3.18611 0.75549 -2.70138 -1.51098 -0.480388 -0.0122003 0.122003 3.18611 0.75549 -2.70138 -1.51098 -0.480388 -0.0122003 0.122003 0 0 0 0 0 0 0 0 0 0 0 0 0 0 55 0.148649 0.399979 19.0175 -16.3677 3.54381 -9.01144 0.443295 -0.573203 -0.483525 3.18611 0.75549 -2.70138 -1.51098 -0.480388 -0.0122003 0.122003 
21.1755 -18.2163 2.3198 -10.5445 0.316182 -1.58851 0.178279 6.75473 -5.53801 0.739155 -3.79612 -0.567306 -1.23344 0.526286 0.689646 0.564505 -0.261467 0.297625 -2.20794 -2.21918 0.00625321 0.00044472 2.33147e-05 0.000257272 -0.000361999 3.27728e-05 7.06631e-05 8.5373e-05 3.19563 2.53012 -1.23183 1.5143 -1.84127 -1.5792 2.52496 0.000950644 0.000371933 4.76837e-05 0.000873566 -0.000839233 -3.57628e-05 0.000383615 3.18913 0.789117 -2.77088 -1.3675 -0.471238 -0.0289758 0.234856 3.19232 0.782392 -2.76191 -1.39665 -0.480388 -0.0289758 0.225706 58 4209.58 0.456 1.46972e+09 0.448639 1 0 23.1201 -19.2864 3.70344 -12.2009 0.0492054 -1.36555 -0.433531 23.1201 -19.2864 3.70344 -12.2009 0.0492054 -1.36555 -0.433531 23.1201 -19.2864 3.70344 -12.2009 0.0492054 -1.36555 -0.433531 23.1201 -19.2864 3.70344 -12.2009 0.0492054 -1.36555 -0.433531 0 0 0 0 0 0 0 0 0 0 0 0 0 0 3.09542 0.764457 -2.59377 -1.5065 -0.466663 -0.00915025 0.141829 3.09542 0.764457 -2.59377 -1.5065 -0.466663 -0.00915025 0.141829 3.09542 0.764457 -2.59377 -1.5065 -0.466663 -0.00915025 0.141829 3.09542 0.764457 -2.59377 -1.5065 -0.466663 -0.00915025 0.141829 0 0 0 0 0 0 0 0 0 0 0 0 0 0 56 0.151351 0.398654 23.1201 -19.2864 3.70344 -12.2009 0.0492054 -1.36555 -0.433531 3.09542 0.764457 -2.59377 -1.5065 -0.466663 -0.00915025 0.141829 
17.1795 -14.1226 -1.35449 -9.68775 0.793671 -0.979147 0.680242 5.56706 4.09363 -3.67428 0.856744 0.47749 0.609364 0.501964 0.689412 0.564536 -0.261174 0.29728 -2.20794 -2.21912 0.00623844 0.000453883 3.09895e-05 0.000293247 -0.000345044 2.19894e-06 6.64254e-05 -1.47643e-05 3.19637 2.53054 -1.23182 1.51518 -1.84212 -1.57918 2.5254 0.000980287 0.000419378 1.23978e-05 0.000885963 -0.000851154 2.38419e-05 0.000442505 3.23885 0.748765 -2.81123 -1.42355 -0.497163 -0.0335509 0.221131 3.23677 0.739797 -2.81347 -1.41907 -0.498688 -0.0259257 0.204356 59 4209.59 0.464 1.46972e+09 0.456586 1 0 25.744 -22.5278 4.6687 -11.5523 -0.0751328 -1.68641 -0.238817 25.744 -22.5278 4.6687 -11.5523 -0.0751328 -1.68641 -0.238817 25.744 -22.5278 4.6687 -11.5523 -0.0751328 -1.68641 -0.238817 25.744 -22.5278 4.6687 -11.5523 -0.0751328 -1.68641 -0.238817 0 0 0 0 0 0 0 0 0 0 0 0 0 0 3.18063 0.766699 -2.67 -1.54909 -0.497163 -0.0122003 0.158604 3.18063 0.766699 -2.67 -1.54909 -0.497163 -0.0122003 0.158604 3.18063 0.766699 -2.67 -1.54909 -0.497163 -0.0122003 0.158604 3.18063 0.766699 -2.67 -1.54909 -0.497163 -0.0122003 0.158604 0 0 0 0 0 0 0 0 0 0 0 0 0 0 57 0.154054 0.397273 25.744 -22.5278 4.6687 -11.5523 -0.0751328 -1.68641 -0.238817 3.18063 0.766699 -2.67 -1.54909 -0.497163 -0.0122003 0.158604 
18.2355 -14.9052 0.186158 -10.504 0.803997 -0.92932 0.543328 1.91109 -0.782587 1.54064 -0.816236 0.010326 0.0498266 -0.136914 0.689167 0.564554 -0.260911 0.296909 -2.20791 -2.21907 0.00628102 0.000455493 1.79641e-05 0.000262787 -0.00037161 3.19248e-05 4.46103e-05 4.25725e-05 3.19709 2.53091 -1.23179 1.5161 -1.84302 -1.57919 2.52578 0.000994403 0.000371456 3.57628e-05 0.000921726 -0.000898838 -1.19209e-05 0.000371218 3.30384 0.726347 -2.83365 -1.53564 -0.536815 -0.0183005 0.161654 3.29929 0.728588 -2.83141 -1.52891 -0.54749 -0.0228756 0.140304 60 4209.6 0.472 1.46972e+09 0.464933 1 0 26.023 -22.3523 4.25931 -12.6266 0.104311 -1.53174 -0.0747283 26.023 -22.3523 4.25931 -12.6266 0.104311 -1.53174 -0.0747283 26.023 -22.3523 4.25931 -12.6266 0.104311 -1.53174 -0.0747283 26.023 -22.3523 4.25931 -12.6266 0.104311 -1.53174 -0.0747283 0 0 0 0 0 0 0 0 0 0 0 0 0 0 3.34237 0.802568 -2.88297 -1.48856 -0.54749 0.00610016 0.211981 3.34237 0.802568 -2.88297 -1.48856 -0.54749 0.00610016 0.211981 3.34237 0.802568 -2.88297 -1.48856 -0.54749 0.00610016 0.211981 3.34237 0.802568 -2.88297 -1.48856 -0.54749 0.00610016 0.211981 0 0 0 0 0 0 0 0 0 0 0 0 0 0 58 0.156757 0.395996 26.023 -22.3523 4.25931 -12.6266 0.104311 -1.53174 -0.0747283 3.34237 0.802568 -2.88297 -1.48856 -0.54749 0.00610016 0.211981 
23.4468 -18.4038 4.19845 -13.9078 0.360742 -1.10806 -0.0714367 6.31857 -3.49857 4.01229 -3.4038 -0.443255 -0.178743 -0.614765 0.688954 0.564589 -0.260612 0.296612 -2.20785 -2.21916 0.00624648 0.00042321 3.49973e-05 0.000299672 -0.00029678 5.8689e-05 -8.96822e-05 -3.45304e-05 3.19783 2.53135 -1.23181 1.51693 -1.84385 -1.57917 2.52613 0.000933212 0.000432014 -2.43187e-05 0.000826836 -0.000827312 2.38419e-05 0.000359297 3.17282 0.699445 -2.73501 -1.44821 -0.520039 -0.0198255 0.118953 3.17802 0.697203 -2.74398 -1.44373 -0.513939 -0.0198255 0.108278 61 4209.61 0.48 1.46972e+09 0.473446 1 0 18.9126 -14.8465 -0.956032 -11.677 0.700558 -0.304769 0.452061 18.9126 -14.8465 -0.956032 -11.677 0.700558 -0.304769 0.452061 18.9126 -14.8465 -0.956032 -11.677 0.700558 -0.304769 0.452061 18.9126 -14.8465 -0.956032 -11.677 0.700558 -0.304769 0.452061 0 0 0 0 0 0 0 0 0 0 0 0 0 0 3.311 0.739797 -2.88073 -1.45494 -0.491063 -0.00915025 0.213506 3.311 0.739797 -2.88073 -1.45494 -0.491063 -0.00915025 0.213506 3.311 0.739797 -2.88073 -1.45494 -0.491063 -0.00915025 0.213506 3.311 0.739797 -2.88073 -1.45494 -0.491063 -0.00915025 0.213506 0 0 0 0 0 0 0 0 0 0 0 0 0 0 59 0.159459 0.394725 18.9126 -14.8465 -0.956032 -11.677 0.700558 -0.304769 0.452061 3.311 0.739797 -2.88073 -1.45494 -0.491063 -0.00915025 0.213506 
18.4599 -15.4527 3.11407 -9.60645 0.626947 -0.62025 -0.45773 5.32787 2.95108 -1.08438 4.30133 0.266205 0.487814 -0.386293 0.688734 0.564618 -0.260346 0.29628 -2.20805 -2.21908 0.00623376 0.000426262 2.84943e-05 0.000265598 -0.000332182 -0.000199747 7.79547e-05 -1.27236e-05 3.19855 2.53173 -1.2318 1.51782 -1.84483 -1.57917 2.52664 0.000965186 0.000383854 1.23978e-05 0.000885487 -0.000982761 0 0.000502825 3.17434 0.6434 -2.75519 -1.43924 -0.54444 -0.0122003 0.115903 3.1792 0.66806 -2.76191 -1.42579 -0.55054 -0.0167755 0.114378 62 4209.62 0.488 1.46972e+09 0.481328 1 0 18.2338 -13.5022 -0.167759 -12.2529 0.423972 -0.790256 0.467112 18.2338 -13.5022 -0.167759 -12.2529 0.423972 -0.790256 0.467112 18.2338 -13.5022 -0.167759 -12.2529 0.423972 -0.790256 0.467112 18.2338 -13.5022 -0.167759 -12.2529 0.423972 -0.790256 0.467112 0 0 0 0 0 0 0 0 0 0 0 0 0 0 3.24891 0.807052 -2.81123 -1.41458 -0.521564 0.0152504 0.186055 3.24891 0.807052 -2.81123 -1.41458 -0.521564 0.0152504 0.186055 3.24891 0.807052 -2.81123 -1.41458 -0.521564 0.0152504 0.186055 3.24891 0.807052 -2.81123 -1.41458 -0.521564 0.0152504 0.186055 0 0 0 0 0 0 0 0 0 0 0 0 0 0 60 0.162162 0.393397 18.2338 -13.5022 -0.167759 -12.2529 0.423972 -0.790256 0.467112 3.24891 0.807052 -2.81123 -1.41458 -0.521564 0.0152504 0.186055 
16.9759 -13.8306 3.74069 -9.10508 0.676381 -0.200771 -0.495599 1.8098 1.62214 0.626613 0.501374 0.0494347 0.419479 -0.0378694 0.688502 0.564631 -0.260061 0.295965 -2.20809 -2.21916 0.00621987 0.000424402 1.33526e-05 0.000284597 -0.000314553 -4.07264e-05 -7.99191e-05 -1.38885e-05 3.19932 2.53212 -1.23185 1.51874 -1.84579 -1.57917 2.52701 0.00100451 0.000395298 -4.81606e-05 0.000922203 -0.00095892 0 0.000371218 3.15405 0.661334 -2.7933 -1.30698 -0.54444 -0.0106753 0.109803 3.12968 0.659092 -2.76415 -1.31146 -0.535289 -0.00305008 0.108278 63 4209.62 0.496 1.46972e+09 0.489359 1 0 17.443 -14.2507 -0.680373 -10.0357 0.566181 -0.302903 0.204812 17.443 -14.2507 -0.680373 -10.0357 0.566181 -0.302903 0.204812 17.443 -14.2507 -0.680373 -10.0357 0.566181 -0.302903 0.204812 17.443 -14.2507 -0.680373 -10.0357 0.566181 -0.302903 0.204812 0 0 0 0 0 0 0 0 0 0 0 0 0 0 3.18416 0.768941 -2.76191 -1.38544 -0.577991 0.00610016 0.122003 3.18416 0.768941 -2.76191 -1.38544 -0.577991 0.00610016 0.122003 3.18416 0.768941 -2.76191 -1.38544 -0.577991 0.00610016 0.122003 3.18416 0.768941 -2.76191 -1.38544 -0.577991 0.00610016 0.122003 0 0 0 0 0 0 0 0 0 0 0 0 0 0 61 0.164865 0.392045 17.443 -14.2507 -0.680373 -10.0357 0.566181 -0.302903 0.204812 3.18416 0.768941 -2.76191 -1.38544 -0.577991 0.00610016 0.122003 
10.3004 -7.72577 0.628128 -6.78355 1.04317 0.499749 -0.548541 7.23507 6.10481 -3.11256 2.32153 0.366793 0.700521 -0.0529419 0.68829 0.564683 -0.259759 0.295637 -2.2081 -2.21929 0.00620341 0.000449312 5.22804e-05 0.000302508 -0.00032808 -8.50016e-06 -0.000128778 -1.64607e-05 3.20008 2.53258 -1.23182 1.5196 -1.84677 -1.57917 2.5274 0.000975104 0.000455856 2.43187e-05 0.000861645 -0.000982761 0 0.00039506 3.04297 0.555969 -2.68569 -1.31818 -0.55664 0.00305008 0.106753 3.05168 0.576145 -2.69241 -1.31594 -0.56274 0 0.108278 64 4209.63 0.504 1.46972e+09 0.497317 1 0 14.9529 -12.7196 0.354754 -7.85343 0.987132 0.399721 -0.436987 14.9529 -12.7196 0.354754 -7.85343 0.987132 0.399721 -0.436987 14.9529 -12.7196 0.354754 -7.85343 0.987132 0.399721 -0.436987 14.9529 -12.7196 0.354754 -7.85343 0.987132 0.399721 -0.436987 0 0 0 0 0 0 0 0 0 0 0 0 0 0 3.12596 0.733072 -2.71932 -1.3563 -0.56884 -0.00457512 0.115903 3.12596 0.733072 -2.71932 -1.3563 -0.56884 -0.00457512 0.115903 3.12596 0.733072 -2.71932 -1.3563 -0.56884 -0.00457512 0.115903 3.12596 0.733072 -2.71932 -1.3563 -0.56884 -0.00457512 0.115903 0 0 0 0 0 0 0 0 0 0 0 0 0 0 62 0.167568 0.390774 14.9529 -12.7196 0.354754 -7.85343 0.987132 0.399721 -0.436987 3.12596 0.733072 -2.71932 -1.3563 -0.56884 -0.00457512 0.115903 
12.3389 -10.097 4.20833 -5.70867 0.754255 0.563754 -0.57675 4.42671 -2.37119 3.5802 1.07487 -0.28892 0.0640042 -0.0282089 0.688053 0.564713 -0.259467 0.295285 -2.20805 -2.21926 0.0062098 0.000458096 3.0187e-05 0.000292248 -0.000351472 4.85191e-05 3.28789e-05 6.38743e-06 3.20083 2.533 -1.2318 1.52049 -1.84762 -1.57916 2.52781 0.000980703 0.000419855 2.38419e-05 0.000885963 -0.000851631 1.19209e-05 0.000406981 3.04734 0.513375 -2.6969 -1.32267 -0.503264 0.0198255 0.132679 3.04074 0.5201 -2.6969 -1.30473 -0.495638 0.00305008 0.131154 65 4209.64 0.512 1.46972e+09 0.505165 1 0 13.9718 -12.1032 0.992863 -6.90925 1.02179 0.392487 -0.489823 13.9718 -12.1032 0.992863 -6.90925 1.02179 0.392487 -0.489823 13.9718 -12.1032 0.992863 -6.90925 1.02179 0.392487 -0.489823 13.9718 -12.1032 0.992863 -6.90925 1.02179 0.392487 -0.489823 0 0 0 0 0 0 0 0 0 0 0 0 0 0 3.10369 0.650125 -2.70587 -1.37423 -0.498688 0.0213506 0.112853 3.10369 0.650125 -2.70587 -1.37423 -0.498688 0.0213506 0.112853 3.10369 0.650125 -2.70587 -1.37423 -0.498688 0.0213506 0.112853 3.10369 0.650125 -2.70587 -1.37423 -0.498688 0.0213506 0.112853 0 0 0 0 0 0 0 0 0 0 0 0 0 0 63 0.17027 0.389437 13.9718 -12.1032 0.992863 -6.90925 1.02179 0.392487 -0.489823 3.10369 0.650125 -2.70587 -1.37423 -0.498688 0.0213506 0.112853 
13.1115 -9.77099 4.58336 -7.44518 0.184048 0.116342 -0.325928 1.8062 0.325972 0.37503 -1.73651 -0.570207 -0.447412 0.250822 0.687843 0.564735 -0.259203 0.294984 -2.20813 -2.21922 0.00617091 0.00040061 2.12924e-05 0.000263507 -0.000300997 -8.3919e-05 3.45193e-05 -3.88849e-05 3.20152 2.53337 -1.23181 1.52131 -1.84848 -1.57913 2.52823 0.000905657 0.000371456 -1.23978e-05 0.000825882 -0.000851154 2.43187e-05 0.00041914 3.02623 0.499924 -2.67224 -1.32939 -0.54139 0.00457512 0.173855 3.03093 0.504407 -2.67672 -1.32939 -0.54444 0.00305008 0.170805 66 4209.65 0.52 1.46972e+09 0.513358 1 0 15.8154 -12.6698 3.20796 -8.90565 0.126491 -0.230235 -0.52313 15.8154 -12.6698 3.20796 -8.90565 0.126491 -0.230235 -0.52313 15.8154 -12.6698 3.20796 -8.90565 0.126491 -0.230235 -0.52313 15.8154 -12.6698 3.20796 -8.90565 0.126491 -0.230235 -0.52313 0 0 0 0 0 0 0 0 0 0 0 0 0 0 3.06425 0.589596 -2.70811 -1.30698 -0.521564 -0.0259257 0.112853 3.06425 0.589596 -2.70811 -1.30698 -0.521564 -0.0259257 0.112853 3.06425 0.589596 -2.70811 -1.30698 -0.521564 -0.0259257 0.112853 3.06425 0.589596 -2.70811 -1.30698 -0.521564 -0.0259257 0.112853 0 0 0 0 0 0 0 0 0 0 0 0 0 0 64 0.172973 0.388083 15.8154 -12.6698 3.20796 -8.90565 0.126491 -0.230235 -0.52313 3.06425 0.589596 -2.70811 -1.30698 -0.521564 -0.0259257 0.112853 
13.6658 -11.1016 4.8183 -6.34768 0.545183 0.301588 0.0779951 1.74072 -1.33057 0.234934 1.0975 0.361135 0.185246 0.403923 0.687597 0.564783 -0.258863 0.294617 -2.20804 -2.21925 0.00606192 0.000502841 4.8715e-05 0.000339877 -0.000367369 9.35239e-05 -2.67246e-05 -0.000108998 3.20234 2.53386 -1.23179 1.52224 -1.8494 -1.57905 2.52866 0.00105556 0.000491858 2.43187e-05 0.000933647 -0.00092268 8.34465e-05 0.000430822 3.04133 0.457329 -2.6969 -1.32939 -0.54749 -0.0167755 0.17843 3.03701 0.461813 -2.68569 -1.3406 -0.558165 -0.0305008 0.186055 67 4209.66 0.528 1.46972e+09 0.523758 1 0 11.9903 -9.29381 3.05012 -6.93467 0.745914 0.114224 -0.527203 11.9903 -9.29381 3.05012 -6.93467 0.745914 0.114224 -0.527203 11.9903 -9.29381 3.05012 -6.93467 0.745914 0.114224 -0.527203 11.9903 -9.29381 3.05012 -6.93467 0.745914 0.114224 -0.527203 0 0 0 0 0 0 0 0 0 0 0 0 0 0 3.08878 0.551485 -2.6969 -1.40113 -0.552065 -0.0274507 0.126578 3.08878 0.551485 -2.6969 -1.40113 -0.552065 -0.0274507 0.126578 3.08878 0.551485 -2.6969 -1.40113 -0.552065 -0.0274507 0.126578 3.08878 0.551485 -2.6969 -1.40113 -0.552065 -0.0274507 0.126578 0 0 0 0 0 0 0 0 0 0 0 0 0 0 65 0.175676 0.38678 11.9903 -9.29381 3.05012 -6.93467 0.745914 0.114224 -0.527203 3.08878 0.551485 -2.6969 -1.40113 -0.552065 -0.0274507 0.126578 
12.8288 -9.84139 5.33983 -6.26183 0.698435 0.338959 0.122162 1.36653 1.26017 0.521535 0.0858437 0.153251 0.0373711 0.0441671 0.687397 0.564795 -0.258642 0.294323 -2.20821 -2.2192 0.00606549 0.000368426 1.17126e-05 0.000221718 -0.00029401 -0.000173917 4.99715e-05 3.57711e-06 3.20297 2.53418 -1.23179 1.52305 -1.85029 -1.57906 2.52907 0.000860893 0.000311613 0 0.000802517 -0.000887394 -1.19209e-05 0.000406981 3.09328 0.522342 -2.69017 -1.43476 -0.573415 -0.0579516 0.161654 3.08745 0.524584 -2.69017 -1.42131 -0.564265 -0.0625267 0.157079 68 4209.66 0.536 1.46972e+09 0.52879 1 0 15.6319 -12.3811 5.09541 -8.0686 0.693216 0.00390724 -0.39156 15.6319 -12.3811 5.09541 -8.0686 0.693216 0.00390724 -0.39156 15.6319 -12.3811 5.09541 -8.0686 0.693216 0.00390724 -0.39156 15.6319 -12.3811 5.09541 -8.0686 0.693216 0.00390724 -0.39156 0 0 0 0 0 0 0 0 0 0 0 0 0 0 3.03938 0.506649 -2.6274 -1.44148 -0.552065 -0.0610016 0.166229 3.03938 0.506649 -2.6274 -1.44148 -0.552065 -0.0610016 0.166229 3.03938 0.506649 -2.6274 -1.44148 -0.552065 -0.0610016 0.166229 3.03938 0.506649 -2.6274 -1.44148 -0.552065 -0.0610016 0.166229 0 0 0 0 0 0 0 0 0 0 0 0 0 0 66 0.178378 0.38546 15.6319 -12.3811 5.09541 -8.0686 0.693216 0.00390724 -0.39156 3.03938 0.506649 -2.6274 -1.44148 -0.552065 -0.0610016 0.166229 
17.3295 -14.0395 6.02934 -8.17624 1.00899 -0.159308 -0.0487688 4.66528 -4.19815 0.689511 -1.9144 0.310552 -0.498267 -0.170931 0.687147 0.564838 -0.258342 0.293918 -2.20813 -2.21921 0.00609091 0.000505212 4.28958e-05 0.0002994 -0.000404671 8.63305e-05 -6.99266e-06 2.54158e-05 3.20374 2.53462 -1.2317 1.52399 -1.85126 -1.57906 2.52946 0.00104786 0.000443697 8.39233e-05 0.000945568 -0.00097084 0 0.00039506 3.15959 0.497682 -2.80451 -1.3675 -0.474288 -0.0564265 0.117428 3.15518 0.49544 -2.79554 -1.37647 -0.466663 -0.0655768 0.123528 69 4209.67 0.544 1.46972e+09 0.537793 1 0 19.1162 -15.6963 6.94877 -8.41243 0.787569 -0.488148 -0.00352988 19.1162 -15.6963 6.94877 -8.41243 0.787569 -0.488148 -0.00352988 19.1162 -15.6963 6.94877 -8.41243 0.787569 -0.488148 -0.00352988 19.1162 -15.6963 6.94877 -8.41243 0.787569 -0.488148 -0.00352988 0 0 0 0 0 0 0 0 0 0 0 0 0 0 3.15566 0.542518 -2.73277 -1.48184 -0.509364 -0.0457512 0.192155 3.15566 0.542518 -2.73277 -1.48184 -0.509364 -0.0457512 0.192155 3.15566 0.542518 -2.73277 -1.48184 -0.509364 -0.0457512 0.192155 3.15566 0.542518 -2.73277 -1.48184 -0.509364 -0.0457512 0.192155 0 0 0 0 0 0 0 0 0 0 0 0 0 0 67 0.181081 0.384154 19.1162 -15.6963 6.94877 -8.41243 0.787569 -0.488148 -0.00352988 3.15566 0.542518 -2.73277 -1.48184 -0.509364 -0.0457512 0.192155 
14.3313 -9.17353 4.92016 -9.85007 0.469693 -0.689049 -0.481763 5.26404 4.86601 -1.10919 -1.67383 -0.539293 -0.529741 -0.432994 0.686922 0.564852 -0.258078 0.293599 -2.2082 -2.21919 0.00610796 0.000414729 1.3768e-05 0.000264603 -0.000319055 -7.48075e-05 1.74351e-05 1.70519e-05 3.20445 2.53499 -1.23171 1.52487 -1.85216 -1.57907 2.52987 0.000949775 0.000371456 -1.19209e-05 0.000874043 -0.000899315 -1.19209e-05 0.000407219 3.24357 0.589596 -2.874 -1.3832 -0.478863 -0.0244007 0.132679 3.23872 0.596322 -2.86279 -1.39216 -0.489538 -0.0533764 0.137254 70 4209.68 0.552 1.46972e+09 0.545174 1 0 19.9371 -15.4259 5.75684 -11.2423 0.408949 -0.966808 0.25374 19.9371 -15.4259 5.75684 -11.2423 0.408949 -0.966808 0.25374 19.9371 -15.4259 5.75684 -11.2423 0.408949 -0.966808 0.25374 19.9371 -15.4259 5.75684 -11.2423 0.408949 -0.966808 0.25374 0 0 0 0 0 0 0 0 0 0 0 0 0 0 3.22252 0.598563 -2.81123 -1.45718 -0.446837 -0.0411761 0.189105 3.22252 0.598563 -2.81123 -1.45718 -0.446837 -0.0411761 0.189105 3.22252 0.598563 -2.81123 -1.45718 -0.446837 -0.0411761 0.189105 3.22252 0.598563 -2.81123 -1.45718 -0.446837 -0.0411761 0.189105 0 0 0 0 0 0 0 0 0 0 0 0 0 0 68 0.183784 0.382718 19.9371 -15.4259 5.75684 -11.2423 0.408949 -0.966808 0.25374 3.22252 0.598563 -2.81123 -1.45718 -0.446837 -0.0411761 0.189105 
14.1975 -8.70929 2.55277 -10.9179 0.39542 -0.524167 -0.329389 2.63823 0.464234 -2.36739 -1.06781 -0.0742737 0.164882 0.152374 0.686681 0.564871 -0.257789 0.293253 -2.2082 -2.2192 0.00611678 0.000451577 1.92668e-05 0.000288974 -0.000346475 5.52667e-06 -9.33015e-06 8.82037e-06 3.20521 2.5354 -1.23171 1.52579 -1.85308 -1.57907 2.53027 0.00100796 0.000407934 0 0.000921726 -0.00092268 0 0.00039506 3.24734 0.636674 -2.83365 -1.45269 -0.439212 -0.0320259 0.134204 3.24412 0.645641 -2.83365 -1.44148 -0.443787 -0.0472763 0.141829 71 4209.69 0.56 1.46972e+09 0.555626 1 0 19.1783 -13.7818 3.53658 -12.8594 0.137904 -1.4417 0.224087 19.1783 -13.7818 3.53658 -12.8594 0.137904 -1.4417 0.224087 19.1783 -13.7818 3.53658 -12.8594 0.137904 -1.4417 0.224087 19.1783 -13.7818 3.53658 -12.8594 0.137904 -1.4417 0.224087 0 0 0 0 0 0 0 0 0 0 0 0 0 0 3.22703 0.600805 -2.79105 -1.50425 -0.466663 -0.0274507 0.147929 3.22703 0.600805 -2.79105 -1.50425 -0.466663 -0.0274507 0.147929 3.22703 0.600805 -2.79105 -1.50425 -0.466663 -0.0274507 0.147929 3.22703 0.600805 -2.79105 -1.50425 -0.466663 -0.0274507 0.147929 0 0 0 0 0 0 0 0 0 0 0 0 0 0 69 0.186486 0.381381 19.1783 -13.7818 3.53658 -12.8594 0.137904 -1.4417 0.224087 3.22703 0.600805 -2.79105 -1.50425 -0.466663 -0.0274507 0.147929 
18.6949 -13.1156 3.23564 -12.9232 0.0746516 -1.41408 -0.315006 4.88911 -4.40633 0.682879 -2.00531 -0.320768 -0.889917 0.0143824 0.686464 0.564894 -0.257513 0.29294 -2.20831 -2.21922 0.0061177 0.000417584 2.32095e-05 0.000275508 -0.000312943 -0.000117443 -2.44427e-05 9.18921e-07 3.20595 2.53579 -1.23173 1.52666 -1.85404 -1.57909 2.5307 0.000959356 0.000395298 -1.23978e-05 0.000874043 -0.000959396 -1.19209e-05 0.000431061 3.23731 0.692719 -2.81123 -1.44821 -0.468188 -0.0442262 0.122003 3.22669 0.688236 -2.79778 -1.45269 -0.452937 -0.0411761 0.132679 72 4209.7 0.568 1.46972e+09 0.560997 1 0 20.5612 -14.8889 4.89381 -13.3091 0.0114416 -1.33621 -0.180165 20.5612 -14.8889 4.89381 -13.3091 0.0114416 -1.33621 -0.180165 20.5612 -14.8889 4.89381 -13.3091 0.0114416 -1.33621 -0.180165 20.5612 -14.8889 4.89381 -13.3091 0.0114416 -1.33621 -0.180165 0 0 0 0 0 0 0 0 0 0 0 0 0 0 3.18196 0.724105 -2.64758 -1.60962 -0.472763 -0.0198255 0.118953 3.18196 0.724105 -2.64758 -1.60962 -0.472763 -0.0198255 0.118953 3.18196 0.724105 -2.64758 -1.60962 -0.472763 -0.0198255 0.118953 3.18196 0.724105 -2.64758 -1.60962 -0.472763 -0.0198255 0.118953 0 0 0 0 0 0 0 0 0 0 0 0 0 0 70 0.189189 0.380013 20.5612 -14.8889 4.89381 -13.3091 0.0114416 -1.33621 -0.180165 3.18196 0.724105 -2.64758 -1.60962 -0.472763 -0.0198255 0.118953 
18.5347 -13.8576 2.74053 -11.9996 0.42847 -1.23923 -0.437998 1.28398 -0.741959 -0.495118 0.923552 0.353818 0.174857 -0.122992 0.68623 0.564923 -0.257215 0.292599 -2.20824 -2.21929 0.00616669 0.000453294 2.88841e-05 0.000297615 -0.000340686 7.92872e-05 -6.99704e-05 4.89917e-05 3.20671 2.53623 -1.23171 1.52755 -1.85492 -1.57911 2.53105 0.000986188 0.000432014 1.23978e-05 0.00088644 -0.00088644 -2.38419e-05 0.00035882 3.21016 0.674785 -2.78433 -1.44821 -0.355335 -0.0152504 0.128103 3.19727 0.670301 -2.77984 -1.43028 -0.361435 -0.0335509 0.131154 73 4209.7 0.576 1.46972e+09 0.569668 1 0 28.8895 -24.2826 6.86261 -14.0664 -0.2151 -2.08063 -0.467535 28.8895 -24.2826 6.86261 -14.0664 -0.2151 -2.08063 -0.467535 28.8895 -24.2826 6.86261 -14.0664 -0.2151 -2.08063 -0.467535 28.8895 -24.2826 6.86261 -14.0664 -0.2151 -2.08063 -0.467535 0 0 0 0 0 0 0 0 0 0 0 0 0 0 3.14075 0.78015 -2.67672 -1.44597 -0.379735 -0.00762521 0.155554 3.14075 0.78015 -2.67672 -1.44597 -0.379735 -0.00762521 0.155554 3.14075 0.78015 -2.67672 -1.44597 -0.379735 -0.00762521 0.155554 3.14075 0.78015 -2.67672 -1.44597 -0.379735 -0.00762521 0.155554 0 0 0 0 0 0 0 0 0 0 0 0 0 0 71 0.191892 0.378759 28.8895 -24.2826 6.86261 -14.0664 -0.2151 -2.08063 -0.467535 3.14075 0.78015 -2.67672 -1.44597 -0.379735 -0.00762521 0.155554 
21.4354 -15.3815 3.69247 -14.4655 -0.644841 -2.30493 -0.371541 3.05106 -1.52387 0.951941 -2.46588 -1.07331 -1.0657 0.0664568 0.686023 0.564954 -0.25693 0.292305 -2.20836 -2.21935 0.00606584 0.000411171 3.0499e-05 0.00028543 -0.000294382 -0.000121935 -5.50893e-05 -0.000100856 3.20744 2.53663 -1.23174 1.5284 -1.85588 -1.57906 2.53149 0.00094277 0.000407696 -2.38419e-05 0.000849724 -0.000959396 4.76837e-05 0.000431299 3.16509 0.652367 -2.73053 -1.46166 -0.404136 -0.036601 0.167755 3.15224 0.641158 -2.71707 -1.4639 -0.413286 -0.0320259 0.164704 74 4209.71 0.584 1.46972e+09 0.577151 1 0 23.4303 -19.1217 2.54077 -13.2997 -0.426751 -2.27959 -0.105046 23.4303 -19.1217 2.54077 -13.2997 -0.426751 -2.27959 -0.105046 23.4303 -19.1217 2.54077 -13.2997 -0.426751 -2.27959 -0.105046 23.4303 -19.1217 2.54077 -13.2997 -0.426751 -2.27959 -0.105046 0 0 0 0 0 0 0 0 0 0 0 0 0 0 3.23382 0.816019 -2.75967 -1.47511 -0.391936 -0.0137254 0.150979 3.23382 0.816019 -2.75967 -1.47511 -0.391936 -0.0137254 0.150979 3.23382 0.816019 -2.75967 -1.47511 -0.391936 -0.0137254 0.150979 3.23382 0.816019 -2.75967 -1.47511 -0.391936 -0.0137254 0.150979 0 0 0 0 0 0 0 0 0 0 0 0 0 0 72 0.194595 0.377399 23.4303 -19.1217 2.54077 -13.2997 -0.426751 -2.27959 -0.105046 3.23382 0.816019 -2.75967 -1.47511 -0.391936 -0.0137254 0.150979 
22.0416 -17.1368 4.28582 -13.1831 -0.187301 -2.08654 0.0162297 2.25337 -1.75531 0.593348 1.28238 0.45754 0.218397 0.387771 0.685791 0.564976 -0.256671 0.291944 -2.20841 -2.21931 0.00607111 0.000444658 2.26341e-05 0.000259071 -0.000360682 -5.69153e-05 3.63101e-05 5.27045e-06 3.20815 2.537 -1.23169 1.5293 -1.85684 -1.57906 2.53189 0.000972856 0.000371456 4.76837e-05 0.000897884 -0.000958443 0 0.000407219 3.14027 0.603047 -2.70587 -1.47511 -0.391936 -0.0213506 0.179955 3.15207 0.598563 -2.71932 -1.47735 -0.396511 -0.0305008 0.18148 75 4209.72 0.592 1.46972e+09 0.5858 1 0 23.2731 -18.2448 1.39126 -14.3815 -0.272986 -2.2241 -0.158827 23.2731 -18.2448 1.39126 -14.3815 -0.272986 -2.2241 -0.158827 23.2731 -18.2448 1.39126 -14.3815 -0.272986 -2.2241 -0.158827 23.2731 -18.2448 1.39126 -14.3815 -0.272986 -2.2241 -0.158827 0 0 0 0 0 0 0 0 0 0 0 0 0 0 3.23692 0.717379 -2.80226 -1.45269 -0.367535 -0.0289758 0.138779 3.23692 0.717379 -2.80226 -1.45269 -0.367535 -0.0289758 0.138779 3.23692 0.717379 -2.80226 -1.45269 -0.367535 -0.0289758 0.138779 3.23692 0.717379 -2.80226 -1.45269 -0.367535 -0.0289758 0.138779 0 0 0 0 0 0 0 0 0 0 0 0 0 0 73 0.197297 0.376023 23.2731 -18.2448 1.39126 -14.3815 -0.272986 -2.2241 -0.158827 3.23692 0.717379 -2.80226 -1.45269 -0.367535 -0.0289758 0.138779 
