skorbiz/ur5-force-experiment-data-visualization/catch.txt
force force0 force1 force2 force3 force4 force5 dforce dforce0 dforce1 dforce2 dforce3 dforce4 dforce5 TcpPose TcpPose0 TcpPose1 TcpPose2 TcpPose3 TcpPose4 TcpPose5 dTcpPose dTcpPose0 dTcpPose1 dTcpPose2 dTcpPose3 dTcpPose4 dTcpPose5 q q0 q1 q2 q3 q4 q5 dq dq0 dq1 dq2 dq3 dq4 dq5 iActual iActual0 iActual1 iActual2 iActual3 iActual4 iActual5 iControl iControl0 iControl1 iControl2 iControl3 iControl4 iControl5 sampleN time timeRelative timePc timePcRelative safetyMode errorState meanForce meanForce0 meanForce1 meanForce2 meanForce3 meanForce4 meanForce5 medianForce medianForce0 medianForce1 medianForce2 medianForce3 medianForce4 medianForce5 maxForce maxForce0 maxForce1 maxForce2 maxForce3 maxForce4 maxForce5 minForce minForce0 minForce1 minForce2 minForce3 minForce4 minForce5 stdDForce stdDForce0 stdDForce1 stdDForce2 stdDForce3 stdDForce4 stdDForce5 varForce varForce0 varForce1 varForce2 varForce3 varForce4 varForce5 meanCurrent meanCurrent0 meanCurrent1 meanCurrent2 meanCurrent3 meanCurrent4 meanCurrent5 medianCurrent medianCurrent0 medianCurrent1 medianCurrent2 medianCurrent3 medianCurrent4 medianCurrent5 maxCurrent maxCurrent0 maxCurrent1 maxCurrent2 maxCurrent3 maxCurrent4 maxCurrent5 minCurrent minCurrent0 minCurrent1 minCurrent2 minCurrent3 minCurrent4 minCurrent5 stdDCurrent stdDCurrent0 stdDCurrent1 stdDCurrent2 stdDCurrent3 stdDCurrent4 stdDCurrent5 varCurrent varCurrent0 varCurrent1 varCurrent2 varCurrent3 varCurrent4 varCurrent5 corrIndexSet0 corrIndexPercentageSet0 corrIndexQEndDistSet0 datasetForce0Sample datasetForce0Sample0 datasetForce0Sample1 datasetForce0Sample2 datasetForce0Sample3 datasetForce0Sample4 datasetForce0Sample5 datasetCurrent0Sample datasetCurrent0Sample0 datasetCurrent0Sample1 datasetCurrent0Sample2 datasetCurrent0Sample3 datasetCurrent0Sample4 datasetCurrent0Sample5 
26.7918 -21.1852 -1.96359 -16.2829 1.07292 -3.96494 1.36881 26.7918 -21.1852 -1.96359 -16.2829 1.07292 -3.96494 1.36881 0.701185 0.562353 -0.275884 0.315133 -2.20793 -2.22026 0.00473729 0.701185 0.562353 -0.275884 0.315133 -2.20793 -2.22026 0.00473729 3.15806 2.50888 -1.23265 1.46952 -1.79662 -1.57867 2.50352 3.15806 2.50888 -1.23265 1.46952 -1.79662 -1.57867 2.50352 3.59721 0.367657 -2.90987 -2.08264 -0.19978 -0.204356 0.150979 3.58016 0.387833 -2.89418 -2.07143 -0.19978 -0.219606 0.135729 1 4222.01 0 1.46972e+09 0 1 0 32.3019 -27.3073 -3.94483 -16.7976 0.912604 -4.53888 4.28653 32.3019 -27.3073 -3.94483 -16.7976 0.912604 -4.53888 4.28653 32.3019 -27.3073 -3.94483 -16.7976 0.912604 -4.53888 4.28653 32.3019 -27.3073 -3.94483 -16.7976 0.912604 -4.53888 4.28653 0 0 0 0 0 0 0 0 0 0 0 0 0 0 3.52033 0.44612 -2.7776 -2.11627 -0.17233 -0.20283 -0.205881 3.52033 0.44612 -2.7776 -2.11627 -0.17233 -0.20283 -0.205881 3.52033 0.44612 -2.7776 -2.11627 -0.17233 -0.20283 -0.205881 3.52033 0.44612 -2.7776 -2.11627 -0.17233 -0.20283 -0.205881 0 0 0 0 0 0 0 0 0 0 0 0 0 0 2 0.00540541 0.466003 32.3019 -27.3073 -3.94483 -16.7976 0.912604 -4.53888 4.28653 3.52033 0.44612 -2.7776 -2.11627 -0.17233 -0.20283 -0.205881 
25.8497 -19.6722 -1.33428 -16.7162 0.961297 -3.84752 1.46047 1.69498 1.513 0.629311 -0.433286 -0.11162 0.11742 0.0916584 0.701162 0.562344 -0.275888 0.315092 -2.20785 -2.2202 0.00478037 4.18508e-05 -8.65465e-06 -3.9676e-06 -4.07535e-05 8.75361e-05 6.02174e-05 4.30734e-05 3.15807 2.50886 -1.23262 1.46957 -1.79658 -1.57868 2.5035 5.46286e-05 -1.19209e-05 2.38419e-05 4.76837e-05 3.57628e-05 -1.19209e-05 -2.40803e-05 3.56293 0.385591 -2.86503 -2.08264 -0.207406 -0.210456 0.134204 3.55999 0.399042 -2.86279 -2.07816 -0.198255 -0.219606 0.137254 2 4222.02 0.008 1.46972e+09 0.00480103 1 0 32.3019 -27.3073 -3.94483 -16.7976 0.912604 -4.53888 4.28653 32.3019 -27.3073 -3.94483 -16.7976 0.912604 -4.53888 4.28653 32.3019 -27.3073 -3.94483 -16.7976 0.912604 -4.53888 4.28653 32.3019 -27.3073 -3.94483 -16.7976 0.912604 -4.53888 4.28653 0 0 0 0 0 0 0 0 0 0 0 0 0 0 3.52033 0.44612 -2.7776 -2.11627 -0.17233 -0.20283 -0.205881 3.52033 0.44612 -2.7776 -2.11627 -0.17233 -0.20283 -0.205881 3.52033 0.44612 -2.7776 -2.11627 -0.17233 -0.20283 -0.205881 3.52033 0.44612 -2.7776 -2.11627 -0.17233 -0.20283 -0.205881 0 0 0 0 0 0 0 0 0 0 0 0 0 0 2 0.00540541 0.466003 32.3019 -27.3073 -3.94483 -16.7976 0.912604 -4.53888 4.28653 3.52033 0.44612 -2.7776 -2.11627 -0.17233 -0.20283 -0.205881 
26.4513 -20.8796 -0.856282 -16.2166 1.04039 -3.88319 1.29428 1.39131 -1.20736 0.477993 0.499541 0.0790918 -0.0356688 -0.166182 0.701176 0.562355 -0.275869 0.315121 -2.20789 -2.22027 0.00477995 3.63217e-05 1.07665e-05 1.8383e-05 2.94179e-05 -4.65165e-05 -7.27525e-05 -4.11016e-07 3.15809 2.5089 -1.23265 1.46954 -1.79662 -1.57869 2.50352 4.9325e-05 3.60012e-05 -2.38419e-05 -2.38419e-05 -3.57628e-05 -1.19209e-05 2.40803e-05 3.55591 0.381108 -2.86503 -2.07143 -0.183005 -0.239431 0.146404 3.56416 0.3968 -2.86503 -2.08264 -0.198255 -0.219606 0.138779 3 4222.02 0.016 1.46972e+09 0.0130734 1 0 32.3019 -27.3073 -3.94483 -16.7976 0.912604 -4.53888 4.28653 32.3019 -27.3073 -3.94483 -16.7976 0.912604 -4.53888 4.28653 32.3019 -27.3073 -3.94483 -16.7976 0.912604 -4.53888 4.28653 32.3019 -27.3073 -3.94483 -16.7976 0.912604 -4.53888 4.28653 0 0 0 0 0 0 0 0 0 0 0 0 0 0 3.52033 0.44612 -2.7776 -2.11627 -0.17233 -0.20283 -0.205881 3.52033 0.44612 -2.7776 -2.11627 -0.17233 -0.20283 -0.205881 3.52033 0.44612 -2.7776 -2.11627 -0.17233 -0.20283 -0.205881 3.52033 0.44612 -2.7776 -2.11627 -0.17233 -0.20283 -0.205881 0 0 0 0 0 0 0 0 0 0 0 0 0 0 2 0.00540541 0.466003 32.3019 -27.3073 -3.94483 -16.7976 0.912604 -4.53888 4.28653 3.52033 0.44612 -2.7776 -2.11627 -0.17233 -0.20283 -0.205881 
26.5167 -20.7096 -1.04641 -16.5273 1.12605 -4.25402 1.4118 0.401989 0.17004 -0.190127 -0.310698 0.0856645 -0.370824 0.117512 0.701159 0.562349 -0.275868 0.315095 -2.20787 -2.2202 0.00485287 2.73351e-05 -6.24436e-06 8.80034e-07 -2.65978e-05 1.98158e-05 7.24968e-05 7.29144e-05 3.15811 2.5089 -1.23264 1.46958 -1.7966 -1.57873 2.50354 3.76973e-05 0 1.19209e-05 3.57628e-05 2.38419e-05 -3.62396e-05 2.40803e-05 3.55614 0.3968 -2.85831 -2.07816 -0.189105 -0.20283 0.143354 3.55909 0.392317 -2.85607 -2.08713 -0.19673 -0.218081 0.138779 4 4222.03 0.024 1.46972e+09 0.0203028 1 0 32.3019 -27.3073 -3.94483 -16.7976 0.912604 -4.53888 4.28653 32.3019 -27.3073 -3.94483 -16.7976 0.912604 -4.53888 4.28653 32.3019 -27.3073 -3.94483 -16.7976 0.912604 -4.53888 4.28653 32.3019 -27.3073 -3.94483 -16.7976 0.912604 -4.53888 4.28653 0 0 0 0 0 0 0 0 0 0 0 0 0 0 3.52033 0.44612 -2.7776 -2.11627 -0.17233 -0.20283 -0.205881 3.52033 0.44612 -2.7776 -2.11627 -0.17233 -0.20283 -0.205881 3.52033 0.44612 -2.7776 -2.11627 -0.17233 -0.20283 -0.205881 3.52033 0.44612 -2.7776 -2.11627 -0.17233 -0.20283 -0.205881 0 0 0 0 0 0 0 0 0 0 0 0 0 0 2 0.00540541 0.466003 32.3019 -27.3073 -3.94483 -16.7976 0.912604 -4.53888 4.28653 3.52033 0.44612 -2.7776 -2.11627 -0.17233 -0.20283 -0.205881 
14.5937 5.58461 9.7284 -9.33515 -0.56284 1.76431 -1.02001 29.3122 26.2942 10.7748 7.1922 -1.68889 6.01833 -2.43181 0.701164 0.562366 -0.275835 0.315104 -2.20808 -2.21994 0.00515014 3.88067e-05 1.69748e-05 3.34858e-05 9.8243e-06 -0.000205702 0.000266975 0.00029727 3.15814 2.50898 -1.23262 1.46952 -1.79648 -1.57891 2.50384 0.000103624 8.39233e-05 1.19209e-05 -5.96046e-05 0.000119686 -0.000179291 0.000299215 3.64024 1.05141 -2.51755 -2.40995 0.0640517 -0.413286 0.260782 3.64758 1.10745 -2.5041 -2.40995 -0.0106753 -0.288233 0.160129 5 4222.04 0.032 1.46972e+09 0.0281761 1 0 28.4603 -22.2538 4.39374 -17.1887 0.268413 -4.26903 -2.05638 28.4603 -22.2538 4.39374 -17.1887 0.268413 -4.26903 -2.05638 28.4603 -22.2538 4.39374 -17.1887 0.268413 -4.26903 -2.05638 28.4603 -22.2538 4.39374 -17.1887 0.268413 -4.26903 -2.05638 0 0 0 0 0 0 0 0 0 0 0 0 0 0 3.49306 0.441637 -2.73501 -2.12748 -0.166229 -0.19673 -0.0716769 3.49306 0.441637 -2.73501 -2.12748 -0.166229 -0.19673 -0.0716769 3.49306 0.441637 -2.73501 -2.12748 -0.166229 -0.19673 -0.0716769 3.49306 0.441637 -2.73501 -2.12748 -0.166229 -0.19673 -0.0716769 0 0 0 0 0 0 0 0 0 0 0 0 0 0 3 0.00810811 0.465997 28.4603 -22.2538 4.39374 -17.1887 0.268413 -4.26903 -2.05638 3.49306 0.441637 -2.73501 -2.12748 -0.166229 -0.19673 -0.0716769 
114.209 -84.4582 36.3422 -67.7473 -7.33731 -17.3002 0.783211 110.58 -90.0428 26.6138 -58.4121 -6.77447 -19.0645 1.80322 0.701135 0.562386 -0.27575 0.31508 -2.20834 -2.21972 0.00586695 9.09215e-05 2.0008e-05 8.53136e-05 -2.42485e-05 -0.000259175 0.000211897 0.000716814 3.15833 2.50918 -1.23264 1.46959 -1.7965 -1.57936 2.50425 0.000204945 0.000191689 -1.19209e-05 7.15256e-05 -2.38419e-05 -0.000454426 0.000406981 3.03752 0.907933 -2.80675 -0.724105 -0.283658 -0.219606 0.286708 3.03236 0.916901 -2.80451 -0.699445 -0.143354 -0.237906 0.257732 6 4222.05 0.04 1.46972e+09 0.0370295 1 0 28.4603 -22.2538 4.39374 -17.1887 0.268413 -4.26903 -2.05638 28.4603 -22.2538 4.39374 -17.1887 0.268413 -4.26903 -2.05638 28.4603 -22.2538 4.39374 -17.1887 0.268413 -4.26903 -2.05638 28.4603 -22.2538 4.39374 -17.1887 0.268413 -4.26903 -2.05638 0 0 0 0 0 0 0 0 0 0 0 0 0 0 3.49306 0.441637 -2.73501 -2.12748 -0.166229 -0.19673 -0.0716769 3.49306 0.441637 -2.73501 -2.12748 -0.166229 -0.19673 -0.0716769 3.49306 0.441637 -2.73501 -2.12748 -0.166229 -0.19673 -0.0716769 3.49306 0.441637 -2.73501 -2.12748 -0.166229 -0.19673 -0.0716769 0 0 0 0 0 0 0 0 0 0 0 0 0 0 3 0.00810811 0.465997 28.4603 -22.2538 4.39374 -17.1887 0.268413 -4.26903 -2.05638 3.49306 0.441637 -2.73501 -2.12748 -0.166229 -0.19673 -0.0716769 
16.6935 -6.26872 -1.74763 -15.3728 -0.682248 -2.81541 1.09709 101.526 78.1895 -38.0899 52.3745 6.65506 14.4848 0.313879 0.701005 0.562421 -0.275542 0.314909 -2.20858 -2.21968 0.00633432 0.000271807 3.53126e-05 0.000207827 -0.000171581 -0.000248003 4.53097e-05 0.000467367 3.15888 2.50952 -1.23268 1.47013 -1.79709 -1.57967 2.50473 0.000643382 0.00034833 -4.76837e-05 0.000538826 -0.000587463 -0.000311375 0.000478745 3.12074 1.094 -2.73725 -1.02451 -0.404136 -0.109803 0.205881 3.11728 1.11642 -2.73501 -0.995364 -0.340084 -0.117428 0.18453 7 4222.06 0.048 1.46972e+09 0.0440667 1 0 25.8314 -22.3423 -3.26573 -12.5467 1.38619 -3.51502 3.83185 25.8314 -22.3423 -3.26573 -12.5467 1.38619 -3.51502 3.83185 25.8314 -22.3423 -3.26573 -12.5467 1.38619 -3.51502 3.83185 25.8314 -22.3423 -3.26573 -12.5467 1.38619 -3.51502 3.83185 0 0 0 0 0 0 0 0 0 0 0 0 0 0 2.87861 1.01106 -2.49289 -1.02451 -0.253157 -0.17843 0.0991277 2.87861 1.01106 -2.49289 -1.02451 -0.253157 -0.17843 0.0991277 2.87861 1.01106 -2.49289 -1.02451 -0.253157 -0.17843 0.0991277 2.87861 1.01106 -2.49289 -1.02451 -0.253157 -0.17843 0.0991277 0 0 0 0 0 0 0 0 0 0 0 0 0 0 5 0.0135135 0.464805 25.8314 -22.3423 -3.26573 -12.5467 1.38619 -3.51502 3.83185 2.87861 1.01106 -2.49289 -1.02451 -0.253157 -0.17843 0.0991277 
21.8986 -16.2863 -1.78281 -14.5302 -0.732911 -1.87627 0.342495 10.053 -10.0176 -0.0351851 0.842549 -0.050663 0.939142 -0.754595 0.7008 0.562426 -0.275316 0.314641 -2.20843 -2.21933 0.00640593 0.000350541 4.74026e-06 0.000226119 -0.000267819 0.000156044 0.000345521 7.16099e-05 3.15942 2.50982 -1.23271 1.47078 -1.79735 -1.57966 2.50511 0.000712983 0.000299454 -2.43187e-05 0.000646591 -0.000263691 1.19209e-05 0.0003829 2.86481 0.999848 -2.47496 -1.0402 -0.478863 -0.143354 0.144879 2.85638 1.00433 -2.47272 -1.01778 -0.452937 -0.147929 0.134204 8 4222.06 0.056 1.46972e+09 0.0523338 1 0 27.6809 -21.8506 6.45283 -15.7208 -0.423078 -4.90961 -0.860384 27.6809 -21.8506 6.45283 -15.7208 -0.423078 -4.90961 -0.860384 27.6809 -21.8506 6.45283 -15.7208 -0.423078 -4.90961 -0.860384 27.6809 -21.8506 6.45283 -15.7208 -0.423078 -4.90961 -0.860384 0 0 0 0 0 0 0 0 0 0 0 0 0 0 2.97474 1.21058 -2.51307 -1.03347 -0.449887 -0.146404 0.141829 2.97474 1.21058 -2.51307 -1.03347 -0.449887 -0.146404 0.141829 2.97474 1.21058 -2.51307 -1.03347 -0.449887 -0.146404 0.141829 2.97474 1.21058 -2.51307 -1.03347 -0.449887 -0.146404 0.141829 0 0 0 0 0 0 0 0 0 0 0 0 0 0 6 0.0162162 0.464006 27.6809 -21.8506 6.45283 -15.7208 -0.423078 -4.90961 -0.860384 2.97474 1.21058 -2.51307 -1.03347 -0.449887 -0.146404 0.141829 
19.6128 -18.0628 0.806047 -7.59915 0.64476 -1.31197 -0.24706 7.60907 -1.77656 2.58886 6.93106 1.37767 0.564296 -0.589555 0.70062 0.562506 -0.275016 0.314359 -2.20839 -2.21931 0.00638905 0.000419432 8.07714e-05 0.000299671 -0.000282128 4.26614e-05 2.56111e-05 -1.68779e-05 3.16011 2.51029 -1.23268 1.47147 -1.79802 -1.57964 2.50557 0.000837378 0.000467539 2.43187e-05 0.000694275 -0.000671387 2.38419e-05 0.000455141 2.84763 0.692719 -2.47496 -1.22627 -0.420911 -0.154029 0.0960776 2.8539 0.70617 -2.48168 -1.21954 -0.407186 -0.154029 0.108278 9 4222.07 0.064 1.46972e+09 0.0602975 1 0 21.3637 -19.8094 -1.88527 -7.77443 1.63649 -2.30636 -0.384232 21.3637 -19.8094 -1.88527 -7.77443 1.63649 -2.30636 -0.384232 21.3637 -19.8094 -1.88527 -7.77443 1.63649 -2.30636 -0.384232 21.3637 -19.8094 -1.88527 -7.77443 1.63649 -2.30636 -0.384232 0 0 0 0 0 0 0 0 0 0 0 0 0 0 2.93544 0.905691 -2.48841 -1.26662 -0.423961 -0.146404 0.269932 2.93544 0.905691 -2.48841 -1.26662 -0.423961 -0.146404 0.269932 2.93544 0.905691 -2.48841 -1.26662 -0.423961 -0.146404 0.269932 2.93544 0.905691 -2.48841 -1.26662 -0.423961 -0.146404 0.269932 0 0 0 0 0 0 0 0 0 0 0 0 0 0 7 0.0189189 0.462842 21.3637 -19.8094 -1.88527 -7.77443 1.63649 -2.30636 -0.384232 2.93544 0.905691 -2.48841 -1.26662 -0.423961 -0.146404 0.269932 
22.9515 -18.9281 8.1139 -10.1324 -0.105975 -2.1833 -0.720285 7.7827 -0.865245 7.30785 -2.53321 -0.750734 -0.87133 -0.473225 0.700391 0.562564 -0.274754 0.313973 -2.20828 -2.21911 0.00641092 0.000469348 5.71849e-05 0.000261795 -0.000385332 0.000106321 0.000196045 2.18631e-05 3.16077 2.51069 -1.23259 1.4723 -1.79873 -1.57961 2.506 0.000921093 0.000395536 9.53674e-05 0.000826359 -0.00070715 2.38419e-05 0.000431061 2.8892 0.54476 -2.52652 -1.29128 -0.466663 -0.108278 0.105228 2.87586 0.547002 -2.51307 -1.2868 -0.449887 -0.131154 0.103703 10 4222.08 0.072 1.46972e+09 0.0704765 1 0 26.9795 -24.3856 3.39457 -11.0322 0.894957 -3.09584 0.932949 26.9795 -24.3856 3.39457 -11.0322 0.894957 -3.09584 0.932949 26.9795 -24.3856 3.39457 -11.0322 0.894957 -3.09584 0.932949 26.9795 -24.3856 3.39457 -11.0322 0.894957 -3.09584 0.932949 0 0 0 0 0 0 0 0 0 0 0 0 0 0 2.91695 0.672543 -2.52876 -1.28904 -0.396511 -0.146404 0.164704 2.91695 0.672543 -2.52876 -1.28904 -0.396511 -0.146404 0.164704 2.91695 0.672543 -2.52876 -1.28904 -0.396511 -0.146404 0.164704 2.91695 0.672543 -2.52876 -1.28904 -0.396511 -0.146404 0.164704 0 0 0 0 0 0 0 0 0 0 0 0 0 0 8 0.0216216 0.461692 26.9795 -24.3856 3.39457 -11.0322 0.894957 -3.09584 0.932949 2.91695 0.672543 -2.52876 -1.28904 -0.396511 -0.146404 0.164704 
23.5436 -17.9458 10.9333 -10.6166 -0.358343 -1.53827 -0.658312 3.02465 0.982335 2.81941 -0.484211 -0.252368 0.645032 0.0619728 0.700157 0.56263 -0.274469 0.313582 -2.20808 -2.21898 0.00639825 0.000488539 6.64487e-05 0.000285263 -0.000390999 0.000197443 0.000127091 -1.26627e-05 3.16147 2.51112 -1.23249 1.47314 -1.79944 -1.57956 2.50639 0.000947489 0.000432014 9.58443e-05 0.000837803 -0.00070715 4.81606e-05 0.00039506 3.22147 0.475264 -2.85831 -1.40786 -0.385835 -0.123528 0.100653 3.20463 0.468538 -2.84486 -1.39889 -0.38431 -0.120478 0.0930275 11 4222.09 0.08 1.46972e+09 0.0762172 1 0 23.249 -19.1266 7.30725 -11.0133 0.370289 -2.81918 -0.087648 23.249 -19.1266 7.30725 -11.0133 0.370289 -2.81918 -0.087648 23.249 -19.1266 7.30725 -11.0133 0.370289 -2.81918 -0.087648 23.249 -19.1266 7.30725 -11.0133 0.370289 -2.81918 -0.087648 0 0 0 0 0 0 0 0 0 0 0 0 0 0 3.00269 0.423702 -2.59602 -1.44821 -0.433112 -0.173855 0.103703 3.00269 0.423702 -2.59602 -1.44821 -0.433112 -0.173855 0.103703 3.00269 0.423702 -2.59602 -1.44821 -0.433112 -0.173855 0.103703 3.00269 0.423702 -2.59602 -1.44821 -0.433112 -0.173855 0.103703 0 0 0 0 0 0 0 0 0 0 0 0 0 0 9 0.0243243 0.460491 23.249 -19.1266 7.30725 -11.0133 0.370289 -2.81918 -0.087648 3.00269 0.423702 -2.59602 -1.44821 -0.433112 -0.173855 0.103703 
20.4539 -11.167 7.97885 -15.1657 -0.58696 -2.04919 -0.661983 8.68183 6.77873 -2.95445 -4.5491 -0.228617 -0.51092 -0.00367058 0.699922 0.56269 -0.274161 0.313218 -2.20791 -2.21899 0.00649414 0.000480821 6.04391e-05 0.000307923 -0.000364307 0.000174204 -1.32469e-06 9.58905e-05 3.16223 2.51159 -1.23246 1.47401 -1.80022 -1.5796 2.50678 0.000991878 0.000467539 3.57628e-05 0.000874043 -0.000779152 -3.62396e-05 0.000383139 3.4543 0.452846 -3.03093 -1.59393 -0.498688 -0.106753 0.0884524 3.44869 0.450604 -3.03541 -1.57375 -0.491063 -0.122003 0.0838773 12 4222.1 0.088 1.46972e+09 0.0844786 1 0 26.5034 -18.5884 13.2274 -13.4884 0.204038 -2.78352 -0.670724 26.5034 -18.5884 13.2274 -13.4884 0.204038 -2.78352 -0.670724 26.5034 -18.5884 13.2274 -13.4884 0.204038 -2.78352 -0.670724 26.5034 -18.5884 13.2274 -13.4884 0.204038 -2.78352 -0.670724 0 0 0 0 0 0 0 0 0 0 0 0 0 0 3.53374 0.372141 -3.15423 -1.54909 -0.498688 -0.138779 0.0930275 3.53374 0.372141 -3.15423 -1.54909 -0.498688 -0.138779 0.0930275 3.53374 0.372141 -3.15423 -1.54909 -0.498688 -0.138779 0.0930275 3.53374 0.372141 -3.15423 -1.54909 -0.498688 -0.138779 0.0930275 0 0 0 0 0 0 0 0 0 0 0 0 0 0 10 0.027027 0.459179 26.5034 -18.5884 13.2274 -13.4884 0.204038 -2.78352 -0.670724 3.53374 0.372141 -3.15423 -1.54909 -0.498688 -0.138779 0.0930275 
22.8123 -11.632 8.97643 -17.4505 -0.156698 -1.33482 -0.780179 2.53609 -0.464972 0.997575 -2.28482 0.430262 0.714363 -0.118196 0.699663 0.562718 -0.273889 0.312827 -2.20781 -2.21872 0.00654678 0.000476966 2.7823e-05 0.000272396 -0.000390542 9.91737e-05 0.00026772 5.26402e-05 3.16295 2.51197 -1.23242 1.47492 -1.8009 -1.57959 2.50723 0.000987946 0.000383377 3.62396e-05 0.000909805 -0.000683308 1.19209e-05 0.000454664 3.48448 0.555969 -3.02196 -1.64325 -0.521564 -0.0823522 0.144879 3.48377 0.549244 -3.01748 -1.65221 -0.530714 -0.0976026 0.141829 13 4222.1 0.096 1.46972e+09 0.0923457 1 0 20.1755 -5.96609 8.19439 -17.4444 0.512875 -1.29518 -0.756502 20.1755 -5.96609 8.19439 -17.4444 0.512875 -1.29518 -0.756502 20.1755 -5.96609 8.19439 -17.4444 0.512875 -1.29518 -0.756502 20.1755 -5.96609 8.19439 -17.4444 0.512875 -1.29518 -0.756502 0 0 0 0 0 0 0 0 0 0 0 0 0 0 3.65108 0.497682 -3.18337 -1.71723 -0.54444 -0.123528 0.123528 3.65108 0.497682 -3.18337 -1.71723 -0.54444 -0.123528 0.123528 3.65108 0.497682 -3.18337 -1.71723 -0.54444 -0.123528 0.123528 3.65108 0.497682 -3.18337 -1.71723 -0.54444 -0.123528 0.123528 0 0 0 0 0 0 0 0 0 0 0 0 0 0 11 0.0297297 0.457922 20.1755 -5.96609 8.19439 -17.4444 0.512875 -1.29518 -0.756502 3.65108 0.497682 -3.18337 -1.71723 -0.54444 -0.123528 0.123528 
24.0824 -14.6606 6.91209 -17.8116 0.032782 -1.34003 -0.222449 3.68298 -3.02861 -2.06434 -0.36108 0.18948 -0.00520961 0.55773 0.699438 0.562726 -0.273663 0.312508 -2.20797 -2.21862 0.00662 0.000391741 8.12887e-06 0.000226019 -0.00031986 -0.000157635 9.25662e-05 7.32184e-05 3.16363 2.51228 -1.23246 1.47582 -1.8018 -1.57964 2.50765 0.000951267 0.00031209 -3.62396e-05 0.000897884 -0.000898838 -4.76837e-05 0.000419378 3.50825 0.607531 -3.00851 -1.69929 -0.599341 -0.0945526 0.157079 3.48595 0.603047 -2.9973 -1.67463 -0.584091 -0.0838773 0.164704 14 4222.11 0.104 1.46972e+09 0.100648 1 0 24.9079 -12.2228 7.62324 -20.3197 0.551894 -1.5657 -0.452895 24.9079 -12.2228 7.62324 -20.3197 0.551894 -1.5657 -0.452895 24.9079 -12.2228 7.62324 -20.3197 0.551894 -1.5657 -0.452895 24.9079 -12.2228 7.62324 -20.3197 0.551894 -1.5657 -0.452895 0 0 0 0 0 0 0 0 0 0 0 0 0 0 3.52232 0.654609 -3.05559 -1.62531 -0.564265 -0.128103 0.0762521 3.52232 0.654609 -3.05559 -1.62531 -0.564265 -0.128103 0.0762521 3.52232 0.654609 -3.05559 -1.62531 -0.564265 -0.128103 0.0762521 3.52232 0.654609 -3.05559 -1.62531 -0.564265 -0.128103 0.0762521 0 0 0 0 0 0 0 0 0 0 0 0 0 0 12 0.0324324 0.456629 24.9079 -12.2228 7.62324 -20.3197 0.551894 -1.5657 -0.452895 3.52232 0.654609 -3.05559 -1.62531 -0.564265 -0.128103 0.0762521 
24.7977 -16.6305 6.32107 -17.2741 0.734725 -0.949694 -0.105346 2.12574 -1.96991 -0.591021 0.537492 0.701943 0.39034 0.117104 0.699222 0.562776 -0.273378 0.312182 -2.20794 -2.21864 0.00659477 0.000435069 5.00502e-05 0.000284716 -0.000325142 3.028e-05 -1.17058e-05 -2.52362e-05 3.16436 2.5127 -1.23246 1.47667 -1.80264 -1.57961 2.50805 0.000948114 0.000419617 0 0.000850201 -0.000838757 2.38419e-05 0.000394821 3.35526 0.690478 -2.93005 -1.48184 -0.478863 -0.0854023 0.164704 3.36017 0.699445 -2.92556 -1.49753 -0.481913 -0.0762521 0.154029 15 4222.12 0.112 1.46972e+09 0.108527 1 0 21.5099 -12.7637 4.95534 -16.5895 1.13385 -1.17262 -0.919015 21.5099 -12.7637 4.95534 -16.5895 1.13385 -1.17262 -0.919015 21.5099 -12.7637 4.95534 -16.5895 1.13385 -1.17262 -0.919015 21.5099 -12.7637 4.95534 -16.5895 1.13385 -1.17262 -0.919015 0 0 0 0 0 0 0 0 0 0 0 0 0 0 3.44328 0.735314 -2.99058 -1.54012 -0.521564 -0.129628 0.111328 3.44328 0.735314 -2.99058 -1.54012 -0.521564 -0.129628 0.111328 3.44328 0.735314 -2.99058 -1.54012 -0.521564 -0.129628 0.111328 3.44328 0.735314 -2.99058 -1.54012 -0.521564 -0.129628 0.111328 0 0 0 0 0 0 0 0 0 0 0 0 0 0 13 0.0351351 0.455363 21.5099 -12.7637 4.95534 -16.5895 1.13385 -1.17262 -0.919015 3.44328 0.735314 -2.99058 -1.54012 -0.521564 -0.129628 0.111328 
18.8297 -12.264 2.04953 -14.1405 0.554523 -1.2853 -0.027355 6.86528 4.36652 -4.27154 3.13362 -0.180203 -0.335605 0.0779908 0.699061 0.562854 -0.273102 0.311926 -2.20807 -2.21886 0.00646616 0.000384805 7.71272e-05 0.000276374 -0.000256405 -0.000135154 -0.00022695 -0.000128606 3.16506 2.51313 -1.23247 1.47742 -1.80364 -1.57956 2.50843 0.000869149 0.000431538 -1.19209e-05 0.000754356 -0.00100708 4.81606e-05 0.000383139 3.29541 0.636674 -2.89866 -1.43252 -0.518514 -0.0701519 0.106753 3.29436 0.641158 -2.9009 -1.42355 -0.509364 -0.0640517 0.120478 16 4222.13 0.12 1.46972e+09 0.116932 1 0 19.6597 -12.2095 2.26453 -15.2416 1.20115 -1.36391 -0.56316 19.6597 -12.2095 2.26453 -15.2416 1.20115 -1.36391 -0.56316 19.6597 -12.2095 2.26453 -15.2416 1.20115 -1.36391 -0.56316 19.6597 -12.2095 2.26453 -15.2416 1.20115 -1.36391 -0.56316 0 0 0 0 0 0 0 0 0 0 0 0 0 0 3.30199 0.737556 -2.85831 -1.47959 -0.500214 -0.123528 0.161654 3.30199 0.737556 -2.85831 -1.47959 -0.500214 -0.123528 0.161654 3.30199 0.737556 -2.85831 -1.47959 -0.500214 -0.123528 0.161654 3.30199 0.737556 -2.85831 -1.47959 -0.500214 -0.123528 0.161654 0 0 0 0 0 0 0 0 0 0 0 0 0 0 14 0.0378378 0.454007 19.6597 -12.2095 2.26453 -15.2416 1.20115 -1.36391 -0.56316 3.30199 0.737556 -2.85831 -1.47959 -0.500214 -0.123528 0.161654 
15.7573 -9.85089 3.032 -11.9188 0.751723 -0.525916 -0.603406 3.42404 2.41311 0.982466 2.22165 0.1972 0.759383 -0.576051 0.698815 0.562886 -0.272817 0.311565 -2.20802 -2.21877 0.0065197 0.000460832 3.23675e-05 0.000284397 -0.000361161 5.26459e-05 9.06796e-05 5.35392e-05 3.16581 2.51354 -1.23247 1.47834 -1.80446 -1.57958 2.50885 0.00100777 0.000407457 0 0.000921726 -0.000815392 -1.23978e-05 0.00041914 3.12865 0.477506 -2.77536 -1.36302 -0.500214 -0.0503264 0.128103 3.12447 0.49544 -2.76639 -1.36526 -0.506314 -0.0716769 0.114378 17 4222.14 0.128 1.46972e+09 0.124307 1 0 19.3476 -13.8959 1.98957 -13.3144 1.1591 -1.49104 -0.0653494 19.3476 -13.8959 1.98957 -13.3144 1.1591 -1.49104 -0.0653494 19.3476 -13.8959 1.98957 -13.3144 1.1591 -1.49104 -0.0653494 19.3476 -13.8959 1.98957 -13.3144 1.1591 -1.49104 -0.0653494 0 0 0 0 0 0 0 0 0 0 0 0 0 0 3.16825 0.609772 -2.78881 -1.37423 -0.526139 -0.112853 0.163179 3.16825 0.609772 -2.78881 -1.37423 -0.526139 -0.112853 0.163179 3.16825 0.609772 -2.78881 -1.37423 -0.526139 -0.112853 0.163179 3.16825 0.609772 -2.78881 -1.37423 -0.526139 -0.112853 0.163179 0 0 0 0 0 0 0 0 0 0 0 0 0 0 15 0.0405405 0.452757 19.3476 -13.8959 1.98957 -13.3144 1.1591 -1.49104 -0.0653494 3.16825 0.609772 -2.78881 -1.37423 -0.526139 -0.112853 0.163179 
14.0851 -8.77771 5.46332 -9.56524 0.445529 -0.32431 -0.385251 3.54998 1.07318 2.43132 2.35357 -0.306194 0.201606 0.218155 0.698621 0.562936 -0.272512 0.311306 -2.20803 -2.21888 0.006431 0.000403577 5.00667e-05 0.000305548 -0.000258859 -1.58372e-05 -0.000111546 -8.8704e-05 3.16657 2.51398 -1.23254 1.47915 -1.80529 -1.57953 2.50924 0.000919643 0.000444174 -7.20024e-05 0.00080204 -0.000826836 4.81606e-05 0.00039506 3.12686 0.461813 -2.73725 -1.43924 -0.558165 -0.0625267 0.122003 3.1137 0.439395 -2.72828 -1.43476 -0.542915 -0.0686269 0.125053 18 4222.14 0.136 1.46972e+09 0.133305 1 0 14.1332 -9.93276 2.82751 -9.64849 1.35549 -0.612175 -0.0538216 14.1332 -9.93276 2.82751 -9.64849 1.35549 -0.612175 -0.0538216 14.1332 -9.93276 2.82751 -9.64849 1.35549 -0.612175 -0.0538216 14.1332 -9.93276 2.82751 -9.64849 1.35549 -0.612175 -0.0538216 0 0 0 0 0 0 0 0 0 0 0 0 0 0 3.15223 0.481989 -2.77088 -1.42355 -0.524614 -0.141829 0.143354 3.15223 0.481989 -2.77088 -1.42355 -0.524614 -0.141829 0.143354 3.15223 0.481989 -2.77088 -1.42355 -0.524614 -0.141829 0.143354 3.15223 0.481989 -2.77088 -1.42355 -0.524614 -0.141829 0.143354 0 0 0 0 0 0 0 0 0 0 0 0 0 0 16 0.0432432 0.45139 14.1332 -9.93276 2.82751 -9.64849 1.35549 -0.612175 -0.0538216 3.15223 0.481989 -2.77088 -1.42355 -0.524614 -0.141829 0.143354 
17.0432 -11.8128 7.57533 -9.67171 0.712504 -0.21563 -0.445265 3.69917 -3.03511 2.11201 -0.106472 0.266975 0.108681 -0.0600138 0.698397 0.562998 -0.272232 0.310936 -2.20809 -2.21882 0.0064803 0.000467911 6.16592e-05 0.000279996 -0.000369786 -5.57348e-05 6.28165e-05 4.93053e-05 3.1673 2.51442 -1.23248 1.48003 -1.80622 -1.57955 2.50972 0.000987302 0.000431538 6.00815e-05 0.000885963 -0.000935078 -2.38419e-05 0.000478983 3.06642 0.385591 -2.73949 -1.32267 -0.445312 -0.0686269 0.105228 3.0767 0.3968 -2.74398 -1.33388 -0.455987 -0.0701519 0.123528 19 4222.15 0.144 1.46972e+09 0.14014 1 0 15.8494 -10.2821 5.93606 -10.4997 1.25746 -0.8869 -0.247214 15.8494 -10.2821 5.93606 -10.4997 1.25746 -0.8869 -0.247214 15.8494 -10.2821 5.93606 -10.4997 1.25746 -0.8869 -0.247214 15.8494 -10.2821 5.93606 -10.4997 1.25746 -0.8869 -0.247214 0 0 0 0 0 0 0 0 0 0 0 0 0 0 2.99872 0.369899 -2.67672 -1.30025 -0.469713 -0.123528 0.123528 2.99872 0.369899 -2.67672 -1.30025 -0.469713 -0.123528 0.123528 2.99872 0.369899 -2.67672 -1.30025 -0.469713 -0.123528 0.123528 2.99872 0.369899 -2.67672 -1.30025 -0.469713 -0.123528 0.123528 0 0 0 0 0 0 0 0 0 0 0 0 0 0 17 0.0459459 0.45006 15.8494 -10.2821 5.93606 -10.4997 1.25746 -0.8869 -0.247214 2.99872 0.369899 -2.67672 -1.30025 -0.469713 -0.123528 0.123528 
13.7899 -7.04857 7.22481 -9.39579 0.164926 -0.750376 -0.605457 4.7851 4.76426 -0.350521 0.275918 -0.547578 -0.534746 -0.160192 0.698145 0.563034 -0.271962 0.310541 -2.20794 -2.21871 0.00659073 0.000479973 3.6816e-05 0.000269205 -0.00039566 0.000149756 0.000106716 0.000110428 3.16802 2.51481 -1.23242 1.48094 -1.807 -1.57959 2.51009 0.000993789 0.000395298 6.00815e-05 0.000909805 -0.000779152 -3.62396e-05 0.000370741 3.06326 0.464055 -2.72156 -1.32715 -0.492588 -0.0457512 0.114378 3.07221 0.457329 -2.73277 -1.32715 -0.504789 -0.0671018 0.126578 20 4222.16 0.152 1.46972e+09 0.148679 1 0 13.3468 -7.63863 7.50632 -7.96517 0.798199 -0.806806 -0.428003 13.3468 -7.63863 7.50632 -7.96517 0.798199 -0.806806 -0.428003 13.3468 -7.63863 7.50632 -7.96517 0.798199 -0.806806 -0.428003 13.3468 -7.63863 7.50632 -7.96517 0.798199 -0.806806 -0.428003 0 0 0 0 0 0 0 0 0 0 0 0 0 0 2.99205 0.365415 -2.70362 -1.22851 -0.520039 -0.125053 0.115903 2.99205 0.365415 -2.70362 -1.22851 -0.520039 -0.125053 0.115903 2.99205 0.365415 -2.70362 -1.22851 -0.520039 -0.125053 0.115903 2.99205 0.365415 -2.70362 -1.22851 -0.520039 -0.125053 0.115903 0 0 0 0 0 0 0 0 0 0 0 0 0 0 18 0.0486486 0.448802 13.3468 -7.63863 7.50632 -7.96517 0.798199 -0.806806 -0.428003 2.99205 0.365415 -2.70362 -1.22851 -0.520039 -0.125053 0.115903 
13.1954 -8.46373 5.90442 -8.22321 0.446853 -0.274689 -0.514088 2.26298 -1.41516 -1.32039 1.17258 0.281927 0.475688 0.0913692 0.697929 0.563038 -0.271748 0.310236 -2.2081 -2.21854 0.006487 0.000372298 3.09012e-06 0.000213937 -0.000304676 -0.000159347 0.00017054 -0.00010373 3.16865 2.51509 -1.23246 1.48179 -1.80782 -1.57952 2.51051 0.000894639 0.000276089 -3.62396e-05 0.000850201 -0.000814915 7.20024e-05 0.00041914 3.18068 0.481989 -2.7776 -1.47287 -0.542915 -0.0488013 0.131154 3.16091 0.479747 -2.77536 -1.43476 -0.53834 -0.0640517 0.135729 21 4222.17 0.16 1.46972e+09 0.156823 1 0 8.5708 -3.75593 5.83904 -5.02567 1.39893 0.137571 -0.511545 8.5708 -3.75593 5.83904 -5.02567 1.39893 0.137571 -0.511545 8.5708 -3.75593 5.83904 -5.02567 1.39893 0.137571 -0.511545 8.5708 -3.75593 5.83904 -5.02567 1.39893 0.137571 -0.511545 0 0 0 0 0 0 0 0 0 0 0 0 0 0 3.19505 0.403526 -2.81347 -1.45942 -0.558165 -0.111328 0.144879 3.19505 0.403526 -2.81347 -1.45942 -0.558165 -0.111328 0.144879 3.19505 0.403526 -2.81347 -1.45942 -0.558165 -0.111328 0.144879 3.19505 0.403526 -2.81347 -1.45942 -0.558165 -0.111328 0.144879 0 0 0 0 0 0 0 0 0 0 0 0 0 0 19 0.0513514 0.447473 8.5708 -3.75593 5.83904 -5.02567 1.39893 0.137571 -0.511545 3.19505 0.403526 -2.81347 -1.45942 -0.558165 -0.111328 0.144879 
18.0088 -12.7396 7.23472 -10.4727 0.56809 -0.451943 -0.349422 5.01129 -4.2759 1.3303 -2.24945 0.121237 -0.177254 0.164665 0.697701 0.563104 -0.271444 0.30987 -2.20793 -2.21855 0.00656188 0.00048041 6.59176e-05 0.00030428 -0.000365872 0.000166891 -8.36798e-06 7.48786e-05 3.16939 2.51555 -1.2324 1.48264 -1.80861 -1.57954 2.51089 0.000971831 0.000467777 6.00815e-05 0.000849724 -0.000791073 -2.38419e-05 0.000383377 3.15235 0.49544 -2.76864 -1.42355 -0.579516 -0.0335509 0.17538 3.15766 0.504407 -2.77536 -1.41907 -0.564265 -0.0396511 0.18758 22 4222.18 0.168 1.46972e+09 0.164656 1 0 16.2438 -9.93558 7.6097 -10.3555 1.06123 -0.402765 -0.223421 16.2438 -9.93558 7.6097 -10.3555 1.06123 -0.402765 -0.223421 16.2438 -9.93558 7.6097 -10.3555 1.06123 -0.402765 -0.223421 16.2438 -9.93558 7.6097 -10.3555 1.06123 -0.402765 -0.223421 0 0 0 0 0 0 0 0 0 0 0 0 0 0 3.20307 0.477506 -2.8471 -1.38768 -0.526139 -0.126578 0.132679 3.20307 0.477506 -2.8471 -1.38768 -0.526139 -0.126578 0.132679 3.20307 0.477506 -2.8471 -1.38768 -0.526139 -0.126578 0.132679 3.20307 0.477506 -2.8471 -1.38768 -0.526139 -0.126578 0.132679 0 0 0 0 0 0 0 0 0 0 0 0 0 0 20 0.0540541 0.446211 16.2438 -9.93558 7.6097 -10.3555 1.06123 -0.402765 -0.223421 3.20307 0.477506 -2.8471 -1.38768 -0.526139 -0.126578 0.132679 
15.1431 -11.1851 5.55512 -8.56424 0.896501 0.204811 0.0803515 2.97987 1.55452 -1.6796 1.90842 0.328411 0.656754 0.429774 0.697494 0.563161 -0.271171 0.309539 -2.20801 -2.21862 0.00658451 0.000433497 5.70409e-05 0.000273666 -0.00033132 -7.81854e-05 -6.56436e-05 2.26331e-05 3.17012 2.51597 -1.23237 1.4835 -1.80959 -1.57956 2.51131 0.00095901 0.000419378 2.38419e-05 0.000862122 -0.000983238 -2.38419e-05 0.000418663 3.34044 0.533551 -3.01075 -1.34509 -0.481913 -0.0350759 0.192155 3.31959 0.538035 -2.99282 -1.33164 -0.477338 -0.038126 0.17843 23 4222.18 0.176 1.46972e+09 0.172548 1 0 12.9852 -7.43884 4.85762 -9.47012 1.26884 -0.466519 -0.344773 12.9852 -7.43884 4.85762 -9.47012 1.26884 -0.466519 -0.344773 12.9852 -7.43884 4.85762 -9.47012 1.26884 -0.466519 -0.344773 12.9852 -7.43884 4.85762 -9.47012 1.26884 -0.466519 -0.344773 0 0 0 0 0 0 0 0 0 0 0 0 0 0 3.34838 0.54476 -2.97488 -1.437 -0.494113 -0.0899774 0.128103 3.34838 0.54476 -2.97488 -1.437 -0.494113 -0.0899774 0.128103 3.34838 0.54476 -2.97488 -1.437 -0.494113 -0.0899774 0.128103 3.34838 0.54476 -2.97488 -1.437 -0.494113 -0.0899774 0.128103 0 0 0 0 0 0 0 0 0 0 0 0 0 0 21 0.0567568 0.444815 12.9852 -7.43884 4.85762 -9.47012 1.26884 -0.466519 -0.344773 3.34838 0.54476 -2.97488 -1.437 -0.494113 -0.0899774 0.128103 
11.3916 -2.74937 0.218669 -11.0527 0.659539 -0.0548015 0.257358 10.2875 8.43574 -5.33645 -2.48846 -0.236962 -0.259612 0.177007 0.69729 0.563192 -0.270933 0.309232 -2.2082 -2.21858 0.00647442 0.000389147 3.1018e-05 0.00023738 -0.000306797 -0.000184267 4.16505e-05 -0.000110092 3.17079 2.51631 -1.23238 1.48435 -1.81054 -1.5795 2.51174 0.000913708 0.000335693 -1.19209e-05 0.000849724 -0.000946999 5.96046e-05 0.000431061 3.2883 0.654609 -2.92108 -1.36078 -0.480388 -0.0594766 0.147929 3.28343 0.650125 -2.9166 -1.36078 -0.486488 -0.0503264 0.154029 24 4222.19 0.184 1.46972e+09 0.181559 1 0 14.3059 -6.80495 3.22915 -12.1624 0.781684 -0.655042 -0.384525 14.3059 -6.80495 3.22915 -12.1624 0.781684 -0.655042 -0.384525 14.3059 -6.80495 3.22915 -12.1624 0.781684 -0.655042 -0.384525 14.3059 -6.80495 3.22915 -12.1624 0.781684 -0.655042 -0.384525 0 0 0 0 0 0 0 0 0 0 0 0 0 0 3.30628 0.638916 -2.93005 -1.39216 -0.474288 -0.106753 0.157079 3.30628 0.638916 -2.93005 -1.39216 -0.474288 -0.106753 0.157079 3.30628 0.638916 -2.93005 -1.39216 -0.474288 -0.106753 0.157079 3.30628 0.638916 -2.93005 -1.39216 -0.474288 -0.106753 0.157079 0 0 0 0 0 0 0 0 0 0 0 0 0 0 22 0.0594595 0.443538 14.3059 -6.80495 3.22915 -12.1624 0.781684 -0.655042 -0.384525 3.30628 0.638916 -2.93005 -1.39216 -0.474288 -0.106753 0.157079 
14.7917 -8.11251 1.43718 -12.2847 0.64333 -0.769777 -0.212358 5.63614 -5.36315 1.21851 -1.23203 -0.0162089 -0.714976 -0.469716 0.697068 0.563253 -0.270603 0.308906 -2.20814 -2.21875 0.00642647 0.000467473 6.18249e-05 0.000329658 -0.000325629 5.48848e-05 -0.000170501 -4.7953e-05 3.17161 2.5168 -1.23241 1.48526 -1.81151 -1.57948 2.51213 0.00103441 0.000491619 -2.38419e-05 0.000909805 -0.00097084 2.38419e-05 0.000383139 3.29533 0.6434 -2.91884 -1.38768 -0.427012 -0.0564265 0.0884524 3.29631 0.647883 -2.92108 -1.3832 -0.436162 -0.0488013 0.0945526 25 4222.2 0.192 1.46972e+09 0.188985 1 0 14.1573 -7.96881 0.825334 -11.6725 1.02683 -0.96322 -0.101436 14.1573 -7.96881 0.825334 -11.6725 1.02683 -0.96322 -0.101436 14.1573 -7.96881 0.825334 -11.6725 1.02683 -0.96322 -0.101436 14.1573 -7.96881 0.825334 -11.6725 1.02683 -0.96322 -0.101436 0 0 0 0 0 0 0 0 0 0 0 0 0 0 3.28587 0.632191 -2.9009 -1.40786 -0.468188 -0.118953 0.204356 3.28587 0.632191 -2.9009 -1.40786 -0.468188 -0.118953 0.204356 3.28587 0.632191 -2.9009 -1.40786 -0.468188 -0.118953 0.204356 3.28587 0.632191 -2.9009 -1.40786 -0.468188 -0.118953 0.204356 0 0 0 0 0 0 0 0 0 0 0 0 0 0 23 0.0621622 0.442176 14.1573 -7.96881 0.825334 -11.6725 1.02683 -0.96322 -0.101436 3.28587 0.632191 -2.9009 -1.40786 -0.468188 -0.118953 0.204356 
14.1266 -7.05441 1.13639 -12.1863 0.363007 -1.02581 -0.760654 1.10442 1.0581 -0.30079 0.0984446 -0.280323 -0.256038 -0.548296 0.696812 0.563282 -0.270322 0.308525 -2.20806 -2.21874 0.00654475 0.00047528 2.82062e-05 0.000281852 -0.000381648 7.61789e-05 7.73539e-06 0.000118283 3.17239 2.51721 -1.2324 1.48623 -1.81242 -1.57954 2.5125 0.00105225 0.000407934 1.19209e-05 0.000969887 -0.000910759 -5.96046e-05 0.000371218 3.21013 0.701687 -2.75743 -1.48632 -0.405661 -0.0594766 0.0762521 3.19399 0.692719 -2.75294 -1.4639 -0.405661 -0.0549015 0.0854023 26 4222.21 0.2 1.46972e+09 0.197715 1 0 15.1866 -9.52054 0.866306 -11.8001 1.08328 -1.21407 0.364233 15.1866 -9.52054 0.866306 -11.8001 1.08328 -1.21407 0.364233 15.1866 -9.52054 0.866306 -11.8001 1.08328 -1.21407 0.364233 15.1866 -9.52054 0.866306 -11.8001 1.08328 -1.21407 0.364233 0 0 0 0 0 0 0 0 0 0 0 0 0 0 3.1947 0.665818 -2.8202 -1.34509 -0.379735 -0.102178 0.189105 3.1947 0.665818 -2.8202 -1.34509 -0.379735 -0.102178 0.189105 3.1947 0.665818 -2.8202 -1.34509 -0.379735 -0.102178 0.189105 3.1947 0.665818 -2.8202 -1.34509 -0.379735 -0.102178 0.189105 0 0 0 0 0 0 0 0 0 0 0 0 0 0 24 0.0648649 0.44087 15.1866 -9.52054 0.866306 -11.8001 1.08328 -1.21407 0.364233 3.1947 0.665818 -2.8202 -1.34509 -0.379735 -0.102178 0.189105 
21.2605 -15.69 4.19618 -13.7196 -0.0927308 -2.05704 -0.881707 9.28903 -8.63555 3.05979 -1.53331 -0.455738 -1.03123 -0.121052 0.696611 0.563323 -0.270041 0.30824 -2.20816 -2.21885 0.0064811 0.000401483 4.11805e-05 0.000280509 -0.000284266 -9.36806e-05 -0.000106815 -6.36466e-05 3.17313 2.51762 -1.23244 1.48708 -1.81337 -1.57952 2.51289 0.000943595 0.000407457 -4.81606e-05 0.000849724 -0.000946999 2.38419e-05 0.00039506 3.13627 0.690478 -2.69241 -1.45269 -0.385835 -0.0472763 0.0564265 3.13138 0.70617 -2.69466 -1.43028 -0.393461 -0.0564265 0.0625267 27 4222.22 0.208 1.46972e+09 0.204576 1 0 15.6084 -9.87185 0.488354 -12.0802 0.450359 -1.87564 0.217527 15.6084 -9.87185 0.488354 -12.0802 0.450359 -1.87564 0.217527 15.6084 -9.87185 0.488354 -12.0802 0.450359 -1.87564 0.217527 15.6084 -9.87185 0.488354 -12.0802 0.450359 -1.87564 0.217527 0 0 0 0 0 0 0 0 0 0 0 0 0 0 3.13969 0.670301 -2.78433 -1.2868 -0.390411 -0.0945526 0.161654 3.13969 0.670301 -2.78433 -1.2868 -0.390411 -0.0945526 0.161654 3.13969 0.670301 -2.78433 -1.2868 -0.390411 -0.0945526 0.161654 3.13969 0.670301 -2.78433 -1.2868 -0.390411 -0.0945526 0.161654 0 0 0 0 0 0 0 0 0 0 0 0 0 0 25 0.0675676 0.439454 15.6084 -9.87185 0.488354 -12.0802 0.450359 -1.87564 0.217527 3.13969 0.670301 -2.78433 -1.2868 -0.390411 -0.0945526 0.161654 
21.3869 -16.1864 5.0768 -13.0241 -0.314328 -2.16247 -1.08358 1.22706 -0.496442 0.880622 0.695505 -0.221597 -0.105423 -0.201873 0.696394 0.563362 -0.269826 0.307867 -2.20826 -2.21878 0.00650162 0.000432988 3.87902e-05 0.000215098 -0.000373773 -0.000105779 6.57895e-05 2.05189e-05 3.17376 2.51794 -1.23236 1.48796 -1.81435 -1.57953 2.51329 0.000936299 0.000323772 8.39233e-05 0.000874519 -0.000983238 -1.19209e-05 0.000394821 3.13313 0.739797 -2.69241 -1.42131 -0.388885 -0.0472763 0.0701519 3.10191 0.73083 -2.66327 -1.41234 -0.402611 -0.0579516 0.0793021 28 4222.22 0.216 1.46972e+09 0.213372 1 0 13.1979 -8.30679 0.0997238 -10.2554 0.579353 -1.47544 -0.0519849 13.1979 -8.30679 0.0997238 -10.2554 0.579353 -1.47544 -0.0519849 13.1979 -8.30679 0.0997238 -10.2554 0.579353 -1.47544 -0.0519849 13.1979 -8.30679 0.0997238 -10.2554 0.579353 -1.47544 -0.0519849 0 0 0 0 0 0 0 0 0 0 0 0 0 0 3.01622 0.699445 -2.64758 -1.26438 -0.402611 -0.0915025 0.0869273 3.01622 0.699445 -2.64758 -1.26438 -0.402611 -0.0915025 0.0869273 3.01622 0.699445 -2.64758 -1.26438 -0.402611 -0.0915025 0.0869273 3.01622 0.699445 -2.64758 -1.26438 -0.402611 -0.0915025 0.0869273 0 0 0 0 0 0 0 0 0 0 0 0 0 0 26 0.0702703 0.438144 13.1979 -8.30679 0.0997238 -10.2554 0.579353 -1.47544 -0.0519849 3.01622 0.699445 -2.64758 -1.26438 -0.402611 -0.0915025 0.0869273 
20.3815 -15.819 3.76215 -12.2887 -0.129793 -2.06404 -0.948727 1.55053 0.367409 -1.31465 0.735418 0.184535 0.0984272 0.134852 0.696152 0.563394 -0.26955 0.307502 -2.20825 -2.21875 0.00651886 0.000457794 3.19384e-05 0.000275533 -0.000364194 1.64199e-05 2.89813e-05 1.72437e-05 3.17451 2.51834 -1.23235 1.48889 -1.81526 -1.57953 2.51368 0.00101405 0.000395536 1.19209e-05 0.000933647 -0.000911236 0 0.00039506 3.12083 0.782392 -2.67896 -1.39665 -0.445312 -0.0503264 0.074727 3.10498 0.789117 -2.66551 -1.3832 -0.452937 -0.0549015 0.0793021 29 4222.23 0.224 1.46972e+09 0.221285 1 0 13.788 -10.9984 2.03542 -8.06234 0.569122 -1.42118 -0.788398 13.788 -10.9984 2.03542 -8.06234 0.569122 -1.42118 -0.788398 13.788 -10.9984 2.03542 -8.06234 0.569122 -1.42118 -0.788398 13.788 -10.9984 2.03542 -8.06234 0.569122 -1.42118 -0.788398 0 0 0 0 0 0 0 0 0 0 0 0 0 0 3.08156 0.746523 -2.68569 -1.3137 -0.439212 -0.0930275 0.0884524 3.08156 0.746523 -2.68569 -1.3137 -0.439212 -0.0930275 0.0884524 3.08156 0.746523 -2.68569 -1.3137 -0.439212 -0.0930275 0.0884524 3.08156 0.746523 -2.68569 -1.3137 -0.439212 -0.0930275 0.0884524 0 0 0 0 0 0 0 0 0 0 0 0 0 0 27 0.072973 0.436713 13.788 -10.9984 2.03542 -8.06234 0.569122 -1.42118 -0.788398 3.08156 0.746523 -2.68569 -1.3137 -0.439212 -0.0930275 0.0884524 
19.1575 -15.8005 2.66329 -10.5005 0.382015 -1.47324 -0.897767 2.09888 0.0185235 -1.09886 1.78814 0.511808 0.5908 0.0509605 0.695944 0.563454 -0.269259 0.307176 -2.20828 -2.21879 0.00651641 0.000441686 6.0793e-05 0.000291363 -0.000326341 -2.77452e-05 -4.22683e-05 -2.45269e-06 3.17524 2.51878 -1.23232 1.48973 -1.81617 -1.57953 2.51412 0.000948873 0.000443935 2.38419e-05 0.00083828 -0.000910282 0 0.000431299 3.16119 0.75549 -2.67448 -1.5065 -0.455987 -0.0335509 0.0930275 3.15135 0.762216 -2.67224 -1.48632 -0.459037 -0.0442262 0.105228 30 4222.24 0.232 1.46972e+09 0.228375 1 0 14.57 -11.6331 1.20972 -8.6886 0.823432 -1.23556 -0.774489 14.57 -11.6331 1.20972 -8.6886 0.823432 -1.23556 -0.774489 14.57 -11.6331 1.20972 -8.6886 0.823432 -1.23556 -0.774489 14.57 -11.6331 1.20972 -8.6886 0.823432 -1.23556 -0.774489 0 0 0 0 0 0 0 0 0 0 0 0 0 0 3.11321 0.768941 -2.69241 -1.36078 -0.436162 -0.0899774 0.0793021 3.11321 0.768941 -2.69241 -1.36078 -0.436162 -0.0899774 0.0793021 3.11321 0.768941 -2.69241 -1.36078 -0.436162 -0.0899774 0.0793021 3.11321 0.768941 -2.69241 -1.36078 -0.436162 -0.0899774 0.0793021 0 0 0 0 0 0 0 0 0 0 0 0 0 0 28 0.0756757 0.435448 14.57 -11.6331 1.20972 -8.6886 0.823432 -1.23556 -0.774489 3.11321 0.768941 -2.69241 -1.36078 -0.436162 -0.0899774 0.0793021 
24.2294 -20.1956 5.04354 -12.4003 0.0185578 -1.83182 -0.715961 5.3471 -4.39509 2.38026 -1.89975 -0.363457 -0.358583 0.181806 0.695706 0.563472 -0.26901 0.306821 -2.20825 -2.21871 0.00654501 0.000434371 1.80582e-05 0.000249281 -0.000355262 2.51638e-05 8.82643e-05 2.85954e-05 3.17594 2.51913 -1.23231 1.49063 -1.817 -1.57953 2.51449 0.000962991 0.000347853 1.23978e-05 0.000897884 -0.000827312 0 0.000370741 3.30255 0.795843 -2.86279 -1.44148 -0.451412 -0.0320259 0.122003 3.31358 0.809294 -2.87624 -1.43252 -0.459037 -0.0411761 0.132679 31 4222.25 0.24 1.46972e+09 0.236648 1 0 17.208 -14.0089 2.00299 -9.79041 0.646494 -1.52912 -0.864255 17.208 -14.0089 2.00299 -9.79041 0.646494 -1.52912 -0.864255 17.208 -14.0089 2.00299 -9.79041 0.646494 -1.52912 -0.864255 17.208 -14.0089 2.00299 -9.79041 0.646494 -1.52912 -0.864255 0 0 0 0 0 0 0 0 0 0 0 0 0 0 3.20408 0.75549 -2.7238 -1.50874 -0.500214 -0.074727 0.102178 3.20408 0.75549 -2.7238 -1.50874 -0.500214 -0.074727 0.102178 3.20408 0.75549 -2.7238 -1.50874 -0.500214 -0.074727 0.102178 3.20408 0.75549 -2.7238 -1.50874 -0.500214 -0.074727 0.102178 0 0 0 0 0 0 0 0 0 0 0 0 0 0 29 0.0783784 0.434083 17.208 -14.0089 2.00299 -9.79041 0.646494 -1.52912 -0.864255 3.20408 0.75549 -2.7238 -1.50874 -0.500214 -0.074727 0.102178 
18.4872 -13.4735 0.167643 -12.6575 0.380634 -1.32717 -0.432215 8.30825 6.72208 -4.8759 -0.257248 0.362076 0.50465 0.283746 0.695502 0.563541 -0.268713 0.306493 -2.20824 -2.21879 0.00650522 0.000447315 6.82931e-05 0.000296861 -0.000327568 1.31682e-05 -7.96625e-05 -3.97897e-05 3.17667 2.51958 -1.23228 1.49145 -1.81791 -1.5795 2.51489 0.000943785 0.000455379 3.57628e-05 0.000825882 -0.000911236 2.38419e-05 0.000407219 3.39533 0.809294 -2.95471 -1.4639 -0.516989 -0.0198255 0.160129 3.38703 0.807052 -2.95022 -1.45494 -0.515464 -0.036601 0.150979 32 4222.26 0.248 1.46972e+09 0.2449 1 0 22.3911 -18.4847 4.0325 -11.9757 0.602624 -1.47036 -0.637573 22.3911 -18.4847 4.0325 -11.9757 0.602624 -1.47036 -0.637573 22.3911 -18.4847 4.0325 -11.9757 0.602624 -1.47036 -0.637573 22.3911 -18.4847 4.0325 -11.9757 0.602624 -1.47036 -0.637573 0 0 0 0 0 0 0 0 0 0 0 0 0 0 3.27554 0.798085 -2.81123 -1.47959 -0.498688 -0.0854023 0.0671018 3.27554 0.798085 -2.81123 -1.47959 -0.498688 -0.0854023 0.0671018 3.27554 0.798085 -2.81123 -1.47959 -0.498688 -0.0854023 0.0671018 3.27554 0.798085 -2.81123 -1.47959 -0.498688 -0.0854023 0.0671018 0 0 0 0 0 0 0 0 0 0 0 0 0 0 30 0.0810811 0.432794 22.3911 -18.4847 4.0325 -11.9757 0.602624 -1.47036 -0.637573 3.27554 0.798085 -2.81123 -1.47959 -0.498688 -0.0854023 0.0671018 
17.2616 -11.9505 -1.49543 -12.3658 0.820432 -0.589524 -0.0578891 2.27386 1.52299 -1.66307 0.291778 0.439798 0.737648 0.374326 0.695257 0.563561 -0.268453 0.306129 -2.20821 -2.21869 0.0064781 0.000447706 2.01656e-05 0.000260057 -0.000363874 2.73268e-05 9.34093e-05 -2.71192e-05 3.17738 2.51994 -1.23226 1.49237 -1.81876 -1.57947 2.51528 0.000989438 0.000359535 1.19209e-05 0.000921726 -0.000851154 3.62396e-05 0.000383377 3.37016 0.697203 -2.89866 -1.57151 -0.520039 -0.0396511 0.102178 3.34032 0.728588 -2.86952 -1.54685 -0.520039 -0.0335509 0.111328 33 4222.26 0.256 1.46972e+09 0.252321 1 0 19.7401 -15.5071 2.26133 -12.0037 0.823349 -1.28888 -0.992353 19.7401 -15.5071 2.26133 -12.0037 0.823349 -1.28888 -0.992353 19.7401 -15.5071 2.26133 -12.0037 0.823349 -1.28888 -0.992353 19.7401 -15.5071 2.26133 -12.0037 0.823349 -1.28888 -0.992353 0 0 0 0 0 0 0 0 0 0 0 0 0 0 3.36737 0.701687 -2.94126 -1.48184 -0.532239 -0.0686269 0.120478 3.36737 0.701687 -2.94126 -1.48184 -0.532239 -0.0686269 0.120478 3.36737 0.701687 -2.94126 -1.48184 -0.532239 -0.0686269 0.120478 3.36737 0.701687 -2.94126 -1.48184 -0.532239 -0.0686269 0.120478 0 0 0 0 0 0 0 0 0 0 0 0 0 0 31 0.0837838 0.4315 19.7401 -15.5071 2.26133 -12.0037 0.823349 -1.28888 -0.992353 3.36737 0.701687 -2.94126 -1.48184 -0.532239 -0.0686269 0.120478 
21.546 -15.592 3.84205 -14.3651 0.437573 -1.12781 -0.636278 6.76366 -3.64155 5.33748 -1.99939 -0.382859 -0.538291 -0.578389 0.695046 0.563588 -0.268149 0.305865 -2.20828 -2.21886 0.00646425 0.000403946 2.75293e-05 0.00030422 -0.00026432 -7.2927e-05 -0.00016728 -1.38438e-05 3.17818 2.52037 -1.23237 1.49326 -1.81971 -1.57948 2.51566 0.000991451 0.000431776 -0.000107765 0.000885963 -0.000946522 -1.23978e-05 0.0003829 3.26362 0.742039 -2.84486 -1.41682 -0.483438 -0.0305008 0.0976026 3.26757 0.746523 -2.8471 -1.41907 -0.489538 -0.0305008 0.0960776 34 4222.27 0.264 1.46972e+09 0.260877 1 0 16.62 -10.8948 1.27929 -12.4857 0.943007 -0.580297 -0.453905 16.62 -10.8948 1.27929 -12.4857 0.943007 -0.580297 -0.453905 16.62 -10.8948 1.27929 -12.4857 0.943007 -0.580297 -0.453905 16.62 -10.8948 1.27929 -12.4857 0.943007 -0.580297 -0.453905 0 0 0 0 0 0 0 0 0 0 0 0 0 0 3.35692 0.739797 -2.9278 -1.46614 -0.443787 -0.0899774 0.144879 3.35692 0.739797 -2.9278 -1.46614 -0.443787 -0.0899774 0.144879 3.35692 0.739797 -2.9278 -1.46614 -0.443787 -0.0899774 0.144879 3.35692 0.739797 -2.9278 -1.46614 -0.443787 -0.0899774 0.144879 0 0 0 0 0 0 0 0 0 0 0 0 0 0 32 0.0864865 0.430201 16.62 -10.8948 1.27929 -12.4857 0.943007 -0.580297 -0.453905 3.35692 0.739797 -2.9278 -1.46614 -0.443787 -0.0899774 0.144879 
16.3761 -11.6949 1.03767 -11.4162 0.558154 -0.804012 -0.672609 5.63459 3.89716 -2.80437 2.94895 0.120581 0.323803 -0.0363305 0.694829 0.563623 -0.267921 0.305508 -2.20829 -2.21875 0.00649002 0.000425465 3.46952e-05 0.000228008 -0.000357532 -1.00786e-05 0.000106717 2.57709e-05 3.17881 2.52071 -1.2323 1.49409 -1.82053 -1.57948 2.51604 0.000894492 0.000335932 7.20024e-05 0.000825882 -0.000826836 0 0.000383139 3.21138 0.638916 -2.82692 -1.3832 -0.469713 -0.0198255 0.0838773 3.19652 0.647883 -2.81347 -1.37199 -0.475813 -0.0305008 0.0976026 35 4222.28 0.272 1.46972e+09 0.267893 1 0 18.5324 -11.9669 0.698623 -14.1335 0.566761 -1.62124 -0.214968 18.5324 -11.9669 0.698623 -14.1335 0.566761 -1.62124 -0.214968 18.5324 -11.9669 0.698623 -14.1335 0.566761 -1.62124 -0.214968 18.5324 -11.9669 0.698623 -14.1335 0.566761 -1.62124 -0.214968 0 0 0 0 0 0 0 0 0 0 0 0 0 0 3.20074 0.715138 -2.75743 -1.45942 -0.504789 -0.0869273 0.163179 3.20074 0.715138 -2.75743 -1.45942 -0.504789 -0.0869273 0.163179 3.20074 0.715138 -2.75743 -1.45942 -0.504789 -0.0869273 0.163179 3.20074 0.715138 -2.75743 -1.45942 -0.504789 -0.0869273 0.163179 0 0 0 0 0 0 0 0 0 0 0 0 0 0 33 0.0891892 0.428855 18.5324 -11.9669 0.698623 -14.1335 0.566761 -1.62124 -0.214968 3.20074 0.715138 -2.75743 -1.45942 -0.504789 -0.0869273 0.163179 
14.444 -9.38163 2.5412 -10.6845 0.304466 -0.604084 -0.804919 2.85431 2.31324 1.50352 0.731743 -0.253688 0.199928 -0.132311 0.694617 0.563668 -0.267627 0.305199 -2.20835 -2.21885 0.0064527 0.000428574 4.52471e-05 0.000293675 -0.000308842 -5.61196e-05 -9.61537e-05 -3.73241e-05 3.17957 2.52114 -1.23232 1.49496 -1.82149 -1.57947 2.51645 0.0009755 0.000431538 -2.43187e-05 0.000874519 -0.000959396 1.23978e-05 0.000406981 3.13264 0.56942 -2.72828 -1.43028 -0.494113 -0.0106753 0.111328 3.11037 0.571662 -2.70811 -1.41907 -0.483438 -0.0198255 0.114378 36 4222.29 0.28 1.46972e+09 0.27594 1 0 19.5769 -15.8363 2.52927 -11.2281 0.89673 -1.21873 -0.0356163 19.5769 -15.8363 2.52927 -11.2281 0.89673 -1.21873 -0.0356163 19.5769 -15.8363 2.52927 -11.2281 0.89673 -1.21873 -0.0356163 19.5769 -15.8363 2.52927 -11.2281 0.89673 -1.21873 -0.0356163 0 0 0 0 0 0 0 0 0 0 0 0 0 0 3.14102 0.641158 -2.75294 -1.36975 -0.465138 -0.0716769 0.131154 3.14102 0.641158 -2.75294 -1.36975 -0.465138 -0.0716769 0.131154 3.14102 0.641158 -2.75294 -1.36975 -0.465138 -0.0716769 0.131154 3.14102 0.641158 -2.75294 -1.36975 -0.465138 -0.0716769 0.131154 0 0 0 0 0 0 0 0 0 0 0 0 0 0 34 0.0918919 0.427563 19.5769 -15.8363 2.52927 -11.2281 0.89673 -1.21873 -0.0356163 3.14102 0.641158 -2.75294 -1.36975 -0.465138 -0.0716769 0.131154 
17.5567 -13.0148 5.3831 -10.482 0.140601 -0.645247 -0.533176 4.61711 -3.63322 2.84191 0.202427 -0.163865 -0.0411628 0.271744 0.694353 0.563694 -0.267335 0.304807 -2.20821 -2.21875 0.00644802 0.000488877 2.58381e-05 0.000291724 -0.000391447 0.000139467 9.85159e-05 -4.67702e-06 3.18034 2.52155 -1.2323 1.49592 -1.82231 -1.57943 2.51683 0.00104086 0.000407457 2.43187e-05 0.000957489 -0.000815392 3.57628e-05 0.000383139 3.03352 0.562694 -2.70362 -1.25541 -0.497163 -0.0106753 0.128103 3.04072 0.564936 -2.70811 -1.26214 -0.500214 -0.0183005 0.123528 37 4222.3 0.288 1.46972e+09 0.284841 1 0 15.4797 -11.6057 2.76122 -9.86426 0.607906 -0.983367 -0.34757 15.4797 -11.6057 2.76122 -9.86426 0.607906 -0.983367 -0.34757 15.4797 -11.6057 2.76122 -9.86426 0.607906 -0.983367 -0.34757 15.4797 -11.6057 2.76122 -9.86426 0.607906 -0.983367 -0.34757 0 0 0 0 0 0 0 0 0 0 0 0 0 0 3.07649 0.591838 -2.68121 -1.38768 -0.506314 -0.0579516 0.114378 3.07649 0.591838 -2.68121 -1.38768 -0.506314 -0.0579516 0.114378 3.07649 0.591838 -2.68121 -1.38768 -0.506314 -0.0579516 0.114378 3.07649 0.591838 -2.68121 -1.38768 -0.506314 -0.0579516 0.114378 0 0 0 0 0 0 0 0 0 0 0 0 0 0 35 0.0945946 0.42623 15.4797 -11.6057 2.76122 -9.86426 0.607906 -0.983367 -0.34757 3.07649 0.591838 -2.68121 -1.38768 -0.506314 -0.0579516 0.114378 
12.2393 -8.63576 4.05957 -7.66454 0.396135 -0.0752405 -0.398521 5.37275 4.37909 -1.32354 2.81749 0.255534 0.570006 0.134654 0.694155 0.563735 -0.267072 0.304511 -2.20828 -2.21884 0.00637097 0.00039814 4.0699e-05 0.000263304 -0.000295855 -7.39079e-05 -8.81732e-05 -7.70575e-05 3.18104 2.52193 -1.23231 1.49675 -1.82324 -1.5794 2.5172 0.000911339 0.000384092 -1.19209e-05 0.000826359 -0.000934601 3.57628e-05 0.000371218 3.06457 0.555969 -2.6969 -1.34509 -0.521564 -0.0289758 0.134204 3.04823 0.558211 -2.68345 -1.33388 -0.500214 -0.0457512 0.137254 38 4222.3 0.296 1.46972e+09 0.292575 1 0 16.2694 -12.7226 4.70671 -8.98194 0.619401 -0.599189 -0.519002 16.2694 -12.7226 4.70671 -8.98194 0.619401 -0.599189 -0.519002 16.2694 -12.7226 4.70671 -8.98194 0.619401 -0.599189 -0.519002 16.2694 -12.7226 4.70671 -8.98194 0.619401 -0.599189 -0.519002 0 0 0 0 0 0 0 0 0 0 0 0 0 0 3.03078 0.564936 -2.67 -1.31818 -0.489538 -0.0777771 0.106753 3.03078 0.564936 -2.67 -1.31818 -0.489538 -0.0777771 0.106753 3.03078 0.564936 -2.67 -1.31818 -0.489538 -0.0777771 0.106753 3.03078 0.564936 -2.67 -1.31818 -0.489538 -0.0777771 0.106753 0 0 0 0 0 0 0 0 0 0 0 0 0 0 36 0.0972973 0.424972 16.2694 -12.7226 4.70671 -8.98194 0.619401 -0.599189 -0.519002 3.03078 0.564936 -2.67 -1.31818 -0.489538 -0.0777771 0.106753 
13.012 -10.1918 3.77717 -7.15355 0.754914 -0.02166 -0.305968 1.66195 -1.55602 -0.2824 0.510995 0.358779 0.0535805 0.0925532 0.693933 0.563782 -0.26679 0.304164 -2.20826 -2.21883 0.00638567 0.000449786 4.71116e-05 0.00028185 -0.000347346 2.21175e-05 6.61478e-06 1.47015e-05 3.18176 2.52235 -1.23228 1.49761 -1.82412 -1.5794 2.51761 0.000959056 0.000419617 3.57628e-05 0.000861645 -0.000874996 0 0.000406742 3.07184 0.531309 -2.67448 -1.41458 -0.481913 -0.0457512 0.147929 3.08145 0.526825 -2.67448 -1.437 -0.488013 -0.0549015 0.150979 39 4222.31 0.304 1.46972e+09 0.301123 1 0 13.794 -10.6555 4.48452 -7.52491 0.777117 -0.563755 -0.58658 13.794 -10.6555 4.48452 -7.52491 0.777117 -0.563755 -0.58658 13.794 -10.6555 4.48452 -7.52491 0.777117 -0.563755 -0.58658 13.794 -10.6555 4.48452 -7.52491 0.777117 -0.563755 -0.58658 0 0 0 0 0 0 0 0 0 0 0 0 0 0 3.04343 0.47078 -2.65206 -1.41682 -0.54139 -0.0457512 0.138779 3.04343 0.47078 -2.65206 -1.41682 -0.54139 -0.0457512 0.138779 3.04343 0.47078 -2.65206 -1.41682 -0.54139 -0.0457512 0.138779 3.04343 0.47078 -2.65206 -1.41682 -0.54139 -0.0457512 0.138779 0 0 0 0 0 0 0 0 0 0 0 0 0 0 37 0.1 0.423623 13.794 -10.6555 4.48452 -7.52491 0.777117 -0.563755 -0.58658 3.04343 0.47078 -2.65206 -1.41682 -0.54139 -0.0457512 0.138779 
18.0784 -14.1971 6.05309 -9.41447 0.334205 -0.946841 -0.172065 5.13169 -4.00533 2.27592 -2.26092 -0.420709 -0.925181 0.133903 0.693674 0.56383 -0.266461 0.303773 -2.20801 -2.21886 0.00637783 0.000513915 4.83702e-05 0.000329452 -0.000391446 0.000250045 -2.87546e-05 -7.84182e-06 3.18257 2.52283 -1.23224 1.49855 -1.82494 -1.57936 2.51796 0.00106067 0.000479221 3.57628e-05 0.000945568 -0.000827312 3.62396e-05 0.000347376 3.07797 0.508891 -2.63413 -1.50874 -0.590191 -0.0610016 0.210456 3.07488 0.513375 -2.62964 -1.50874 -0.585616 -0.0640517 0.208931 40 4222.32 0.312 1.46972e+09 0.307997 1 0 17.7616 -13.7197 7.51298 -8.41422 0.521722 -0.289599 -0.266976 17.7616 -13.7197 7.51298 -8.41422 0.521722 -0.289599 -0.266976 17.7616 -13.7197 7.51298 -8.41422 0.521722 -0.289599 -0.266976 17.7616 -13.7197 7.51298 -8.41422 0.521722 -0.289599 -0.266976 0 0 0 0 0 0 0 0 0 0 0 0 0 0 3.07732 0.535793 -2.66551 -1.44148 -0.545965 -0.0472763 0.160129 3.07732 0.535793 -2.66551 -1.44148 -0.545965 -0.0472763 0.160129 3.07732 0.535793 -2.66551 -1.44148 -0.545965 -0.0472763 0.160129 3.07732 0.535793 -2.66551 -1.44148 -0.545965 -0.0472763 0.160129 0 0 0 0 0 0 0 0 0 0 0 0 0 0 38 0.102703 0.422319 17.7616 -13.7197 7.51298 -8.41422 0.521722 -0.289599 -0.266976 3.07732 0.535793 -2.66551 -1.44148 -0.545965 -0.0472763 0.160129 
21.7362 -18.2834 7.42406 -9.11386 1.01251 -0.502985 0.438619 4.32058 -4.08625 1.37097 0.300612 0.67831 0.443855 0.610684 0.693437 0.563862 -0.266172 0.303426 -2.20798 -2.21887 0.00644884 0.00045276 3.17786e-05 0.000288998 -0.000347077 3.17741e-05 -9.86618e-06 7.10161e-05 3.18333 2.52325 -1.23224 1.49946 -1.82583 -1.5794 2.51835 0.00100244 0.000419855 0 0.000910282 -0.000886917 -3.62396e-05 0.000395298 3.15549 0.533551 -2.74398 -1.4639 -0.56274 -0.0533764 0.201305 3.14457 0.533551 -2.73501 -1.45718 -0.555115 -0.0594766 0.19673 41 4222.33 0.32 1.46972e+09 0.317184 1 0 18.6689 -15.185 6.35523 -8.80653 0.663845 -0.449715 -0.0588531 18.6689 -15.185 6.35523 -8.80653 0.663845 -0.449715 -0.0588531 18.6689 -15.185 6.35523 -8.80653 0.663845 -0.449715 -0.0588531 18.6689 -15.185 6.35523 -8.80653 0.663845 -0.449715 -0.0588531 0 0 0 0 0 0 0 0 0 0 0 0 0 0 3.16952 0.529067 -2.80226 -1.3832 -0.570365 -0.0472763 0.155554 3.16952 0.529067 -2.80226 -1.3832 -0.570365 -0.0472763 0.155554 3.16952 0.529067 -2.80226 -1.3832 -0.570365 -0.0472763 0.155554 3.16952 0.529067 -2.80226 -1.3832 -0.570365 -0.0472763 0.155554 0 0 0 0 0 0 0 0 0 0 0 0 0 0 39 0.105405 0.421007 18.6689 -15.185 6.35523 -8.80653 0.663845 -0.449715 -0.0588531 3.16952 0.529067 -2.80226 -1.3832 -0.570365 -0.0472763 0.155554 
17.6201 -13.9915 5.00722 -9.46742 0.984851 -0.366632 0.355999 4.9382 4.29182 -2.41684 -0.35356 -0.0276637 0.136354 -0.0826192 0.693201 0.56389 -0.265872 0.303096 -2.208 -2.21886 0.00638126 0.000446281 2.82485e-05 0.000299861 -0.000329321 -2.42068e-05 1.36382e-05 -6.75777e-05 3.18411 2.52367 -1.23228 1.50038 -1.82673 -1.57935 2.51878 0.00101348 0.000419855 -3.57628e-05 0.000921726 -0.000899315 4.76837e-05 0.000430584 3.17609 0.596322 -2.76191 -1.45045 -0.523089 -0.0579516 0.19063 3.17849 0.589596 -2.77312 -1.437 -0.503264 -0.0533764 0.18148 42 4222.34 0.328 1.46972e+09 0.324253 1 0 12.7898 -9.25066 3.78594 -7.97945 1.05214 0.32236 -0.10415 12.7898 -9.25066 3.78594 -7.97945 1.05214 0.32236 -0.10415 12.7898 -9.25066 3.78594 -7.97945 1.05214 0.32236 -0.10415 12.7898 -9.25066 3.78594 -7.97945 1.05214 0.32236 -0.10415 0 0 0 0 0 0 0 0 0 0 0 0 0 0 3.11001 0.567178 -2.73053 -1.37647 -0.536815 -0.036601 0.201305 3.11001 0.567178 -2.73053 -1.37647 -0.536815 -0.036601 0.201305 3.11001 0.567178 -2.73053 -1.37647 -0.536815 -0.036601 0.201305 3.11001 0.567178 -2.73053 -1.37647 -0.536815 -0.036601 0.201305 0 0 0 0 0 0 0 0 0 0 0 0 0 0 40 0.108108 0.419729 12.7898 -9.25066 3.78594 -7.97945 1.05214 0.32236 -0.10415 3.11001 0.567178 -2.73053 -1.37647 -0.536815 -0.036601 0.201305 
17.5778 -13.8881 3.75589 -10.0991 0.87623 -0.747014 0.239901 1.40555 0.103426 -1.25133 -0.631707 -0.108621 -0.380382 -0.116098 0.692964 0.563911 -0.265593 0.30276 -2.20794 -2.21883 0.00646333 0.000436984 2.0462e-05 0.000278606 -0.000336028 6.57978e-05 2.35425e-05 8.20664e-05 3.18485 2.52407 -1.23229 1.50127 -1.82753 -1.57938 2.51916 0.000970321 0.000395536 -1.19209e-05 0.000885963 -0.000802517 -3.57628e-05 0.000371218 3.21747 0.650125 -2.82468 -1.39665 -0.54139 -0.0259257 0.141829 3.20099 0.636674 -2.80675 -1.40113 -0.542915 -0.0427012 0.141829 43 4222.34 0.336 1.46972e+09 0.332434 1 0 15.0533 -12.1708 3.68347 -8.05641 0.776187 -0.134522 0.355078 15.0533 -12.1708 3.68347 -8.05641 0.776187 -0.134522 0.355078 15.0533 -12.1708 3.68347 -8.05641 0.776187 -0.134522 0.355078 15.0533 -12.1708 3.68347 -8.05641 0.776187 -0.134522 0.355078 0 0 0 0 0 0 0 0 0 0 0 0 0 0 3.17057 0.674785 -2.77088 -1.38544 -0.545965 -0.0183005 0.227231 3.17057 0.674785 -2.77088 -1.38544 -0.545965 -0.0183005 0.227231 3.17057 0.674785 -2.77088 -1.38544 -0.545965 -0.0183005 0.227231 3.17057 0.674785 -2.77088 -1.38544 -0.545965 -0.0183005 0.227231 0 0 0 0 0 0 0 0 0 0 0 0 0 0 41 0.110811 0.418346 15.0533 -12.1708 3.68347 -8.05641 0.776187 -0.134522 0.355078 3.17057 0.674785 -2.77088 -1.38544 -0.545965 -0.0183005 0.227231 
14.1462 -10.5808 2.03375 -9.16662 0.922738 -0.0676484 -0.231563 3.84367 3.30733 -1.72215 0.932503 0.046508 0.679366 -0.471464 0.692734 0.563946 -0.265355 0.302377 -2.20791 -2.21879 0.0064459 0.00045263 3.50487e-05 0.000237921 -0.000383457 2.72335e-05 4.12479e-05 -1.74315e-05 3.18551 2.52441 -1.2322 1.50216 -1.82846 -1.57936 2.5195 0.000955324 0.000347376 8.39233e-05 0.000885963 -0.000923157 2.43187e-05 0.000347376 3.253 0.751007 -2.76639 -1.53788 -0.536815 -0.0228756 0.112853 3.25607 0.757732 -2.76191 -1.54909 -0.545965 -0.0396511 0.111328 44 4222.35 0.344 1.46972e+09 0.340398 1 0 15.2855 -12.6313 0.735996 -8.57647 0.9001 -0.0235655 0.608579 15.2855 -12.6313 0.735996 -8.57647 0.9001 -0.0235655 0.608579 15.2855 -12.6313 0.735996 -8.57647 0.9001 -0.0235655 0.608579 15.2855 -12.6313 0.735996 -8.57647 0.9001 -0.0235655 0.608579 0 0 0 0 0 0 0 0 0 0 0 0 0 0 3.1395 0.647883 -2.73949 -1.38992 -0.524614 -0.0518514 0.19978 3.1395 0.647883 -2.73949 -1.38992 -0.524614 -0.0518514 0.19978 3.1395 0.647883 -2.73949 -1.38992 -0.524614 -0.0518514 0.19978 3.1395 0.647883 -2.73949 -1.38992 -0.524614 -0.0518514 0.19978 0 0 0 0 0 0 0 0 0 0 0 0 0 0 42 0.113514 0.417076 15.2855 -12.6313 0.735996 -8.57647 0.9001 -0.0235655 0.608579 3.1395 0.647883 -2.73949 -1.38992 -0.524614 -0.0518514 0.19978 
22.3922 -18.4687 3.92454 -12.038 0.556884 -0.953337 -0.519987 8.6046 -7.88791 1.89079 -2.87139 -0.365854 -0.885688 -0.288425 0.692503 0.563968 -0.265082 0.302045 -2.20789 -2.21866 0.00646462 0.000430337 2.2424e-05 0.000273058 -0.000331854 1.67288e-05 0.000132098 1.87211e-05 3.18621 2.5248 -1.2322 1.50301 -1.8292 -1.57935 2.51993 0.000932837 0.000383854 0 0.000850201 -0.000743389 1.14441e-05 0.000430822 3.18868 0.744281 -2.74398 -1.44373 -0.552065 -0.0213506 0.105228 3.19335 0.75549 -2.74398 -1.44821 -0.558165 -0.036601 0.0991277 45 4222.36 0.352 1.46972e+09 0.349104 1 0 15.7473 -12.8809 2.17583 -8.7936 0.905292 -0.420558 0.326362 15.7473 -12.8809 2.17583 -8.7936 0.905292 -0.420558 0.326362 15.7473 -12.8809 2.17583 -8.7936 0.905292 -0.420558 0.326362 15.7473 -12.8809 2.17583 -8.7936 0.905292 -0.420558 0.326362 0 0 0 0 0 0 0 0 0 0 0 0 0 0 3.20533 0.733072 -2.76864 -1.43924 -0.542915 -0.036601 0.18148 3.20533 0.733072 -2.76864 -1.43924 -0.542915 -0.036601 0.18148 3.20533 0.733072 -2.76864 -1.43924 -0.542915 -0.036601 0.18148 3.20533 0.733072 -2.76864 -1.43924 -0.542915 -0.036601 0.18148 0 0 0 0 0 0 0 0 0 0 0 0 0 0 43 0.116216 0.415849 15.7473 -12.8809 2.17583 -8.7936 0.905292 -0.420558 0.326362 3.20533 0.733072 -2.76864 -1.43924 -0.542915 -0.036601 0.18148 
18.2754 -15.4572 2.76778 -9.34918 0.869922 -0.365174 -0.597143 4.19968 3.01154 -1.15676 2.68884 0.313039 0.588163 -0.077156 0.692301 0.56401 -0.264809 0.301744 -2.20793 -2.21874 0.00649079 0.000408928 4.21373e-05 0.000273447 -0.00030112 -3.40517e-05 -7.62203e-05 2.6173e-05 3.18692 2.52521 -1.2322 1.50382 -1.83009 -1.57937 2.52032 0.000910463 0.000407934 0 0.000813961 -0.000887394 -2.3365e-05 0.000383139 3.12229 0.636674 -2.67224 -1.48408 -0.520039 -0.0167755 0.117428 3.11885 0.647883 -2.66551 -1.48408 -0.509364 -0.0320259 0.115903 46 4222.37 0.36 1.46972e+09 0.356406 1 0 17.702 -14.7024 1.36022 -9.76485 0.900724 -0.402762 0.15389 17.702 -14.7024 1.36022 -9.76485 0.900724 -0.402762 0.15389 17.702 -14.7024 1.36022 -9.76485 0.900724 -0.402762 0.15389 17.702 -14.7024 1.36022 -9.76485 0.900724 -0.402762 0.15389 0 0 0 0 0 0 0 0 0 0 0 0 0 0 3.15268 0.692719 -2.69017 -1.4908 -0.478863 -0.0442262 0.141829 3.15268 0.692719 -2.69017 -1.4908 -0.478863 -0.0442262 0.141829 3.15268 0.692719 -2.69017 -1.4908 -0.478863 -0.0442262 0.141829 3.15268 0.692719 -2.69017 -1.4908 -0.478863 -0.0442262 0.141829 0 0 0 0 0 0 0 0 0 0 0 0 0 0 44 0.118919 0.414465 17.702 -14.7024 1.36022 -9.76485 0.900724 -0.402762 0.15389 3.15268 0.692719 -2.69017 -1.4908 -0.478863 -0.0442262 0.141829 
21.762 -18.0565 6.18968 -10.4515 0.300416 -0.897949 -0.474399 4.43636 -2.59938 3.4219 -1.1023 -0.569506 -0.532775 0.122745 0.692091 0.56405 -0.264523 0.301439 -2.20801 -2.21886 0.00646289 0.00041969 3.98375e-05 0.000285819 -0.00030473 -8.26992e-05 -0.000121442 -2.79076e-05 3.18768 2.52563 -1.23223 1.50469 -1.83108 -1.57937 2.52071 0.000969741 0.000419378 -2.38419e-05 0.000874043 -0.000994682 0 0.000395298 3.10008 0.641158 -2.67224 -1.43476 -0.462087 -0.0259257 0.0915025 3.09454 0.629949 -2.67448 -1.42355 -0.472763 -0.0274507 0.0960776 47 4222.38 0.368 1.46972e+09 0.364867 1 0 22.4003 -18.4165 4.69544 -11.8558 0.198594 -1.42452 -0.244463 22.4003 -18.4165 4.69544 -11.8558 0.198594 -1.42452 -0.244463 22.4003 -18.4165 4.69544 -11.8558 0.198594 -1.42452 -0.244463 22.4003 -18.4165 4.69544 -11.8558 0.198594 -1.42452 -0.244463 0 0 0 0 0 0 0 0 0 0 0 0 0 0 3.08859 0.659092 -2.60274 -1.52667 -0.484963 -0.0503264 0.149454 3.08859 0.659092 -2.60274 -1.52667 -0.484963 -0.0503264 0.149454 3.08859 0.659092 -2.60274 -1.52667 -0.484963 -0.0503264 0.149454 3.08859 0.659092 -2.60274 -1.52667 -0.484963 -0.0503264 0.149454 0 0 0 0 0 0 0 0 0 0 0 0 0 0 45 0.121622 0.41322 22.4003 -18.4165 4.69544 -11.8558 0.198594 -1.42452 -0.244463 3.08859 0.659092 -2.60274 -1.52667 -0.484963 -0.0503264 0.149454 
20.2248 -16.1028 5.56999 -10.8957 0.0654612 -1.27575 -0.722979 2.09724 1.95372 -0.619694 -0.444274 -0.234955 -0.377805 -0.248581 0.691877 0.56411 -0.264222 0.3011 -2.20799 -2.21896 0.00643837 0.000456906 5.93805e-05 0.000300537 -0.000338991 1.83495e-05 -0.000102516 -2.45154e-05 3.18843 2.52608 -1.23219 1.50556 -1.83204 -1.57936 2.52111 0.000975878 0.000455856 3.57628e-05 0.000862122 -0.000958443 1.19209e-05 0.000394821 3.01362 0.578387 -2.64982 -1.3137 -0.423961 -0.0213506 0.141829 3.00497 0.558211 -2.65206 -1.29801 -0.422436 -0.0213506 0.134204 48 4222.38 0.376 1.46972e+09 0.374299 1 0 25.7473 -21.8055 6.87022 -11.8424 0.0975843 -1.69381 -0.161429 25.7473 -21.8055 6.87022 -11.8424 0.0975843 -1.69381 -0.161429 25.7473 -21.8055 6.87022 -11.8424 0.0975843 -1.69381 -0.161429 25.7473 -21.8055 6.87022 -11.8424 0.0975843 -1.69381 -0.161429 0 0 0 0 0 0 0 0 0 0 0 0 0 0 3.06779 0.560453 -2.67448 -1.39441 -0.431587 -0.0427012 0.114378 3.06779 0.560453 -2.67448 -1.39441 -0.431587 -0.0427012 0.114378 3.06779 0.560453 -2.67448 -1.39441 -0.431587 -0.0427012 0.114378 3.06779 0.560453 -2.67448 -1.39441 -0.431587 -0.0427012 0.114378 0 0 0 0 0 0 0 0 0 0 0 0 0 0 46 0.124324 0.411863 25.7473 -21.8055 6.87022 -11.8424 0.0975843 -1.69381 -0.161429 3.06779 0.560453 -2.67448 -1.39441 -0.431587 -0.0427012 0.114378 
15.3534 -11.9483 4.17075 -8.69306 0.0533628 -1.03177 -0.235 4.90608 4.15451 -1.39923 2.20268 -0.0120984 0.24398 0.487979 0.69165 0.564126 -0.263946 0.30079 -2.20794 -2.21908 0.0064157 0.000415698 1.58949e-05 0.000276887 -0.000309654 5.2156e-05 -0.000121152 -2.26699e-05 3.18918 2.52647 -1.23224 1.50645 -1.83294 -1.57935 2.52141 0.000977149 0.000383615 -4.81606e-05 0.000897408 -0.000899315 1.14441e-05 0.000299215 2.98366 0.515616 -2.64534 -1.28007 -0.442262 0.0106753 0.166229 2.97665 0.504407 -2.63413 -1.29128 -0.445312 -0.0198255 0.149454 49 4222.39 0.384 1.46972e+09 0.381108 1 0 18.3069 -13.7905 5.93876 -10.4737 -0.10797 -1.29216 -0.504365 18.3069 -13.7905 5.93876 -10.4737 -0.10797 -1.29216 -0.504365 18.3069 -13.7905 5.93876 -10.4737 -0.10797 -1.29216 -0.504365 18.3069 -13.7905 5.93876 -10.4737 -0.10797 -1.29216 -0.504365 0 0 0 0 0 0 0 0 0 0 0 0 0 0 3.01342 0.540276 -2.65206 -1.32491 -0.420911 -0.0274507 0.105228 3.01342 0.540276 -2.65206 -1.32491 -0.420911 -0.0274507 0.105228 3.01342 0.540276 -2.65206 -1.32491 -0.420911 -0.0274507 0.105228 3.01342 0.540276 -2.65206 -1.32491 -0.420911 -0.0274507 0.105228 0 0 0 0 0 0 0 0 0 0 0 0 0 0 47 0.127027 0.410452 18.3069 -13.7905 5.93876 -10.4737 -0.10797 -1.29216 -0.504365 3.01342 0.540276 -2.65206 -1.32491 -0.420911 -0.0274507 0.105228 
13.0987 -9.98258 4.23172 -7.34957 -0.040148 -0.441837 0.00920801 2.38176 1.96573 0.0609625 1.34349 -0.0935108 0.589937 0.244208 0.691433 0.564184 -0.263647 0.300444 -2.2079 -2.21911 0.00631373 0.000460708 5.82231e-05 0.000298132 -0.000346381 3.96523e-05 -2.67974e-05 -0.000101975 3.18991 2.52691 -1.23219 1.5073 -1.83384 -1.57928 2.52181 0.000960223 0.000443697 4.81606e-05 0.000850201 -0.000899315 7.20024e-05 0.000407219 3.04642 0.506649 -2.66775 -1.38096 -0.35991 -0.0213506 0.16928 3.04647 0.488715 -2.67 -1.3832 -0.35381 -0.0167755 0.150979 50 4222.4 0.392 1.46972e+09 0.389189 1 0 15.8183 -11.7422 5.57868 -9.01217 -0.151758 -1.04345 -0.593837 15.8183 -11.7422 5.57868 -9.01217 -0.151758 -1.04345 -0.593837 15.8183 -11.7422 5.57868 -9.01217 -0.151758 -1.04345 -0.593837 15.8183 -11.7422 5.57868 -9.01217 -0.151758 -1.04345 -0.593837 0 0 0 0 0 0 0 0 0 0 0 0 0 0 3.00547 0.533551 -2.63189 -1.34957 -0.35381 -0.0213506 0.108278 3.00547 0.533551 -2.63189 -1.34957 -0.35381 -0.0213506 0.108278 3.00547 0.533551 -2.63189 -1.34957 -0.35381 -0.0213506 0.108278 3.00547 0.533551 -2.63189 -1.34957 -0.35381 -0.0213506 0.108278 0 0 0 0 0 0 0 0 0 0 0 0 0 0 48 0.12973 0.409154 15.8183 -11.7422 5.57868 -9.01217 -0.151758 -1.04345 -0.593837 3.00547 0.533551 -2.63189 -1.34957 -0.35381 -0.0213506 0.108278 
19.4931 -14.269 6.39379 -11.6403 -0.681681 -1.97326 0.0382063 6.43884 -4.28646 2.16208 -4.29072 -0.641533 -1.53143 0.0289983 0.691178 0.564187 -0.263395 0.300072 -2.20797 -2.21903 0.00639968 0.000449894 2.96523e-06 0.000252857 -0.000372101 -7.16626e-05 7.29667e-05 8.59591e-05 3.19065 2.52726 -1.23219 1.50829 -1.83481 -1.57933 2.52222 0.00104161 0.000347853 0 0.000981808 -0.00097084 -4.81606e-05 0.000406981 3.10521 0.410251 -2.74173 -1.39889 -0.401086 -0.00762521 0.140304 3.0874 0.403526 -2.72828 -1.38768 -0.396511 -0.0213506 0.126578 51 4222.41 0.4 1.46972e+09 0.396992 1 0 18.578 -13.6006 6.52368 -10.8447 -0.77715 -1.8341 -0.562442 18.578 -13.6006 6.52368 -10.8447 -0.77715 -1.8341 -0.562442 18.578 -13.6006 6.52368 -10.8447 -0.77715 -1.8341 -0.562442 18.578 -13.6006 6.52368 -10.8447 -0.77715 -1.8341 -0.562442 0 0 0 0 0 0 0 0 0 0 0 0 0 0 3.06386 0.448362 -2.69914 -1.37871 -0.414811 -0.0228756 0.141829 3.06386 0.448362 -2.69914 -1.37871 -0.414811 -0.0228756 0.141829 3.06386 0.448362 -2.69914 -1.37871 -0.414811 -0.0228756 0.141829 3.06386 0.448362 -2.69914 -1.37871 -0.414811 -0.0228756 0.141829 0 0 0 0 0 0 0 0 0 0 0 0 0 0 49 0.132432 0.407868 18.578 -13.6006 6.52368 -10.8447 -0.77715 -1.8341 -0.562442 3.06386 0.448362 -2.69914 -1.37871 -0.414811 -0.0228756 0.141829 
17.8746 -10.989 7.52524 -11.9211 -0.680094 -1.31164 -0.244742 3.48103 3.28002 1.13145 -0.280778 0.00158693 0.661626 -0.282948 0.690982 0.564235 -0.263131 0.299763 -2.20802 -2.21904 0.00636132 0.000409419 4.82782e-05 0.000264058 -0.000309138 -4.35112e-05 -5.33468e-06 -3.83633e-05 3.19132 2.52765 -1.23216 1.50906 -1.83566 -1.5793 2.52263 0.000873682 0.000395536 3.57628e-05 0.000778198 -0.000851154 2.43187e-05 0.000406981 3.0156 0.450604 -2.62964 -1.40562 -0.401086 -0.0167755 0.115903 3.02386 0.459571 -2.63637 -1.40786 -0.396511 -0.0244007 0.103703 52 4222.42 0.408 1.46972e+09 0.406542 1 0 17.4641 -11.8825 7.05936 -10.6755 -0.460451 -1.19927 -0.231845 17.4641 -11.8825 7.05936 -10.6755 -0.460451 -1.19927 -0.231845 17.4641 -11.8825 7.05936 -10.6755 -0.460451 -1.19927 -0.231845 17.4641 -11.8825 7.05936 -10.6755 -0.460451 -1.19927 -0.231845 0 0 0 0 0 0 0 0 0 0 0 0 0 0 3.11865 0.448362 -2.73949 -1.42131 -0.423961 -0.0274507 0.167755 3.11865 0.448362 -2.73949 -1.42131 -0.423961 -0.0274507 0.167755 3.11865 0.448362 -2.73949 -1.42131 -0.423961 -0.0274507 0.167755 3.11865 0.448362 -2.73949 -1.42131 -0.423961 -0.0274507 0.167755 0 0 0 0 0 0 0 0 0 0 0 0 0 0 50 0.135135 0.406512 17.4641 -11.8825 7.05936 -10.6755 -0.460451 -1.19927 -0.231845 3.11865 0.448362 -2.73949 -1.42131 -0.423961 -0.0274507 0.167755 
20.6752 -15.076 8.93795 -10.9678 -0.684767 -1.62354 -0.479713 4.42809 -4.08699 1.41271 0.953292 -0.00467269 -0.311898 -0.234971 0.690744 0.564263 -0.26285 0.299407 -2.20802 -2.21901 0.00629969 0.000454018 2.75526e-05 0.000280812 -0.000355694 -8.227e-06 3.20129e-05 -6.16357e-05 3.19206 2.52805 -1.23214 1.50999 -1.83658 -1.57925 2.52303 0.00100309 0.000395536 1.23978e-05 0.000921726 -0.000923157 4.76837e-05 0.000407219 3.14113 0.464055 -2.74846 -1.44821 -0.431587 -0.0198255 0.0976026 3.12328 0.461813 -2.72604 -1.45269 -0.442262 -0.0244007 0.102178 53 4222.42 0.416 1.46972e+09 0.412875 1 0 18.7217 -12.725 6.98923 -11.8206 -0.442558 -1.32228 0.02262 18.7217 -12.725 6.98923 -11.8206 -0.442558 -1.32228 0.02262 18.7217 -12.725 6.98923 -11.8206 -0.442558 -1.32228 0.02262 18.7217 -12.725 6.98923 -11.8206 -0.442558 -1.32228 0.02262 0 0 0 0 0 0 0 0 0 0 0 0 0 0 3.05738 0.399042 -2.6543 -1.4639 -0.433112 -0.0335509 0.152504 3.05738 0.399042 -2.6543 -1.4639 -0.433112 -0.0335509 0.152504 3.05738 0.399042 -2.6543 -1.4639 -0.433112 -0.0335509 0.152504 3.05738 0.399042 -2.6543 -1.4639 -0.433112 -0.0335509 0.152504 0 0 0 0 0 0 0 0 0 0 0 0 0 0 51 0.137838 0.405242 18.7217 -12.725 6.98923 -11.8206 -0.442558 -1.32228 0.02262 3.05738 0.399042 -2.6543 -1.4639 -0.433112 -0.0335509 0.152504 
19.3445 -12.6775 8.01026 -12.2198 -0.449703 -1.30896 -0.662814 2.86022 2.39846 -0.927691 -1.25205 0.235065 0.314576 -0.1831 0.690524 0.564302 -0.262578 0.299065 -2.208 -2.21908 0.00637537 0.000438575 3.9141e-05 0.000272049 -0.000341768 2.30656e-05 -7.16883e-05 7.5688e-05 3.19278 2.52846 -1.23211 1.51085 -1.83751 -1.5793 2.52339 0.000954331 0.000407696 3.57628e-05 0.000862122 -0.000923157 -4.76837e-05 0.000359058 3.16221 0.623223 -2.75519 -1.42131 -0.391936 -0.0411761 0.120478 3.14956 0.614256 -2.74846 -1.4101 -0.401086 -0.0427012 0.111328 54 4222.43 0.424 1.46972e+09 0.420109 1 0 24.1981 -16.7244 11.0894 -13.5228 -0.760693 -1.7959 -0.157989 24.1981 -16.7244 11.0894 -13.5228 -0.760693 -1.7959 -0.157989 24.1981 -16.7244 11.0894 -13.5228 -0.760693 -1.7959 -0.157989 24.1981 -16.7244 11.0894 -13.5228 -0.760693 -1.7959 -0.157989 0 0 0 0 0 0 0 0 0 0 0 0 0 0 3.04163 0.56942 -2.65655 -1.3675 -0.439212 -0.0335509 0.0960776 3.04163 0.56942 -2.65655 -1.3675 -0.439212 -0.0335509 0.0960776 3.04163 0.56942 -2.65655 -1.3675 -0.439212 -0.0335509 0.0960776 3.04163 0.56942 -2.65655 -1.3675 -0.439212 -0.0335509 0.0960776 0 0 0 0 0 0 0 0 0 0 0 0 0 0 52 0.140541 0.403858 24.1981 -16.7244 11.0894 -13.5228 -0.760693 -1.7959 -0.157989 3.04163 0.56942 -2.65655 -1.3675 -0.439212 -0.0335509 0.0960776 
19.7437 -14.308 4.50967 -12.8357 -0.229498 -1.93479 -0.444114 3.91049 -1.63049 -3.50058 -0.615918 0.220205 -0.625826 0.2187 0.690284 0.564308 -0.262309 0.298734 -2.208 -2.21894 0.00633536 0.000426561 6.25908e-06 0.000269092 -0.000330915 -1.22922e-06 0.000141937 -4.00114e-05 3.19349 2.52882 -1.23213 1.51173 -1.83827 -1.57925 2.52381 0.000956171 0.000360012 -2.38419e-05 0.000885487 -0.000766754 4.76837e-05 0.00041914 3.17365 0.685994 -2.80002 -1.32715 -0.491063 -0.0274507 0.134204 3.16664 0.677027 -2.79105 -1.33388 -0.494113 -0.0305008 0.131154 55 4222.44 0.432 1.46972e+09 0.429336 1 0 16.6276 -12.7326 5.26353 -9.30879 0.0336152 -1.04554 -0.682772 16.6276 -12.7326 5.26353 -9.30879 0.0336152 -1.04554 -0.682772 16.6276 -12.7326 5.26353 -9.30879 0.0336152 -1.04554 -0.682772 16.6276 -12.7326 5.26353 -9.30879 0.0336152 -1.04554 -0.682772 0 0 0 0 0 0 0 0 0 0 0 0 0 0 3.08309 0.578387 -2.68121 -1.40786 -0.495638 -0.0183005 0.123528 3.08309 0.578387 -2.68121 -1.40786 -0.495638 -0.0183005 0.123528 3.08309 0.578387 -2.68121 -1.40786 -0.495638 -0.0183005 0.123528 3.08309 0.578387 -2.68121 -1.40786 -0.495638 -0.0183005 0.123528 0 0 0 0 0 0 0 0 0 0 0 0 0 0 53 0.143243 0.402574 16.6276 -12.7326 5.26353 -9.30879 0.0336152 -1.04554 -0.682772 3.08309 0.578387 -2.68121 -1.40786 -0.495638 -0.0183005 0.123528 
12.8801 -9.58545 0.656081 -8.57823 0.780451 -0.349955 -0.312708 7.43501 4.72258 -3.85359 4.25752 1.00995 1.58483 0.131405 0.690066 0.564347 -0.262044 0.29839 -2.20798 -2.21899 0.00639593 0.000436022 3.87741e-05 0.000264215 -0.000344677 1.99505e-05 -4.79043e-05 6.05701e-05 3.19419 2.52921 -1.23209 1.51258 -1.83919 -1.57929 2.52417 0.000939348 0.000395536 4.76837e-05 0.000850677 -0.000910759 -3.57628e-05 0.000359058 3.17013 0.712896 -2.75743 -1.39216 -0.509364 -0.0228756 0.132679 3.17155 0.70617 -2.76191 -1.38992 -0.512414 -0.0350759 0.128103 56 4222.45 0.44 1.46972e+09 0.437632 1 0 17.4615 -13.7985 5.10945 -9.40205 0.247118 -0.621403 -0.41315 17.4615 -13.7985 5.10945 -9.40205 0.247118 -0.621403 -0.41315 17.4615 -13.7985 5.10945 -9.40205 0.247118 -0.621403 -0.41315 17.4615 -13.7985 5.10945 -9.40205 0.247118 -0.621403 -0.41315 0 0 0 0 0 0 0 0 0 0 0 0 0 0 3.09761 0.70617 -2.65655 -1.42803 -0.516989 -0.00762521 0.115903 3.09761 0.70617 -2.65655 -1.42803 -0.516989 -0.00762521 0.115903 3.09761 0.70617 -2.65655 -1.42803 -0.516989 -0.00762521 0.115903 3.09761 0.70617 -2.65655 -1.42803 -0.516989 -0.00762521 0.115903 0 0 0 0 0 0 0 0 0 0 0 0 0 0 54 0.145946 0.401235 17.4615 -13.7985 5.10945 -9.40205 0.247118 -0.621403 -0.41315 3.09761 0.70617 -2.65655 -1.42803 -0.516989 -0.00762521 0.115903 
16.3997 -13.3855 1.8385 -9.29508 0.711796 -0.549859 -0.328958 4.04377 -3.80001 1.18242 -0.716853 -0.0686544 -0.199904 -0.0162499 0.689819 0.564358 -0.261739 0.298066 -2.208 -2.21894 0.00641142 0.000444854 1.09103e-05 0.000305109 -0.00032355 -1.80732e-05 4.64234e-05 1.5484e-05 3.19499 2.52963 -1.23214 1.51352 -1.84004 -1.57929 2.52461 0.00102525 0.000419378 -5.96046e-05 0.000933647 -0.000851631 0 0.000442743 3.18133 0.78015 -2.73949 -1.41682 -0.506314 -0.038126 0.18758 3.1891 0.784634 -2.7507 -1.4101 -0.491063 -0.0350759 0.173855 57 4222.46 0.448 1.46972e+09 0.444757 1 0 19.0175 -16.3677 3.54381 -9.01144 0.443295 -0.573203 -0.483525 19.0175 -16.3677 3.54381 -9.01144 0.443295 -0.573203 -0.483525 19.0175 -16.3677 3.54381 -9.01144 0.443295 -0.573203 -0.483525 19.0175 -16.3677 3.54381 -9.01144 0.443295 -0.573203 -0.483525 0 0 0 0 0 0 0 0 0 0 0 0 0 0 3.18611 0.75549 -2.70138 -1.51098 -0.480388 -0.0122003 0.122003 3.18611 0.75549 -2.70138 -1.51098 -0.480388 -0.0122003 0.122003 3.18611 0.75549 -2.70138 -1.51098 -0.480388 -0.0122003 0.122003 3.18611 0.75549 -2.70138 -1.51098 -0.480388 -0.0122003 0.122003 0 0 0 0 0 0 0 0 0 0 0 0 0 0 55 0.148649 0.399979 19.0175 -16.3677 3.54381 -9.01144 0.443295 -0.573203 -0.483525 3.18611 0.75549 -2.70138 -1.51098 -0.480388 -0.0122003 0.122003 
18.6316 -15.7033 0.401661 -10.019 0.900755 -0.909662 0.215762 2.82154 -2.31788 -1.43684 -0.723892 0.188958 -0.359803 0.54472 0.689604 0.564392 -0.261476 0.297734 -2.20802 -2.21889 0.00640784 0.00042551 3.43536e-05 0.000263593 -0.000332261 -1.62031e-05 4.75812e-05 -3.57833e-06 3.19567 2.53001 -1.23211 1.51434 -1.84088 -1.57928 2.52502 0.00091163 0.000384331 3.57628e-05 0.000825882 -0.000839233 1.19209e-05 0.000407457 3.10744 0.751007 -2.63861 -1.45942 -0.436162 -0.0442262 0.216556 3.10254 0.768941 -2.62516 -1.4639 -0.440737 -0.0335509 0.19673 58 4222.46 0.456 1.46972e+09 0.453542 1 0 23.1201 -19.2864 3.70344 -12.2009 0.0492054 -1.36555 -0.433531 23.1201 -19.2864 3.70344 -12.2009 0.0492054 -1.36555 -0.433531 23.1201 -19.2864 3.70344 -12.2009 0.0492054 -1.36555 -0.433531 23.1201 -19.2864 3.70344 -12.2009 0.0492054 -1.36555 -0.433531 0 0 0 0 0 0 0 0 0 0 0 0 0 0 3.09542 0.764457 -2.59377 -1.5065 -0.466663 -0.00915025 0.141829 3.09542 0.764457 -2.59377 -1.5065 -0.466663 -0.00915025 0.141829 3.09542 0.764457 -2.59377 -1.5065 -0.466663 -0.00915025 0.141829 3.09542 0.764457 -2.59377 -1.5065 -0.466663 -0.00915025 0.141829 0 0 0 0 0 0 0 0 0 0 0 0 0 0 56 0.151351 0.398654 23.1201 -19.2864 3.70344 -12.2009 0.0492054 -1.36555 -0.433531 3.09542 0.764457 -2.59377 -1.5065 -0.466663 -0.00915025 0.141829 
24.0449 -20.8477 2.97332 -11.6057 0.254763 -2.05441 0.493203 5.96617 -5.14431 2.57166 -1.58676 -0.645992 -1.14475 0.277441 0.689368 0.564418 -0.261192 0.297389 -2.20798 -2.21887 0.00646632 0.000447029 2.55424e-05 0.000283315 -0.000344841 3.69661e-05 2.13279e-05 5.84801e-05 3.19641 2.53042 -1.2321 1.51523 -1.84173 -1.5793 2.52542 0.000975241 0.000407457 1.19209e-05 0.000885963 -0.000850201 -2.38419e-05 0.000394821 3.10217 0.775666 -2.65206 -1.4101 -0.484963 -0.0396511 0.210456 3.0936 0.784634 -2.64534 -1.39889 -0.488013 -0.0305008 0.204356 59 4222.47 0.464 1.46972e+09 0.460742 1 0 25.744 -22.5278 4.6687 -11.5523 -0.0751328 -1.68641 -0.238817 25.744 -22.5278 4.6687 -11.5523 -0.0751328 -1.68641 -0.238817 25.744 -22.5278 4.6687 -11.5523 -0.0751328 -1.68641 -0.238817 25.744 -22.5278 4.6687 -11.5523 -0.0751328 -1.68641 -0.238817 0 0 0 0 0 0 0 0 0 0 0 0 0 0 3.18063 0.766699 -2.67 -1.54909 -0.497163 -0.0122003 0.158604 3.18063 0.766699 -2.67 -1.54909 -0.497163 -0.0122003 0.158604 3.18063 0.766699 -2.67 -1.54909 -0.497163 -0.0122003 0.158604 3.18063 0.766699 -2.67 -1.54909 -0.497163 -0.0122003 0.158604 0 0 0 0 0 0 0 0 0 0 0 0 0 0 57 0.154054 0.397273 25.744 -22.5278 4.6687 -11.5523 -0.0751328 -1.68641 -0.238817 3.18063 0.766699 -2.67 -1.54909 -0.497163 -0.0122003 0.158604 
20.3598 -17.9731 1.15331 -9.49536 0.753643 -1.23117 0.439102 4.00366 2.87458 -1.82001 2.11037 0.498879 0.823243 -0.0541014 0.689147 0.564461 -0.260889 0.297059 -2.20798 -2.21888 0.00641724 0.000450137 4.36912e-05 0.000303193 -0.000329831 -1.2886e-07 -1.34235e-05 -4.90787e-05 3.19716 2.53087 -1.23209 1.51609 -1.84261 -1.57926 2.52585 0.000969029 0.00044322 1.19209e-05 0.000861645 -0.000887394 3.57628e-05 0.000431061 3.10674 0.775666 -2.63189 -1.45718 -0.478863 -0.0198255 0.154029 3.09733 0.751007 -2.63413 -1.44597 -0.484963 -0.0289758 0.150979 60 4222.48 0.472 1.46972e+09 0.469462 1 0 26.023 -22.3523 4.25931 -12.6266 0.104311 -1.53174 -0.0747283 26.023 -22.3523 4.25931 -12.6266 0.104311 -1.53174 -0.0747283 26.023 -22.3523 4.25931 -12.6266 0.104311 -1.53174 -0.0747283 26.023 -22.3523 4.25931 -12.6266 0.104311 -1.53174 -0.0747283 0 0 0 0 0 0 0 0 0 0 0 0 0 0 3.34237 0.802568 -2.88297 -1.48856 -0.54749 0.00610016 0.211981 3.34237 0.802568 -2.88297 -1.48856 -0.54749 0.00610016 0.211981 3.34237 0.802568 -2.88297 -1.48856 -0.54749 0.00610016 0.211981 3.34237 0.802568 -2.88297 -1.48856 -0.54749 0.00610016 0.211981 0 0 0 0 0 0 0 0 0 0 0 0 0 0 58 0.156757 0.395996 26.023 -22.3523 4.25931 -12.6266 0.104311 -1.53174 -0.0747283 3.34237 0.802568 -2.88297 -1.48856 -0.54749 0.00610016 0.211981 
22.9914 -20.2762 3.23031 -10.3463 0.333742 -1.41216 -0.123187 3.21598 -2.30315 2.077 -0.850929 -0.4199 -0.180992 -0.562288 0.688934 0.564492 -0.260618 0.296745 -2.20803 -2.21895 0.00644365 0.000415891 3.03209e-05 0.000271132 -0.0003139 -4.69504e-05 -6.22511e-05 2.64058e-05 3.19788 2.53126 -1.23209 1.51694 -1.84354 -1.57929 2.52623 0.000938338 0.000396013 0 0.000850677 -0.000923157 -2.38419e-05 0.000383139 3.12506 0.677027 -2.69241 -1.43476 -0.498688 0.00610016 0.109803 3.1272 0.663576 -2.69466 -1.44148 -0.498688 -0.0167755 0.114378 61 4222.49 0.48 1.46972e+09 0.476517 1 0 18.9126 -14.8465 -0.956032 -11.677 0.700558 -0.304769 0.452061 18.9126 -14.8465 -0.956032 -11.677 0.700558 -0.304769 0.452061 18.9126 -14.8465 -0.956032 -11.677 0.700558 -0.304769 0.452061 18.9126 -14.8465 -0.956032 -11.677 0.700558 -0.304769 0.452061 0 0 0 0 0 0 0 0 0 0 0 0 0 0 3.311 0.739797 -2.88073 -1.45494 -0.491063 -0.00915025 0.213506 3.311 0.739797 -2.88073 -1.45494 -0.491063 -0.00915025 0.213506 3.311 0.739797 -2.88073 -1.45494 -0.491063 -0.00915025 0.213506 3.311 0.739797 -2.88073 -1.45494 -0.491063 -0.00915025 0.213506 0 0 0 0 0 0 0 0 0 0 0 0 0 0 59 0.159459 0.394725 18.9126 -14.8465 -0.956032 -11.677 0.700558 -0.304769 0.452061 3.311 0.739797 -2.88073 -1.45494 -0.491063 -0.00915025 0.213506 
19.2032 -15.7953 4.14491 -10.104 0.166702 -0.706615 -0.554106 4.57973 4.48093 0.914593 0.242339 -0.16704 0.705547 -0.43092 0.688696 0.564509 -0.260353 0.296393 -2.2081 -2.2189 0.0064492 0.000440958 1.71957e-05 0.000264587 -0.000352338 -6.97149e-05 4.82337e-05 5.55172e-06 3.19861 2.53163 -1.23207 1.51786 -1.84448 -1.57929 2.52665 0.00099401 0.000371933 1.19209e-05 0.000921726 -0.000946999 0 0.000418901 3.19161 0.690478 -2.77984 -1.40786 -0.427012 -0.0213506 0.106753 3.17991 0.699445 -2.76415 -1.40786 -0.442262 -0.0137254 0.105228 62 4222.5 0.488 1.46972e+09 0.484145 1 0 18.2338 -13.5022 -0.167759 -12.2529 0.423972 -0.790256 0.467112 18.2338 -13.5022 -0.167759 -12.2529 0.423972 -0.790256 0.467112 18.2338 -13.5022 -0.167759 -12.2529 0.423972 -0.790256 0.467112 18.2338 -13.5022 -0.167759 -12.2529 0.423972 -0.790256 0.467112 0 0 0 0 0 0 0 0 0 0 0 0 0 0 3.24891 0.807052 -2.81123 -1.41458 -0.521564 0.0152504 0.186055 3.24891 0.807052 -2.81123 -1.41458 -0.521564 0.0152504 0.186055 3.24891 0.807052 -2.81123 -1.41458 -0.521564 0.0152504 0.186055 3.24891 0.807052 -2.81123 -1.41458 -0.521564 0.0152504 0.186055 0 0 0 0 0 0 0 0 0 0 0 0 0 0 60 0.162162 0.393397 18.2338 -13.5022 -0.167759 -12.2529 0.423972 -0.790256 0.467112 3.24891 0.807052 -2.81123 -1.41458 -0.521564 0.0152504 0.186055 
17.9729 -13.1505 2.67525 -11.9554 0.00180442 -1.34625 -0.585564 3.54716 2.64475 -1.46966 -1.85142 -0.164898 -0.639635 -0.0314574 0.688458 0.564555 -0.260063 0.296007 -2.20803 -2.21882 0.00644748 0.000485752 4.63779e-05 0.000290895 -0.000386244 6.11763e-05 7.39835e-05 -1.72029e-06 3.19934 2.53206 -1.23199 1.51875 -1.84536 -1.57926 2.52708 0.000988935 0.000431299 8.39233e-05 0.000885963 -0.000874996 2.38419e-05 0.000431061 3.15669 0.638916 -2.72156 -1.46614 -0.530714 -0.0122003 0.112853 3.16313 0.634432 -2.73725 -1.45269 -0.53834 -0.0106753 0.112853 63 4222.5 0.496 1.46972e+09 0.492089 1 0 17.443 -14.2507 -0.680373 -10.0357 0.566181 -0.302903 0.204812 17.443 -14.2507 -0.680373 -10.0357 0.566181 -0.302903 0.204812 17.443 -14.2507 -0.680373 -10.0357 0.566181 -0.302903 0.204812 17.443 -14.2507 -0.680373 -10.0357 0.566181 -0.302903 0.204812 0 0 0 0 0 0 0 0 0 0 0 0 0 0 3.18416 0.768941 -2.76191 -1.38544 -0.577991 0.00610016 0.122003 3.18416 0.768941 -2.76191 -1.38544 -0.577991 0.00610016 0.122003 3.18416 0.768941 -2.76191 -1.38544 -0.577991 0.00610016 0.122003 3.18416 0.768941 -2.76191 -1.38544 -0.577991 0.00610016 0.122003 0 0 0 0 0 0 0 0 0 0 0 0 0 0 61 0.164865 0.392045 17.443 -14.2507 -0.680373 -10.0357 0.566181 -0.302903 0.204812 3.18416 0.768941 -2.76191 -1.38544 -0.577991 0.00610016 0.122003 
19.0089 -15.3373 4.74383 -10.1784 0.422446 -0.508589 -0.525494 3.49554 -2.18677 2.06858 1.77701 0.420642 0.837661 0.0600695 0.688243 0.564571 -0.259795 0.295711 -2.20815 -2.2189 0.00638054 0.000398711 1.55483e-05 0.000267528 -0.000295224 -0.000120062 -7.94945e-05 -6.69328e-05 3.20007 2.53244 -1.23204 1.51964 -1.84634 -1.57924 2.52746 0.000961426 0.000371456 -4.76837e-05 0.000885487 -0.000983238 2.38419e-05 0.000383139 3.0909 0.596322 -2.72156 -1.33836 -0.55054 -0.00457512 0.103703 3.0925 0.609772 -2.71707 -1.34509 -0.536815 -0.00915025 0.106753 64 4222.51 0.504 1.46972e+09 0.500474 1 0 14.9529 -12.7196 0.354754 -7.85343 0.987132 0.399721 -0.436987 14.9529 -12.7196 0.354754 -7.85343 0.987132 0.399721 -0.436987 14.9529 -12.7196 0.354754 -7.85343 0.987132 0.399721 -0.436987 14.9529 -12.7196 0.354754 -7.85343 0.987132 0.399721 -0.436987 0 0 0 0 0 0 0 0 0 0 0 0 0 0 3.12596 0.733072 -2.71932 -1.3563 -0.56884 -0.00457512 0.115903 3.12596 0.733072 -2.71932 -1.3563 -0.56884 -0.00457512 0.115903 3.12596 0.733072 -2.71932 -1.3563 -0.56884 -0.00457512 0.115903 3.12596 0.733072 -2.71932 -1.3563 -0.56884 -0.00457512 0.115903 0 0 0 0 0 0 0 0 0 0 0 0 0 0 62 0.167568 0.390774 14.9529 -12.7196 0.354754 -7.85343 0.987132 0.399721 -0.436987 3.12596 0.733072 -2.71932 -1.3563 -0.56884 -0.00457512 0.115903 
12.6047 -9.98432 3.40635 -6.8985 0.752474 0.396331 -0.614704 6.4188 5.353 -1.33749 3.27986 0.330027 0.90492 -0.0892093 0.688024 0.564608 -0.2595 0.295391 -2.2081 -2.21892 0.00639904 0.000437297 3.68991e-05 0.000295292 -0.000320421 5.79585e-05 -1.19052e-05 1.84941e-05 3.2008 2.53287 -1.23203 1.52046 -1.84714 -1.57924 2.52786 0.000932433 0.000431776 1.14441e-05 0.000826359 -0.000802994 0 0.000394821 3.09322 0.560453 -2.73725 -1.32715 -0.56884 0.00762521 0.140304 3.09438 0.567178 -2.73501 -1.33164 -0.56884 -0.00610016 0.137254 65 4222.52 0.512 1.46972e+09 0.508798 1 0 13.9718 -12.1032 0.992863 -6.90925 1.02179 0.392487 -0.489823 13.9718 -12.1032 0.992863 -6.90925 1.02179 0.392487 -0.489823 13.9718 -12.1032 0.992863 -6.90925 1.02179 0.392487 -0.489823 13.9718 -12.1032 0.992863 -6.90925 1.02179 0.392487 -0.489823 0 0 0 0 0 0 0 0 0 0 0 0 0 0 3.10369 0.650125 -2.70587 -1.37423 -0.498688 0.0213506 0.112853 3.10369 0.650125 -2.70587 -1.37423 -0.498688 0.0213506 0.112853 3.10369 0.650125 -2.70587 -1.37423 -0.498688 0.0213506 0.112853 3.10369 0.650125 -2.70587 -1.37423 -0.498688 0.0213506 0.112853 0 0 0 0 0 0 0 0 0 0 0 0 0 0 63 0.17027 0.389437 13.9718 -12.1032 0.992863 -6.90925 1.02179 0.392487 -0.489823 3.10369 0.650125 -2.70587 -1.37423 -0.498688 0.0213506 0.112853 
11.5138 -9.04047 3.14478 -6.39908 0.794458 0.722244 -0.25218 1.09941 0.943855 -0.261563 0.499423 0.0419844 0.325913 0.362523 0.687789 0.564635 -0.259211 0.295042 -2.2081 -2.21891 0.00633371 0.00045344 2.75452e-05 0.000288638 -0.000348622 -3.16432e-06 1.01112e-05 -6.5332e-05 3.20155 2.53328 -1.23201 1.52137 -1.84807 -1.57919 2.52827 0.000997145 0.000407934 1.19209e-05 0.000909805 -0.000923157 4.81606e-05 0.000407457 3.07759 0.511133 -2.7238 -1.33836 -0.516989 -0.0152504 0.17233 3.08654 0.511133 -2.73501 -1.33612 -0.510889 -0.00457512 0.176905 66 4222.53 0.52 1.46972e+09 0.517232 1 0 15.8154 -12.6698 3.20796 -8.90565 0.126491 -0.230235 -0.52313 15.8154 -12.6698 3.20796 -8.90565 0.126491 -0.230235 -0.52313 15.8154 -12.6698 3.20796 -8.90565 0.126491 -0.230235 -0.52313 15.8154 -12.6698 3.20796 -8.90565 0.126491 -0.230235 -0.52313 0 0 0 0 0 0 0 0 0 0 0 0 0 0 3.06425 0.589596 -2.70811 -1.30698 -0.521564 -0.0259257 0.112853 3.06425 0.589596 -2.70811 -1.30698 -0.521564 -0.0259257 0.112853 3.06425 0.589596 -2.70811 -1.30698 -0.521564 -0.0259257 0.112853 3.06425 0.589596 -2.70811 -1.30698 -0.521564 -0.0259257 0.112853 0 0 0 0 0 0 0 0 0 0 0 0 0 0 64 0.172973 0.388083 15.8154 -12.6698 3.20796 -8.90565 0.126491 -0.230235 -0.52313 3.06425 0.589596 -2.70811 -1.30698 -0.521564 -0.0259257 0.112853 
13.0373 -9.5231 3.90955 -7.99983 0.532151 0.0183516 0.0632536 1.83854 -0.482629 0.764769 -1.60075 -0.262307 -0.703892 0.315434 0.687581 0.564681 -0.258924 0.294722 -2.20803 -2.21898 0.00636071 0.000432913 4.60862e-05 0.000287267 -0.000320574 7.12081e-05 -7.7568e-05 2.7006e-05 3.20226 2.53371 -1.23198 1.52217 -1.84891 -1.5792 2.52862 0.000911486 0.000431538 3.62396e-05 0.00080204 -0.000839233 -1.19209e-05 0.00035882 3.08066 0.529067 -2.72604 -1.33388 -0.552065 -0.00305008 0.18148 3.06464 0.533551 -2.71035 -1.32715 -0.558165 -0.00152504 0.176905 67 4222.54 0.528 1.46972e+09 0.524344 1 0 11.9903 -9.29381 3.05012 -6.93467 0.745914 0.114224 -0.527203 11.9903 -9.29381 3.05012 -6.93467 0.745914 0.114224 -0.527203 11.9903 -9.29381 3.05012 -6.93467 0.745914 0.114224 -0.527203 11.9903 -9.29381 3.05012 -6.93467 0.745914 0.114224 -0.527203 0 0 0 0 0 0 0 0 0 0 0 0 0 0 3.08878 0.551485 -2.6969 -1.40113 -0.552065 -0.0274507 0.126578 3.08878 0.551485 -2.6969 -1.40113 -0.552065 -0.0274507 0.126578 3.08878 0.551485 -2.6969 -1.40113 -0.552065 -0.0274507 0.126578 3.08878 0.551485 -2.6969 -1.40113 -0.552065 -0.0274507 0.126578 0 0 0 0 0 0 0 0 0 0 0 0 0 0 65 0.175676 0.38678 11.9903 -9.29381 3.05012 -6.93467 0.745914 0.114224 -0.527203 3.08878 0.551485 -2.6969 -1.40113 -0.552065 -0.0274507 0.126578 
12.481 -9.78202 3.48207 -6.92551 0.747051 0.399848 0.153267 1.18488 -0.258922 -0.427486 1.07432 0.2149 0.381497 0.090013 0.687341 0.564701 -0.258653 0.294363 -2.2081 -2.21891 0.00637005 0.000450484 1.98731e-05 0.000270947 -0.000359345 -7.42661e-05 7.05774e-05 9.34252e-06 3.20299 2.53409 -1.23195 1.5231 -1.84985 -1.5792 2.52907 0.000999185 0.000383854 2.38419e-05 0.000922203 -0.000946522 0 0.000442982 3.02935 0.490957 -2.64534 -1.39216 -0.532239 0.00915025 0.163179 3.03276 0.486473 -2.64534 -1.40113 -0.54139 0.00610016 0.154029 68 4222.54 0.536 1.46972e+09 0.532792 1 0 15.6319 -12.3811 5.09541 -8.0686 0.693216 0.00390724 -0.39156 15.6319 -12.3811 5.09541 -8.0686 0.693216 0.00390724 -0.39156 15.6319 -12.3811 5.09541 -8.0686 0.693216 0.00390724 -0.39156 15.6319 -12.3811 5.09541 -8.0686 0.693216 0.00390724 -0.39156 0 0 0 0 0 0 0 0 0 0 0 0 0 0 3.03938 0.506649 -2.6274 -1.44148 -0.552065 -0.0610016 0.166229 3.03938 0.506649 -2.6274 -1.44148 -0.552065 -0.0610016 0.166229 3.03938 0.506649 -2.6274 -1.44148 -0.552065 -0.0610016 0.166229 3.03938 0.506649 -2.6274 -1.44148 -0.552065 -0.0610016 0.166229 0 0 0 0 0 0 0 0 0 0 0 0 0 0 66 0.178378 0.38546 15.6319 -12.3811 5.09541 -8.0686 0.693216 0.00390724 -0.39156 3.03938 0.506649 -2.6274 -1.44148 -0.552065 -0.0610016 0.166229 
16.9096 -13.5792 6.39401 -7.78828 0.265245 -0.0769547 -0.0243601 4.86232 -3.79715 2.91195 -0.862769 -0.481806 -0.476803 -0.177627 0.687105 0.564704 -0.258377 0.294048 -2.20815 -2.2189 0.00633501 0.000418326 3.30384e-06 0.000275548 -0.000314736 -4.95732e-05 1.61766e-05 -3.50414e-05 3.20374 2.53446 -1.232 1.524 -1.85074 -1.57918 2.52946 0.000983452 0.000371456 -4.81606e-05 0.000909328 -0.000887394 2.38419e-05 0.00039506 3.06934 0.533551 -2.6543 -1.44597 -0.532239 -0.00610016 0.150979 3.07496 0.547002 -2.66775 -1.42803 -0.523089 -0.00915025 0.141829 69 4222.55 0.544 1.46972e+09 0.539811 1 0 19.1162 -15.6963 6.94877 -8.41243 0.787569 -0.488148 -0.00352988 19.1162 -15.6963 6.94877 -8.41243 0.787569 -0.488148 -0.00352988 19.1162 -15.6963 6.94877 -8.41243 0.787569 -0.488148 -0.00352988 19.1162 -15.6963 6.94877 -8.41243 0.787569 -0.488148 -0.00352988 0 0 0 0 0 0 0 0 0 0 0 0 0 0 3.15566 0.542518 -2.73277 -1.48184 -0.509364 -0.0457512 0.192155 3.15566 0.542518 -2.73277 -1.48184 -0.509364 -0.0457512 0.192155 3.15566 0.542518 -2.73277 -1.48184 -0.509364 -0.0457512 0.192155 3.15566 0.542518 -2.73277 -1.48184 -0.509364 -0.0457512 0.192155 0 0 0 0 0 0 0 0 0 0 0 0 0 0 67 0.181081 0.384154 19.1162 -15.6963 6.94877 -8.41243 0.787569 -0.488148 -0.00352988 3.15566 0.542518 -2.73277 -1.48184 -0.509364 -0.0457512 0.192155 
19.1186 -15.4082 6.45562 -9.29698 0.30941 -0.431029 -0.146828 2.37179 -1.82904 0.0616106 -1.5087 0.044165 -0.354074 -0.122468 0.686898 0.564738 -0.258078 0.293761 -2.20819 -2.219 0.00627813 0.000415858 3.37751e-05 0.000299153 -0.000286888 -3.99296e-05 -0.00010754 -5.68872e-05 3.20449 2.53489 -1.23204 1.52484 -1.85165 -1.57916 2.52986 0.000943604 0.000431776 -3.52859e-05 0.00083828 -0.000911236 2.38419e-05 0.00039506 3.11029 0.555969 -2.68121 -1.47511 -0.449887 -0.0472763 0.134204 3.08719 0.551485 -2.65655 -1.47287 -0.451412 -0.0442262 0.138779 70 4222.56 0.552 1.46972e+09 0.549101 1 0 19.9371 -15.4259 5.75684 -11.2423 0.408949 -0.966808 0.25374 19.9371 -15.4259 5.75684 -11.2423 0.408949 -0.966808 0.25374 19.9371 -15.4259 5.75684 -11.2423 0.408949 -0.966808 0.25374 19.9371 -15.4259 5.75684 -11.2423 0.408949 -0.966808 0.25374 0 0 0 0 0 0 0 0 0 0 0 0 0 0 3.22252 0.598563 -2.81123 -1.45718 -0.446837 -0.0411761 0.189105 3.22252 0.598563 -2.81123 -1.45718 -0.446837 -0.0411761 0.189105 3.22252 0.598563 -2.81123 -1.45718 -0.446837 -0.0411761 0.189105 3.22252 0.598563 -2.81123 -1.45718 -0.446837 -0.0411761 0.189105 0 0 0 0 0 0 0 0 0 0 0 0 0 0 68 0.183784 0.382718 19.9371 -15.4259 5.75684 -11.2423 0.408949 -0.966808 0.25374 3.22252 0.598563 -2.81123 -1.45718 -0.446837 -0.0411761 0.189105 
21.2797 -16.2177 6.80964 -11.9768 0.0113238 -1.59329 -0.314889 2.82167 -0.809472 0.354019 -2.67979 -0.298086 -1.16226 -0.168061 0.686658 0.564767 -0.257801 0.293389 -2.20823 -2.21895 0.00623457 0.000464988 2.84276e-05 0.000277173 -0.000372265 -3.608e-05 5.66608e-05 -4.35545e-05 3.20522 2.53529 -1.23199 1.52576 -1.85261 -1.57912 2.53029 0.00100424 0.000395775 4.76837e-05 0.000921726 -0.00095892 3.62396e-05 0.000431061 3.09096 0.636674 -2.64309 -1.47063 -0.465138 -0.0503264 0.140304 3.10108 0.625465 -2.64758 -1.48856 -0.466663 -0.0533764 0.140304 71 4222.57 0.56 1.46972e+09 0.557384 1 0 19.1783 -13.7818 3.53658 -12.8594 0.137904 -1.4417 0.224087 19.1783 -13.7818 3.53658 -12.8594 0.137904 -1.4417 0.224087 19.1783 -13.7818 3.53658 -12.8594 0.137904 -1.4417 0.224087 19.1783 -13.7818 3.53658 -12.8594 0.137904 -1.4417 0.224087 0 0 0 0 0 0 0 0 0 0 0 0 0 0 3.22703 0.600805 -2.79105 -1.50425 -0.466663 -0.0274507 0.147929 3.22703 0.600805 -2.79105 -1.50425 -0.466663 -0.0274507 0.147929 3.22703 0.600805 -2.79105 -1.50425 -0.466663 -0.0274507 0.147929 3.22703 0.600805 -2.79105 -1.50425 -0.466663 -0.0274507 0.147929 0 0 0 0 0 0 0 0 0 0 0 0 0 0 69 0.186486 0.381381 19.1783 -13.7818 3.53658 -12.8594 0.137904 -1.4417 0.224087 3.22703 0.600805 -2.79105 -1.50425 -0.466663 -0.0274507 0.147929 
22.0394 -18.0776 5.67066 -11.2595 0.249015 -1.59367 -0.25712 2.2959 -1.85996 -1.13898 0.717249 0.237691 -0.000379171 0.0577684 0.686407 0.564787 -0.257505 0.293022 -2.20815 -2.21902 0.00626477 0.0004718 2.00875e-05 0.000295701 -0.000367087 7.80062e-05 -6.84216e-05 3.01988e-05 3.20601 2.53571 -1.23198 1.52672 -1.85357 -1.57913 2.53064 0.00104547 0.000419617 1.19209e-05 0.000957489 -0.00095892 -1.19209e-05 0.000347137 3.18391 0.629949 -2.70811 -1.55133 -0.462087 -0.038126 0.152504 3.18608 0.638916 -2.6969 -1.57151 -0.471238 -0.0427012 0.160129 72 4222.58 0.568 1.46972e+09 0.564642 1 0 20.5612 -14.8889 4.89381 -13.3091 0.0114416 -1.33621 -0.180165 20.5612 -14.8889 4.89381 -13.3091 0.0114416 -1.33621 -0.180165 20.5612 -14.8889 4.89381 -13.3091 0.0114416 -1.33621 -0.180165 20.5612 -14.8889 4.89381 -13.3091 0.0114416 -1.33621 -0.180165 0 0 0 0 0 0 0 0 0 0 0 0 0 0 3.18196 0.724105 -2.64758 -1.60962 -0.472763 -0.0198255 0.118953 3.18196 0.724105 -2.64758 -1.60962 -0.472763 -0.0198255 0.118953 3.18196 0.724105 -2.64758 -1.60962 -0.472763 -0.0198255 0.118953 3.18196 0.724105 -2.64758 -1.60962 -0.472763 -0.0198255 0.118953 0 0 0 0 0 0 0 0 0 0 0 0 0 0 70 0.189189 0.380013 20.5612 -14.8889 4.89381 -13.3091 0.0114416 -1.33621 -0.180165 3.18196 0.724105 -2.64758 -1.60962 -0.472763 -0.0198255 0.118953 
24.6597 -19.5719 6.04394 -13.73 -0.0323864 -1.86354 -0.134975 2.91127 -1.49426 0.37328 -2.4705 -0.281402 -0.269868 0.122146 0.686183 0.564794 -0.257252 0.292705 -2.20827 -2.21891 0.00625194 0.000405799 7.04949e-06 0.000253427 -0.000316857 -0.000120717 0.000103311 -1.28318e-05 3.2067 2.53606 -1.23199 1.52759 -1.85443 -1.57912 2.53108 0.000929994 0.000347376 -1.19209e-05 0.000862598 -0.000863075 1.19209e-05 0.000442743 3.10363 0.719621 -2.60723 -1.52219 -0.396511 -0.036601 0.167755 3.09235 0.712896 -2.59826 -1.51771 -0.402611 -0.036601 0.158604 73 4222.58 0.576 1.46972e+09 0.572991 1 0 28.8895 -24.2826 6.86261 -14.0664 -0.2151 -2.08063 -0.467535 28.8895 -24.2826 6.86261 -14.0664 -0.2151 -2.08063 -0.467535 28.8895 -24.2826 6.86261 -14.0664 -0.2151 -2.08063 -0.467535 28.8895 -24.2826 6.86261 -14.0664 -0.2151 -2.08063 -0.467535 0 0 0 0 0 0 0 0 0 0 0 0 0 0 3.14075 0.78015 -2.67672 -1.44597 -0.379735 -0.00762521 0.155554 3.14075 0.78015 -2.67672 -1.44597 -0.379735 -0.00762521 0.155554 3.14075 0.78015 -2.67672 -1.44597 -0.379735 -0.00762521 0.155554 3.14075 0.78015 -2.67672 -1.44597 -0.379735 -0.00762521 0.155554 0 0 0 0 0 0 0 0 0 0 0 0 0 0 71 0.191892 0.378759 28.8895 -24.2826 6.86261 -14.0664 -0.2151 -2.08063 -0.467535 3.14075 0.78015 -2.67672 -1.44597 -0.379735 -0.00762521 0.155554 
27.6661 -23.4442 5.72894 -13.5262 -0.378112 -2.68947 0.0152277 3.89045 -3.87232 -0.315001 0.203776 -0.345725 -0.825927 0.150202 0.685962 0.564849 -0.256972 0.292327 -2.20824 -2.21897 0.00627588 0.00047375 5.56748e-05 0.000279908 -0.000378142 3.39435e-05 -5.85194e-05 2.39417e-05 3.20741 2.53649 -1.23188 1.52845 -1.85542 -1.57913 2.53146 0.000969781 0.000431776 0.000107765 0.000861645 -0.000983238 -1.19209e-05 0.000383615 3.36732 0.632191 -2.90539 -1.58048 -0.38431 -0.0305008 0.164704 3.37293 0.623223 -2.92108 -1.56703 -0.382785 -0.0274507 0.183005 74 4222.59 0.584 1.46972e+09 0.58071 1 0 23.4303 -19.1217 2.54077 -13.2997 -0.426751 -2.27959 -0.105046 23.4303 -19.1217 2.54077 -13.2997 -0.426751 -2.27959 -0.105046 23.4303 -19.1217 2.54077 -13.2997 -0.426751 -2.27959 -0.105046 23.4303 -19.1217 2.54077 -13.2997 -0.426751 -2.27959 -0.105046 0 0 0 0 0 0 0 0 0 0 0 0 0 0 3.23382 0.816019 -2.75967 -1.47511 -0.391936 -0.0137254 0.150979 3.23382 0.816019 -2.75967 -1.47511 -0.391936 -0.0137254 0.150979 3.23382 0.816019 -2.75967 -1.47511 -0.391936 -0.0137254 0.150979 3.23382 0.816019 -2.75967 -1.47511 -0.391936 -0.0137254 0.150979 0 0 0 0 0 0 0 0 0 0 0 0 0 0 72 0.194595 0.377399 23.4303 -19.1217 2.54077 -13.2997 -0.426751 -2.27959 -0.105046 3.23382 0.816019 -2.75967 -1.47511 -0.391936 -0.0137254 0.150979 
27.5154 -18.208 6.19458 -19.6772 -0.858499 -2.85727 -0.041016 8.09129 5.23618 0.465642 -6.15098 -0.480387 -0.167805 -0.0562437 0.685727 0.564876 -0.256659 0.291998 -2.20832 -2.21896 0.00621438 0.000454699 2.70949e-05 0.000313334 -0.000328389 -8.54248e-05 6.75067e-06 -6.15035e-05 3.20821 2.53693 -1.23191 1.52937 -1.85638 -1.5791 2.53194 0.00102377 0.000443935 -2.38419e-05 0.000922203 -0.00095892 3.57628e-05 0.000478983 3.30118 0.650125 -2.91211 -1.41234 -0.379735 -0.00915025 0.210456 3.29562 0.661334 -2.90763 -1.40337 -0.379735 -0.0198255 0.201305 75 4222.6 0.592 1.46972e+09 0.589059 1 0 23.2731 -18.2448 1.39126 -14.3815 -0.272986 -2.2241 -0.158827 23.2731 -18.2448 1.39126 -14.3815 -0.272986 -2.2241 -0.158827 23.2731 -18.2448 1.39126 -14.3815 -0.272986 -2.2241 -0.158827 23.2731 -18.2448 1.39126 -14.3815 -0.272986 -2.2241 -0.158827 0 0 0 0 0 0 0 0 0 0 0 0 0 0 3.23692 0.717379 -2.80226 -1.45269 -0.367535 -0.0289758 0.138779 3.23692 0.717379 -2.80226 -1.45269 -0.367535 -0.0289758 0.138779 3.23692 0.717379 -2.80226 -1.45269 -0.367535 -0.0289758 0.138779 3.23692 0.717379 -2.80226 -1.45269 -0.367535 -0.0289758 0.138779 0 0 0 0 0 0 0 0 0 0 0 0 0 0 73 0.197297 0.376023 23.2731 -18.2448 1.39126 -14.3815 -0.272986 -2.2241 -0.158827 3.23692 0.717379 -2.80226 -1.45269 -0.367535 -0.0289758 0.138779 
