skorbiz/ur5-force-experiment-data-visualization/crash.txt
force force0 force1 force2 force3 force4 force5 dforce dforce0 dforce1 dforce2 dforce3 dforce4 dforce5 TcpPose TcpPose0 TcpPose1 TcpPose2 TcpPose3 TcpPose4 TcpPose5 dTcpPose dTcpPose0 dTcpPose1 dTcpPose2 dTcpPose3 dTcpPose4 dTcpPose5 q q0 q1 q2 q3 q4 q5 dq dq0 dq1 dq2 dq3 dq4 dq5 iActual iActual0 iActual1 iActual2 iActual3 iActual4 iActual5 iControl iControl0 iControl1 iControl2 iControl3 iControl4 iControl5 sampleN time timeRelative timePc timePcRelative safetyMode errorState meanForce meanForce0 meanForce1 meanForce2 meanForce3 meanForce4 meanForce5 medianForce medianForce0 medianForce1 medianForce2 medianForce3 medianForce4 medianForce5 maxForce maxForce0 maxForce1 maxForce2 maxForce3 maxForce4 maxForce5 minForce minForce0 minForce1 minForce2 minForce3 minForce4 minForce5 stdDForce stdDForce0 stdDForce1 stdDForce2 stdDForce3 stdDForce4 stdDForce5 varForce varForce0 varForce1 varForce2 varForce3 varForce4 varForce5 meanCurrent meanCurrent0 meanCurrent1 meanCurrent2 meanCurrent3 meanCurrent4 meanCurrent5 medianCurrent medianCurrent0 medianCurrent1 medianCurrent2 medianCurrent3 medianCurrent4 medianCurrent5 maxCurrent maxCurrent0 maxCurrent1 maxCurrent2 maxCurrent3 maxCurrent4 maxCurrent5 minCurrent minCurrent0 minCurrent1 minCurrent2 minCurrent3 minCurrent4 minCurrent5 stdDCurrent stdDCurrent0 stdDCurrent1 stdDCurrent2 stdDCurrent3 stdDCurrent4 stdDCurrent5 varCurrent varCurrent0 varCurrent1 varCurrent2 varCurrent3 varCurrent4 varCurrent5 corrIndexSet0 corrIndexPercentageSet0 corrIndexQEndDistSet0 datasetForce0Sample datasetForce0Sample0 datasetForce0Sample1 datasetForce0Sample2 datasetForce0Sample3 datasetForce0Sample4 datasetForce0Sample5 datasetCurrent0Sample datasetCurrent0Sample0 datasetCurrent0Sample1 datasetCurrent0Sample2 datasetCurrent0Sample3 datasetCurrent0Sample4 datasetCurrent0Sample5 
28.0775 -22.6625 3.3893 -16.2255 0.599369 -3.9217 -0.342161 28.0775 -22.6625 3.3893 -16.2255 0.599369 -3.9217 -0.342161 0.701159 0.562334 -0.275882 0.315107 -2.20779 -2.22028 0.00479556 0.701159 0.562334 -0.275882 0.315107 -2.20779 -2.22028 0.00479556 3.15809 2.50886 -1.23266 1.46958 -1.79657 -1.57869 2.50344 3.15809 2.50886 -1.23266 1.46958 -1.79657 -1.57869 2.50344 3.50162 0.374382 -2.7507 -2.1342 -0.19368 -0.19673 0.420911 3.49592 0.372141 -2.7507 -2.12524 -0.19673 -0.192155 0.466663 1 4240.09 0 1.46972e+09 0 1 0 28.6012 -22.5714 3.92155 -17.1224 0.409415 -4.29239 -1.50109 28.6012 -22.5714 3.92155 -17.1224 0.409415 -4.29239 -1.50109 28.6012 -22.5714 3.92155 -17.1224 0.409415 -4.29239 -1.50109 28.6012 -22.5714 3.92155 -17.1224 0.409415 -4.29239 -1.50109 0 0 0 0 0 0 0 0 0 0 0 0 0 0 3.51685 0.425944 -2.78657 -2.10282 -0.18148 -0.183005 0.437687 3.51685 0.425944 -2.78657 -2.10282 -0.18148 -0.183005 0.437687 3.51685 0.425944 -2.78657 -2.10282 -0.18148 -0.183005 0.437687 3.51685 0.425944 -2.78657 -2.10282 -0.18148 -0.183005 0.437687 0 0 0 0 0 0 0 0 0 0 0 0 0 0 1 0.0027027 0.466073 28.6012 -22.5714 3.92155 -17.1224 0.409415 -4.29239 -1.50109 3.51685 0.425944 -2.78657 -2.10282 -0.18148 -0.183005 0.437687 
33.2812 -28.5461 -1.86524 -17.0082 0.90504 -4.64009 4.12075 7.92715 -5.88361 -5.25454 -0.782651 0.305671 -0.718389 4.46292 0.701181 0.562325 -0.275882 0.315173 -2.20803 -2.22018 0.00473464 6.66252e-05 -9.31878e-06 1.61611e-07 6.597e-05 -0.000245825 9.88034e-05 -6.09149e-05 3.15808 2.50885 -1.23273 1.46953 -1.79656 -1.57867 2.50358 8.71791e-05 -1.19209e-05 -7.20024e-05 -4.76837e-05 1.19209e-05 2.38419e-05 0.000143766 3.50806 0.360931 -2.76415 -2.12972 -0.198255 -0.198255 -0.208931 3.49865 0.372141 -2.7507 -2.12972 -0.19978 -0.192155 -0.215031 2 4240.1 0.008 1.46972e+09 0.00634146 1 0 32.3019 -27.3073 -3.94483 -16.7976 0.912604 -4.53888 4.28653 32.3019 -27.3073 -3.94483 -16.7976 0.912604 -4.53888 4.28653 32.3019 -27.3073 -3.94483 -16.7976 0.912604 -4.53888 4.28653 32.3019 -27.3073 -3.94483 -16.7976 0.912604 -4.53888 4.28653 0 0 0 0 0 0 0 0 0 0 0 0 0 0 3.52033 0.44612 -2.7776 -2.11627 -0.17233 -0.20283 -0.205881 3.52033 0.44612 -2.7776 -2.11627 -0.17233 -0.20283 -0.205881 3.52033 0.44612 -2.7776 -2.11627 -0.17233 -0.20283 -0.205881 3.52033 0.44612 -2.7776 -2.11627 -0.17233 -0.20283 -0.205881 0 0 0 0 0 0 0 0 0 0 0 0 0 0 2 0.00540541 0.466003 32.3019 -27.3073 -3.94483 -16.7976 0.912604 -4.53888 4.28653 3.52033 0.44612 -2.7776 -2.11627 -0.17233 -0.20283 -0.205881 
28.2454 -21.843 6.18752 -16.8047 0.254839 -3.97594 -2.08467 10.4795 6.70313 8.05276 0.203439 -0.650202 0.66415 -6.20543 0.70118 0.562359 -0.27587 0.315122 -2.20789 -2.22024 0.00474862 6.25635e-05 3.39797e-05 1.17411e-05 -5.12027e-05 0.000148231 -6.36018e-05 1.39809e-05 3.15808 2.5089 -1.23264 1.46952 -1.79658 -1.57867 2.50353 0.000107818 4.79221e-05 9.58443e-05 -1.19209e-05 -2.38419e-05 0 -4.79221e-05 3.52849 0.367657 -2.77536 -2.14765 -0.18758 -0.195205 0.208931 3.51573 0.374382 -2.76864 -2.1342 -0.195205 -0.19063 0.117428 3 4240.1 0.016 1.46972e+09 0.0134466 1 0 32.3019 -27.3073 -3.94483 -16.7976 0.912604 -4.53888 4.28653 32.3019 -27.3073 -3.94483 -16.7976 0.912604 -4.53888 4.28653 32.3019 -27.3073 -3.94483 -16.7976 0.912604 -4.53888 4.28653 32.3019 -27.3073 -3.94483 -16.7976 0.912604 -4.53888 4.28653 0 0 0 0 0 0 0 0 0 0 0 0 0 0 3.52033 0.44612 -2.7776 -2.11627 -0.17233 -0.20283 -0.205881 3.52033 0.44612 -2.7776 -2.11627 -0.17233 -0.20283 -0.205881 3.52033 0.44612 -2.7776 -2.11627 -0.17233 -0.20283 -0.205881 3.52033 0.44612 -2.7776 -2.11627 -0.17233 -0.20283 -0.205881 0 0 0 0 0 0 0 0 0 0 0 0 0 0 2 0.00540541 0.466003 32.3019 -27.3073 -3.94483 -16.7976 0.912604 -4.53888 4.28653 3.52033 0.44612 -2.7776 -2.11627 -0.17233 -0.20283 -0.205881 
31.6971 -26.3331 0.915852 -17.6192 0.582269 -4.52037 2.03242 6.97243 -4.4901 -5.27167 -0.814446 0.32743 -0.544439 4.11709 0.70116 0.562349 -0.275874 0.315091 -2.2078 -2.22023 0.00480168 3.29528e-05 -9.81327e-06 -4.36231e-06 -3.11538e-05 8.77191e-05 7.72207e-06 5.30544e-05 3.15809 2.50889 -1.23262 1.46957 -1.79657 -1.57869 2.50348 5.05762e-05 -1.19209e-05 1.19209e-05 4.76837e-05 1.19209e-05 -2.38419e-05 -4.79221e-05 3.51264 0.367657 -2.75519 -2.14765 -0.19063 -0.192155 0.132679 3.50436 0.374382 -2.7507 -2.13869 -0.195205 -0.19063 0.228756 4 4240.11 0.024 1.46972e+09 0.0223324 1 0 32.3019 -27.3073 -3.94483 -16.7976 0.912604 -4.53888 4.28653 32.3019 -27.3073 -3.94483 -16.7976 0.912604 -4.53888 4.28653 32.3019 -27.3073 -3.94483 -16.7976 0.912604 -4.53888 4.28653 32.3019 -27.3073 -3.94483 -16.7976 0.912604 -4.53888 4.28653 0 0 0 0 0 0 0 0 0 0 0 0 0 0 3.52033 0.44612 -2.7776 -2.11627 -0.17233 -0.20283 -0.205881 3.52033 0.44612 -2.7776 -2.11627 -0.17233 -0.20283 -0.205881 3.52033 0.44612 -2.7776 -2.11627 -0.17233 -0.20283 -0.205881 3.52033 0.44612 -2.7776 -2.11627 -0.17233 -0.20283 -0.205881 0 0 0 0 0 0 0 0 0 0 0 0 0 0 2 0.00540541 0.466003 32.3019 -27.3073 -3.94483 -16.7976 0.912604 -4.53888 4.28653 3.52033 0.44612 -2.7776 -2.11627 -0.17233 -0.20283 -0.205881 
25.7569 25.5916 0.951699 2.75338 0.512781 3.48946 -1.439 55.7783 51.9247 0.0358469 20.3725 -0.0694878 8.00983 -3.47141 0.70118 0.562355 -0.275866 0.315132 -2.20831 -2.21974 0.00503088 4.27908e-05 6.13951e-06 8.27187e-06 4.15324e-05 -0.000509953 0.000493571 0.000229203 3.15807 2.50892 -1.23264 1.46947 -1.79645 -1.57883 2.50397 0.000102548 3.57628e-05 -1.19209e-05 -9.53674e-05 0.000119686 -0.000143528 0.000490665 3.85054 1.04468 -2.28665 -2.9166 -0.0503264 -0.404136 -0.138779 3.88137 1.09625 -2.25975 -2.95919 -0.0183005 -0.318734 -0.17233 5 4240.12 0.032 1.46972e+09 0.0298717 1 0 28.4603 -22.2538 4.39374 -17.1887 0.268413 -4.26903 -2.05638 28.4603 -22.2538 4.39374 -17.1887 0.268413 -4.26903 -2.05638 28.4603 -22.2538 4.39374 -17.1887 0.268413 -4.26903 -2.05638 28.4603 -22.2538 4.39374 -17.1887 0.268413 -4.26903 -2.05638 0 0 0 0 0 0 0 0 0 0 0 0 0 0 3.49306 0.441637 -2.73501 -2.12748 -0.166229 -0.19673 -0.0716769 3.49306 0.441637 -2.73501 -2.12748 -0.166229 -0.19673 -0.0716769 3.49306 0.441637 -2.73501 -2.12748 -0.166229 -0.19673 -0.0716769 3.49306 0.441637 -2.73501 -2.12748 -0.166229 -0.19673 -0.0716769 0 0 0 0 0 0 0 0 0 0 0 0 0 0 3 0.00810811 0.465997 28.4603 -22.2538 4.39374 -17.1887 0.268413 -4.26903 -2.05638 3.49306 0.441637 -2.73501 -2.12748 -0.166229 -0.19673 -0.0716769 
141.736 -105.889 54.0248 -77.1869 -8.75746 -18.6707 -3.10134 162.771 -131.48 53.0731 -79.9403 -9.27024 -22.1601 -1.66234 0.701203 0.562444 -0.275801 0.315081 -2.20857 -2.21959 0.00556781 0.000120913 8.83128e-05 6.46806e-05 -5.13528e-05 -0.000264994 0.0001561 0.000536927 3.15815 2.50914 -1.23248 1.4694 -1.79656 -1.57918 2.50438 0.000275508 0.000215769 0.000155449 -7.20024e-05 -0.000107765 -0.000347137 0.000407457 3.20191 0.887757 -2.98161 -0.757732 -0.584091 -0.149454 0.195205 3.20666 0.889999 -3.00178 -0.692719 -0.437687 -0.158604 0.131154 6 4240.13 0.04 1.46972e+09 0.0373166 1 0 28.4603 -22.2538 4.39374 -17.1887 0.268413 -4.26903 -2.05638 28.4603 -22.2538 4.39374 -17.1887 0.268413 -4.26903 -2.05638 28.4603 -22.2538 4.39374 -17.1887 0.268413 -4.26903 -2.05638 28.4603 -22.2538 4.39374 -17.1887 0.268413 -4.26903 -2.05638 0 0 0 0 0 0 0 0 0 0 0 0 0 0 3.49306 0.441637 -2.73501 -2.12748 -0.166229 -0.19673 -0.0716769 3.49306 0.441637 -2.73501 -2.12748 -0.166229 -0.19673 -0.0716769 3.49306 0.441637 -2.73501 -2.12748 -0.166229 -0.19673 -0.0716769 3.49306 0.441637 -2.73501 -2.12748 -0.166229 -0.19673 -0.0716769 0 0 0 0 0 0 0 0 0 0 0 0 0 0 3 0.00810811 0.465997 28.4603 -22.2538 4.39374 -17.1887 0.268413 -4.26903 -2.05638 3.49306 0.441637 -2.73501 -2.12748 -0.166229 -0.19673 -0.0716769 
12.0426 -0.363155 -2.58277 -11.7568 0.935492 0.751163 0.239351 136.46 105.526 -56.6075 65.4302 9.69295 19.4218 3.34069 0.701139 0.562491 -0.27563 0.315003 -2.20916 -2.21982 0.00564722 0.000193776 4.74258e-05 0.000170986 -7.78708e-05 -0.000586756 -0.000232611 7.94109e-05 3.15865 2.50943 -1.23259 1.46989 -1.79751 -1.57931 2.50482 0.000579064 0.00028801 -0.000107765 0.000490665 -0.000946999 -0.000131607 0.000442743 3.16121 1.1366 -2.7776 -0.993122 -0.245532 -0.259257 0.207406 3.13433 1.14781 -2.75967 -0.943802 -0.161654 -0.266882 0.17843 7 4240.14 0.048 1.46972e+09 0.0464947 1 0 25.8314 -22.3423 -3.26573 -12.5467 1.38619 -3.51502 3.83185 25.8314 -22.3423 -3.26573 -12.5467 1.38619 -3.51502 3.83185 25.8314 -22.3423 -3.26573 -12.5467 1.38619 -3.51502 3.83185 25.8314 -22.3423 -3.26573 -12.5467 1.38619 -3.51502 3.83185 0 0 0 0 0 0 0 0 0 0 0 0 0 0 2.87861 1.01106 -2.49289 -1.02451 -0.253157 -0.17843 0.0991277 2.87861 1.01106 -2.49289 -1.02451 -0.253157 -0.17843 0.0991277 2.87861 1.01106 -2.49289 -1.02451 -0.253157 -0.17843 0.0991277 2.87861 1.01106 -2.49289 -1.02451 -0.253157 -0.17843 0.0991277 0 0 0 0 0 0 0 0 0 0 0 0 0 0 5 0.0135135 0.464805 25.8314 -22.3423 -3.26573 -12.5467 1.38619 -3.51502 3.83185 2.87861 1.01106 -2.49289 -1.02451 -0.253157 -0.17843 0.0991277 
25.264 -16.1928 -2.84589 -19.1824 -0.0953193 -4.62806 0.391702 17.4868 -15.8297 -0.26312 -7.42565 -1.03081 -5.37923 0.152351 0.700962 0.562518 -0.275372 0.314789 -2.20917 -2.21937 0.00567245 0.000336991 2.7183e-05 0.000258538 -0.000214434 -6.86637e-06 0.00044639 2.52365e-05 3.15921 2.50979 -1.23264 1.47044 -1.7977 -1.57928 2.50539 0.000659302 0.000360012 -4.76837e-05 0.00055027 -0.000191212 3.57628e-05 0.000562906 2.97332 0.995364 -2.6274 -0.972946 -0.382785 -0.0442262 0.112853 2.97028 1.01106 -2.62292 -0.959495 -0.35991 -0.0274507 0.118953 8 4240.14 0.056 1.46972e+09 0.0538275 1 0 27.6809 -21.8506 6.45283 -15.7208 -0.423078 -4.90961 -0.860384 27.6809 -21.8506 6.45283 -15.7208 -0.423078 -4.90961 -0.860384 27.6809 -21.8506 6.45283 -15.7208 -0.423078 -4.90961 -0.860384 27.6809 -21.8506 6.45283 -15.7208 -0.423078 -4.90961 -0.860384 0 0 0 0 0 0 0 0 0 0 0 0 0 0 2.97474 1.21058 -2.51307 -1.03347 -0.449887 -0.146404 0.141829 2.97474 1.21058 -2.51307 -1.03347 -0.449887 -0.146404 0.141829 2.97474 1.21058 -2.51307 -1.03347 -0.449887 -0.146404 0.141829 2.97474 1.21058 -2.51307 -1.03347 -0.449887 -0.146404 0.141829 0 0 0 0 0 0 0 0 0 0 0 0 0 0 6 0.0162162 0.464006 27.6809 -21.8506 6.45283 -15.7208 -0.423078 -4.90961 -0.860384 2.97474 1.21058 -2.51307 -1.03347 -0.449887 -0.146404 0.141829 
16.3706 -12.9602 -1.21254 -9.92763 -0.280268 -1.45029 -0.532699 9.93824 3.23263 1.63336 9.25478 -0.184948 3.17778 -0.924402 0.700738 0.562573 -0.275077 0.314449 -2.20889 -2.21943 0.0057741 0.000452547 5.41572e-05 0.00029467 -0.000339169 0.000280573 -5.58866e-05 0.00010165 3.15993 2.51023 -1.23261 1.47126 -1.79837 -1.57931 2.50567 0.000928068 0.000443459 2.38419e-05 0.000814915 -0.000671864 -3.57628e-05 0.000287056 2.98644 0.683752 -2.6274 -1.2442 -0.484963 -0.277557 0.112853 2.98582 0.697203 -2.6274 -1.23524 -0.440737 -0.320259 0.112853 9 4240.15 0.064 1.46972e+09 0.0616412 1 0 21.3637 -19.8094 -1.88527 -7.77443 1.63649 -2.30636 -0.384232 21.3637 -19.8094 -1.88527 -7.77443 1.63649 -2.30636 -0.384232 21.3637 -19.8094 -1.88527 -7.77443 1.63649 -2.30636 -0.384232 21.3637 -19.8094 -1.88527 -7.77443 1.63649 -2.30636 -0.384232 0 0 0 0 0 0 0 0 0 0 0 0 0 0 2.93544 0.905691 -2.48841 -1.26662 -0.423961 -0.146404 0.269932 2.93544 0.905691 -2.48841 -1.26662 -0.423961 -0.146404 0.269932 2.93544 0.905691 -2.48841 -1.26662 -0.423961 -0.146404 0.269932 2.93544 0.905691 -2.48841 -1.26662 -0.423961 -0.146404 0.269932 0 0 0 0 0 0 0 0 0 0 0 0 0 0 7 0.0189189 0.462842 21.3637 -19.8094 -1.88527 -7.77443 1.63649 -2.30636 -0.384232 2.93544 0.905691 -2.48841 -1.26662 -0.423961 -0.146404 0.269932 
19.4163 -14.8107 5.85771 -11.1052 1.65055 -2.25513 -0.554481 7.40264 -1.85044 7.07024 -1.17754 1.93082 -0.804838 -0.0217814 0.700536 0.562668 -0.27475 0.314115 -2.20869 -2.2194 0.00574545 0.00047816 9.58836e-05 0.000327619 -0.000334827 0.000200006 2.32578e-05 -2.8652e-05 3.16066 2.51075 -1.23254 1.472 -1.79903 -1.57926 2.50611 0.000905876 0.000515461 7.15256e-05 0.000741482 -0.000658989 4.76837e-05 0.000430822 2.95531 0.477506 -2.61171 -1.29801 -0.475813 0.0122003 0.100653 2.93713 0.475264 -2.59153 -1.29801 -0.449887 0.00915025 0.0960776 10 4240.16 0.072 1.46972e+09 0.0697551 1 0 26.9795 -24.3856 3.39457 -11.0322 0.894957 -3.09584 0.932949 26.9795 -24.3856 3.39457 -11.0322 0.894957 -3.09584 0.932949 26.9795 -24.3856 3.39457 -11.0322 0.894957 -3.09584 0.932949 26.9795 -24.3856 3.39457 -11.0322 0.894957 -3.09584 0.932949 0 0 0 0 0 0 0 0 0 0 0 0 0 0 2.91695 0.672543 -2.52876 -1.28904 -0.396511 -0.146404 0.164704 2.91695 0.672543 -2.52876 -1.28904 -0.396511 -0.146404 0.164704 2.91695 0.672543 -2.52876 -1.28904 -0.396511 -0.146404 0.164704 2.91695 0.672543 -2.52876 -1.28904 -0.396511 -0.146404 0.164704 0 0 0 0 0 0 0 0 0 0 0 0 0 0 8 0.0216216 0.461692 26.9795 -24.3856 3.39457 -11.0322 0.894957 -3.09584 0.932949 2.91695 0.672543 -2.52876 -1.28904 -0.396511 -0.146404 0.164704 
19.9053 -13.7423 9.6669 -10.6734 -0.908432 -0.594487 -0.640041 3.97966 1.06834 3.80919 0.431748 -2.55898 1.66064 -0.0855606 0.700322 0.562715 -0.274493 0.313778 -2.20861 -2.2193 0.00566983 0.000425791 4.61693e-05 0.000256676 -0.000336576 7.15722e-05 0.000108804 -7.56211e-05 3.16132 2.51112 -1.2325 1.4728 -1.79975 -1.57919 2.50649 0.00088569 0.000371933 3.62396e-05 0.000802994 -0.000719547 7.20024e-05 0.000383377 2.96677 0.448362 -2.58481 -1.38544 -0.396511 -0.272982 0.0823522 2.94625 0.450604 -2.56687 -1.37423 -0.398036 -0.260782 0.0777771 11 4240.17 0.08 1.46972e+09 0.0783024 1 0 23.249 -19.1266 7.30725 -11.0133 0.370289 -2.81918 -0.087648 23.249 -19.1266 7.30725 -11.0133 0.370289 -2.81918 -0.087648 23.249 -19.1266 7.30725 -11.0133 0.370289 -2.81918 -0.087648 23.249 -19.1266 7.30725 -11.0133 0.370289 -2.81918 -0.087648 0 0 0 0 0 0 0 0 0 0 0 0 0 0 3.00269 0.423702 -2.59602 -1.44821 -0.433112 -0.173855 0.103703 3.00269 0.423702 -2.59602 -1.44821 -0.433112 -0.173855 0.103703 3.00269 0.423702 -2.59602 -1.44821 -0.433112 -0.173855 0.103703 3.00269 0.423702 -2.59602 -1.44821 -0.433112 -0.173855 0.103703 0 0 0 0 0 0 0 0 0 0 0 0 0 0 9 0.0243243 0.460491 23.249 -19.1266 7.30725 -11.0133 0.370289 -2.81918 -0.087648 3.00269 0.423702 -2.59602 -1.44821 -0.433112 -0.173855 0.103703 
24.5955 -17.154 12.1523 -12.7671 0.656637 -3.3012 -0.856212 4.71171 -3.41165 2.48544 -2.09367 1.56507 -2.70671 -0.21617 0.700091 0.562775 -0.274238 0.313377 -2.20857 -2.21918 0.00574306 0.000478406 6.01708e-05 0.000254469 -0.000400621 4.7037e-05 0.000110867 7.32286e-05 3.162 2.51151 -1.2324 1.47367 -1.80061 -1.57922 2.50691 0.000964976 0.000395536 0.000107765 0.000873566 -0.000863075 -2.38419e-05 0.000418663 3.57244 0.466297 -3.217 -1.48184 -0.486488 -0.0808272 0.105228 3.55718 0.459571 -3.21027 -1.46166 -0.480388 -0.114378 0.102178 12 4240.18 0.088 1.46972e+09 0.0851395 1 0 26.5034 -18.5884 13.2274 -13.4884 0.204038 -2.78352 -0.670724 26.5034 -18.5884 13.2274 -13.4884 0.204038 -2.78352 -0.670724 26.5034 -18.5884 13.2274 -13.4884 0.204038 -2.78352 -0.670724 26.5034 -18.5884 13.2274 -13.4884 0.204038 -2.78352 -0.670724 0 0 0 0 0 0 0 0 0 0 0 0 0 0 3.53374 0.372141 -3.15423 -1.54909 -0.498688 -0.138779 0.0930275 3.53374 0.372141 -3.15423 -1.54909 -0.498688 -0.138779 0.0930275 3.53374 0.372141 -3.15423 -1.54909 -0.498688 -0.138779 0.0930275 3.53374 0.372141 -3.15423 -1.54909 -0.498688 -0.138779 0.0930275 0 0 0 0 0 0 0 0 0 0 0 0 0 0 10 0.027027 0.459179 26.5034 -18.5884 13.2274 -13.4884 0.204038 -2.78352 -0.670724 3.53374 0.372141 -3.15423 -1.54909 -0.498688 -0.138779 0.0930275 
17.7672 -2.90633 4.12921 -17.0346 0.168913 -0.631237 -0.602305 16.899 14.2476 -8.02313 -4.26748 -0.487724 2.66996 0.253907 0.69985 0.562836 -0.273956 0.312977 -2.20838 -2.21894 0.00584473 0.000493968 6.08634e-05 0.000282718 -0.000400463 0.000183842 0.000245654 0.000101672 3.16268 2.51195 -1.23229 1.4745 -1.80123 -1.57923 2.50736 0.00093804 0.000431538 0.000107765 0.000825882 -0.000622749 -1.23978e-05 0.000455141 3.54449 0.553727 -3.13181 -1.56478 -0.545965 -0.126578 0.141829 3.52959 0.547002 -3.11387 -1.56927 -0.549015 -0.0640517 0.143354 13 4240.18 0.096 1.46972e+09 0.093147 1 0 20.1755 -5.96609 8.19439 -17.4444 0.512875 -1.29518 -0.756502 20.1755 -5.96609 8.19439 -17.4444 0.512875 -1.29518 -0.756502 20.1755 -5.96609 8.19439 -17.4444 0.512875 -1.29518 -0.756502 20.1755 -5.96609 8.19439 -17.4444 0.512875 -1.29518 -0.756502 0 0 0 0 0 0 0 0 0 0 0 0 0 0 3.65108 0.497682 -3.18337 -1.71723 -0.54444 -0.123528 0.123528 3.65108 0.497682 -3.18337 -1.71723 -0.54444 -0.123528 0.123528 3.65108 0.497682 -3.18337 -1.71723 -0.54444 -0.123528 0.123528 3.65108 0.497682 -3.18337 -1.71723 -0.54444 -0.123528 0.123528 0 0 0 0 0 0 0 0 0 0 0 0 0 0 11 0.0297297 0.457922 20.1755 -5.96609 8.19439 -17.4444 0.512875 -1.29518 -0.756502 3.65108 0.497682 -3.18337 -1.71723 -0.54444 -0.123528 0.123528 
19.2456 -8.86206 4.45401 -16.493 0.927721 -0.898523 -0.257262 5.98912 -5.95573 0.324805 0.541566 0.758808 -0.267286 0.345043 0.699623 0.562849 -0.273704 0.312665 -2.20849 -2.21887 0.00575088 0.000400978 1.31973e-05 0.00025156 -0.000311973 -0.000106919 6.44861e-05 -9.3849e-05 3.1634 2.51228 -1.23235 1.47541 -1.80212 -1.57917 2.50777 0.000971702 0.000335932 -6.00815e-05 0.000909805 -0.000887394 6.00815e-05 0.000406981 3.5221 0.578387 -3.06231 -1.64101 -0.54749 -0.155554 0.157079 3.51446 0.578387 -3.0511 -1.64549 -0.532239 -0.231806 0.166229 14 4240.19 0.104 1.46972e+09 0.10121 1 0 24.9079 -12.2228 7.62324 -20.3197 0.551894 -1.5657 -0.452895 24.9079 -12.2228 7.62324 -20.3197 0.551894 -1.5657 -0.452895 24.9079 -12.2228 7.62324 -20.3197 0.551894 -1.5657 -0.452895 24.9079 -12.2228 7.62324 -20.3197 0.551894 -1.5657 -0.452895 0 0 0 0 0 0 0 0 0 0 0 0 0 0 3.52232 0.654609 -3.05559 -1.62531 -0.564265 -0.128103 0.0762521 3.52232 0.654609 -3.05559 -1.62531 -0.564265 -0.128103 0.0762521 3.52232 0.654609 -3.05559 -1.62531 -0.564265 -0.128103 0.0762521 3.52232 0.654609 -3.05559 -1.62531 -0.564265 -0.128103 0.0762521 0 0 0 0 0 0 0 0 0 0 0 0 0 0 12 0.0324324 0.456629 24.9079 -12.2228 7.62324 -20.3197 0.551894 -1.5657 -0.452895 3.52232 0.654609 -3.05559 -1.62531 -0.564265 -0.128103 0.0762521 
22.698 -13.2756 5.54972 -17.5544 1.09413 -1.54053 -0.101827 4.66977 -4.41358 1.09571 -1.06138 0.166412 -0.642008 0.155434 0.699409 0.562889 -0.273438 0.312348 -2.20858 -2.2189 0.00596735 0.00041548 3.97316e-05 0.000266047 -0.000316645 -9.02579e-05 -2.75236e-05 0.000216469 3.16413 2.51269 -1.23236 1.47627 -1.80303 -1.57931 2.5082 0.000953736 0.000407696 -1.19209e-05 0.000862122 -0.000910759 -0.000143528 0.000430822 3.44461 0.728588 -3.01972 -1.48856 -0.55969 0.0259257 0.123528 3.45004 0.721863 -3.0242 -1.49529 -0.54749 0.0899774 0.125053 15 4240.2 0.112 1.46972e+09 0.109535 1 0 21.5099 -12.7637 4.95534 -16.5895 1.13385 -1.17262 -0.919015 21.5099 -12.7637 4.95534 -16.5895 1.13385 -1.17262 -0.919015 21.5099 -12.7637 4.95534 -16.5895 1.13385 -1.17262 -0.919015 21.5099 -12.7637 4.95534 -16.5895 1.13385 -1.17262 -0.919015 0 0 0 0 0 0 0 0 0 0 0 0 0 0 3.44328 0.735314 -2.99058 -1.54012 -0.521564 -0.129628 0.111328 3.44328 0.735314 -2.99058 -1.54012 -0.521564 -0.129628 0.111328 3.44328 0.735314 -2.99058 -1.54012 -0.521564 -0.129628 0.111328 3.44328 0.735314 -2.99058 -1.54012 -0.521564 -0.129628 0.111328 0 0 0 0 0 0 0 0 0 0 0 0 0 0 13 0.0351351 0.455363 21.5099 -12.7637 4.95534 -16.5895 1.13385 -1.17262 -0.919015 3.44328 0.735314 -2.99058 -1.54012 -0.521564 -0.129628 0.111328 
16.2405 -9.37939 0.626896 -13.2434 0.389031 0.247571 -0.423809 7.61577 3.89625 -4.92283 4.31103 -0.705102 1.7881 -0.321981 0.699232 0.562923 -0.273179 0.312116 -2.20879 -2.21894 0.00561149 0.000349765 3.42859e-05 0.000259593 -0.000231886 -0.000210306 -3.54363e-05 -0.00035586 3.16481 2.51304 -1.23246 1.47706 -1.80393 -1.57911 2.50862 0.00086851 0.000347614 -9.58443e-05 0.000790119 -0.000899315 0.000203609 0.000419378 3.35263 0.616498 -2.95246 -1.4639 -0.523089 -0.295858 0.120478 3.35709 0.629949 -2.95246 -1.46839 -0.503264 -0.343134 0.109803 16 4240.21 0.12 1.46972e+09 0.117468 1 0 19.6597 -12.2095 2.26453 -15.2416 1.20115 -1.36391 -0.56316 19.6597 -12.2095 2.26453 -15.2416 1.20115 -1.36391 -0.56316 19.6597 -12.2095 2.26453 -15.2416 1.20115 -1.36391 -0.56316 19.6597 -12.2095 2.26453 -15.2416 1.20115 -1.36391 -0.56316 0 0 0 0 0 0 0 0 0 0 0 0 0 0 3.30199 0.737556 -2.85831 -1.47959 -0.500214 -0.123528 0.161654 3.30199 0.737556 -2.85831 -1.47959 -0.500214 -0.123528 0.161654 3.30199 0.737556 -2.85831 -1.47959 -0.500214 -0.123528 0.161654 3.30199 0.737556 -2.85831 -1.47959 -0.500214 -0.123528 0.161654 0 0 0 0 0 0 0 0 0 0 0 0 0 0 14 0.0378378 0.454007 19.6597 -12.2095 2.26453 -15.2416 1.20115 -1.36391 -0.56316 3.30199 0.737556 -2.85831 -1.47959 -0.500214 -0.123528 0.161654 
15.8459 -8.39061 2.6653 -13.1753 2.57685 -1.79259 -0.484714 2.26659 0.988781 2.03841 0.0681085 2.18782 -2.04016 -0.0609047 0.698993 0.562998 -0.272861 0.311724 -2.20862 -2.21902 0.00578891 0.000510468 7.48549e-05 0.000317997 -0.00039224 0.000174581 -8.03347e-05 0.000177414 3.16561 2.51354 -1.23238 1.47797 -1.80483 -1.5792 2.509 0.00104265 0.000503302 7.20024e-05 0.000910282 -0.000898838 -9.58443e-05 0.000382662 3.1075 0.531309 -2.77088 -1.30249 -0.533764 0.0442262 0.0945526 3.11623 0.540276 -2.78209 -1.29577 -0.530714 0.0823522 0.105228 17 4240.22 0.128 1.46972e+09 0.126196 1 0 19.3476 -13.8959 1.98957 -13.3144 1.1591 -1.49104 -0.0653494 19.3476 -13.8959 1.98957 -13.3144 1.1591 -1.49104 -0.0653494 19.3476 -13.8959 1.98957 -13.3144 1.1591 -1.49104 -0.0653494 19.3476 -13.8959 1.98957 -13.3144 1.1591 -1.49104 -0.0653494 0 0 0 0 0 0 0 0 0 0 0 0 0 0 3.16825 0.609772 -2.78881 -1.37423 -0.526139 -0.112853 0.163179 3.16825 0.609772 -2.78881 -1.37423 -0.526139 -0.112853 0.163179 3.16825 0.609772 -2.78881 -1.37423 -0.526139 -0.112853 0.163179 3.16825 0.609772 -2.78881 -1.37423 -0.526139 -0.112853 0.163179 0 0 0 0 0 0 0 0 0 0 0 0 0 0 15 0.0405405 0.452757 19.3476 -13.8959 1.98957 -13.3144 1.1591 -1.49104 -0.0653494 3.16825 0.609772 -2.78881 -1.37423 -0.526139 -0.112853 0.163179 
10.4829 -6.26582 3.67749 -7.5569 0.219498 0.807294 -0.70188 6.0914 2.12479 1.01218 5.61835 -2.35735 2.59988 -0.217167 0.698796 0.563041 -0.272585 0.311445 -2.20867 -2.21901 0.00569615 0.000393992 4.35527e-05 0.000275091 -0.000278671 -5.2449e-05 1.08382e-05 -9.27611e-05 3.1663 2.51394 -1.23242 1.47876 -1.80562 -1.57915 2.50942 0.000884211 0.000396252 -3.57628e-05 0.000789642 -0.000791073 5.96046e-05 0.00041914 3.18128 0.387833 -2.77984 -1.49753 -0.54139 -0.343134 0.120478 3.18346 0.38335 -2.78657 -1.4908 -0.529189 -0.35381 0.117428 18 4240.22 0.136 1.46972e+09 0.133281 1 0 14.1332 -9.93276 2.82751 -9.64849 1.35549 -0.612175 -0.0538216 14.1332 -9.93276 2.82751 -9.64849 1.35549 -0.612175 -0.0538216 14.1332 -9.93276 2.82751 -9.64849 1.35549 -0.612175 -0.0538216 14.1332 -9.93276 2.82751 -9.64849 1.35549 -0.612175 -0.0538216 0 0 0 0 0 0 0 0 0 0 0 0 0 0 3.15223 0.481989 -2.77088 -1.42355 -0.524614 -0.141829 0.143354 3.15223 0.481989 -2.77088 -1.42355 -0.524614 -0.141829 0.143354 3.15223 0.481989 -2.77088 -1.42355 -0.524614 -0.141829 0.143354 3.15223 0.481989 -2.77088 -1.42355 -0.524614 -0.141829 0.143354 0 0 0 0 0 0 0 0 0 0 0 0 0 0 16 0.0432432 0.45139 14.1332 -9.93276 2.82751 -9.64849 1.35549 -0.612175 -0.0538216 3.15223 0.481989 -2.77088 -1.42355 -0.524614 -0.141829 0.143354 
18.7654 -11.3247 9.16387 -11.8286 2.61358 -2.1044 -0.483943 8.59885 -5.05886 5.48639 -4.27173 2.39408 -2.91169 0.217937 0.698551 0.563071 -0.272329 0.311063 -2.20862 -2.21895 0.00577944 0.000461005 3.02314e-05 0.00025596 -0.000382225 4.66338e-05 5.94911e-05 8.32903e-05 3.16702 2.51431 -1.23238 1.4797 -1.80651 -1.57918 2.50979 0.00100591 0.000371456 3.57628e-05 0.000934124 -0.000886917 -3.57628e-05 0.000371456 3.17368 0.387833 -2.78433 -1.47287 -0.471238 0.073202 0.126578 3.16325 0.369899 -2.78433 -1.45494 -0.455987 0.0503264 0.115903 19 4240.23 0.144 1.46972e+09 0.141802 1 0 15.8494 -10.2821 5.93606 -10.4997 1.25746 -0.8869 -0.247214 15.8494 -10.2821 5.93606 -10.4997 1.25746 -0.8869 -0.247214 15.8494 -10.2821 5.93606 -10.4997 1.25746 -0.8869 -0.247214 15.8494 -10.2821 5.93606 -10.4997 1.25746 -0.8869 -0.247214 0 0 0 0 0 0 0 0 0 0 0 0 0 0 2.99872 0.369899 -2.67672 -1.30025 -0.469713 -0.123528 0.123528 2.99872 0.369899 -2.67672 -1.30025 -0.469713 -0.123528 0.123528 2.99872 0.369899 -2.67672 -1.30025 -0.469713 -0.123528 0.123528 2.99872 0.369899 -2.67672 -1.30025 -0.469713 -0.123528 0.123528 0 0 0 0 0 0 0 0 0 0 0 0 0 0 17 0.0459459 0.45006 15.8494 -10.2821 5.93606 -10.4997 1.25746 -0.8869 -0.247214 2.99872 0.369899 -2.67672 -1.30025 -0.469713 -0.123528 0.123528 
19.0552 -11.3929 8.74793 -12.521 -1.05261 -0.364486 -0.383953 0.810557 -0.0682722 -0.415938 -0.692342 -3.66619 1.73991 0.0999894 0.698329 0.563118 -0.272035 0.310738 -2.2086 -2.21891 0.0056482 0.000440845 4.64006e-05 0.000294066 -0.000325141 2.68966e-05 3.94165e-05 -0.000131236 3.16776 2.51473 -1.2324 1.48056 -1.80732 -1.57909 2.51021 0.000958359 0.000419378 -1.19209e-05 0.000861645 -0.000815392 9.58443e-05 0.000418901 3.0948 0.448362 -2.71932 -1.40786 -0.530714 -0.245532 0.131154 3.09261 0.448362 -2.72604 -1.38992 -0.536815 -0.18758 0.128103 20 4240.24 0.152 1.46972e+09 0.149739 1 0 13.3468 -7.63863 7.50632 -7.96517 0.798199 -0.806806 -0.428003 13.3468 -7.63863 7.50632 -7.96517 0.798199 -0.806806 -0.428003 13.3468 -7.63863 7.50632 -7.96517 0.798199 -0.806806 -0.428003 13.3468 -7.63863 7.50632 -7.96517 0.798199 -0.806806 -0.428003 0 0 0 0 0 0 0 0 0 0 0 0 0 0 2.99205 0.365415 -2.70362 -1.22851 -0.520039 -0.125053 0.115903 2.99205 0.365415 -2.70362 -1.22851 -0.520039 -0.125053 0.115903 2.99205 0.365415 -2.70362 -1.22851 -0.520039 -0.125053 0.115903 2.99205 0.365415 -2.70362 -1.22851 -0.520039 -0.125053 0.115903 0 0 0 0 0 0 0 0 0 0 0 0 0 0 18 0.0486486 0.448802 13.3468 -7.63863 7.50632 -7.96517 0.798199 -0.806806 -0.428003 2.99205 0.365415 -2.70362 -1.22851 -0.520039 -0.125053 0.115903 
15.9109 -10.7526 7.18746 -9.26695 2.1361 -1.42916 -0.367216 3.66521 0.640312 -1.56047 3.25402 3.18871 -1.06467 0.0167372 0.698085 0.563165 -0.271773 0.310335 -2.20853 -2.2188 0.00574381 0.000482955 4.66225e-05 0.000262596 -0.000402635 6.81999e-05 0.000104984 9.56109e-05 3.16847 2.51512 -1.23231 1.48147 -1.80819 -1.57912 2.51062 0.000996235 0.000396013 8.39233e-05 0.000910282 -0.000863075 -3.57628e-05 0.000406981 3.16167 0.466297 -2.78657 -1.41907 -0.516989 -0.109803 0.152504 3.11504 0.452846 -2.74846 -1.39441 -0.520039 -0.19063 0.154029 21 4240.25 0.16 1.46972e+09 0.160212 1 0 8.5708 -3.75593 5.83904 -5.02567 1.39893 0.137571 -0.511545 8.5708 -3.75593 5.83904 -5.02567 1.39893 0.137571 -0.511545 8.5708 -3.75593 5.83904 -5.02567 1.39893 0.137571 -0.511545 8.5708 -3.75593 5.83904 -5.02567 1.39893 0.137571 -0.511545 0 0 0 0 0 0 0 0 0 0 0 0 0 0 3.19505 0.403526 -2.81347 -1.45942 -0.558165 -0.111328 0.144879 3.19505 0.403526 -2.81347 -1.45942 -0.558165 -0.111328 0.144879 3.19505 0.403526 -2.81347 -1.45942 -0.558165 -0.111328 0.144879 3.19505 0.403526 -2.81347 -1.45942 -0.558165 -0.111328 0.144879 0 0 0 0 0 0 0 0 0 0 0 0 0 0 19 0.0513514 0.447473 8.5708 -3.75593 5.83904 -5.02567 1.39893 0.137571 -0.511545 3.19505 0.403526 -2.81347 -1.45942 -0.558165 -0.111328 0.144879 
15.2732 -9.78176 5.85608 -10.1634 1.06095 -0.754447 -0.14924 1.87584 0.970874 -1.33138 -0.896431 -1.07516 0.674712 0.217976 0.697833 0.563189 -0.271511 0.309953 -2.20844 -2.21863 0.00583601 0.000464293 2.43659e-05 0.000261548 -0.00038284 8.50222e-05 0.000173839 9.21988e-05 3.16917 2.51549 -1.23228 1.48238 -1.80894 -1.57915 2.51103 0.000983544 0.000371933 3.57628e-05 0.000909805 -0.000754833 -2.43187e-05 0.000406981 3.17176 0.542518 -2.79105 -1.40562 -0.602391 -0.0915025 0.195205 3.17207 0.526825 -2.80002 -1.39441 -0.597816 0.00305008 0.19368 22 4240.26 0.168 1.46972e+09 0.165913 1 0 16.2438 -9.93558 7.6097 -10.3555 1.06123 -0.402765 -0.223421 16.2438 -9.93558 7.6097 -10.3555 1.06123 -0.402765 -0.223421 16.2438 -9.93558 7.6097 -10.3555 1.06123 -0.402765 -0.223421 16.2438 -9.93558 7.6097 -10.3555 1.06123 -0.402765 -0.223421 0 0 0 0 0 0 0 0 0 0 0 0 0 0 3.20307 0.477506 -2.8471 -1.38768 -0.526139 -0.126578 0.132679 3.20307 0.477506 -2.8471 -1.38768 -0.526139 -0.126578 0.132679 3.20307 0.477506 -2.8471 -1.38768 -0.526139 -0.126578 0.132679 3.20307 0.477506 -2.8471 -1.38768 -0.526139 -0.126578 0.132679 0 0 0 0 0 0 0 0 0 0 0 0 0 0 20 0.0540541 0.446211 16.2438 -9.93558 7.6097 -10.3555 1.06123 -0.402765 -0.223421 3.20307 0.477506 -2.8471 -1.38768 -0.526139 -0.126578 0.132679 
13.4809 -10.2146 3.51462 -8.06496 1.72585 0.14506 0.279681 3.17383 -0.432878 -2.34146 2.09842 0.6649 0.899507 0.42892 0.69765 0.563258 -0.271243 0.30965 -2.2086 -2.21869 0.00565619 0.000409939 6.92411e-05 0.000268064 -0.00030232 -0.000155648 -6.06734e-05 -0.000179823 3.16986 2.5159 -1.23225 1.48318 -1.80994 -1.57905 2.51147 0.000900359 0.000407457 2.43187e-05 0.000802517 -0.000994682 9.58443e-05 0.00044322 3.25997 0.535793 -2.89866 -1.39216 -0.439212 -0.253157 0.192155 3.26139 0.533551 -2.89418 -1.40562 -0.448362 -0.350759 0.18758 23 4240.26 0.176 1.46972e+09 0.174167 1 0 12.9852 -7.43884 4.85762 -9.47012 1.26884 -0.466519 -0.344773 12.9852 -7.43884 4.85762 -9.47012 1.26884 -0.466519 -0.344773 12.9852 -7.43884 4.85762 -9.47012 1.26884 -0.466519 -0.344773 12.9852 -7.43884 4.85762 -9.47012 1.26884 -0.466519 -0.344773 0 0 0 0 0 0 0 0 0 0 0 0 0 0 3.34838 0.54476 -2.97488 -1.437 -0.494113 -0.0899774 0.128103 3.34838 0.54476 -2.97488 -1.437 -0.494113 -0.0899774 0.128103 3.34838 0.54476 -2.97488 -1.437 -0.494113 -0.0899774 0.128103 3.34838 0.54476 -2.97488 -1.437 -0.494113 -0.0899774 0.128103 0 0 0 0 0 0 0 0 0 0 0 0 0 0 21 0.0567568 0.444815 12.9852 -7.43884 4.85762 -9.47012 1.26884 -0.466519 -0.344773 3.34838 0.54476 -2.97488 -1.437 -0.494113 -0.0899774 0.128103 
14.7358 -7.85442 2.56527 -12.2013 1.95805 -2.21711 0.235352 4.85607 2.36023 -0.949348 -4.13636 0.2322 -2.36217 -0.0443289 0.69744 0.563296 -0.270972 0.309344 -2.20859 -2.21886 0.00578847 0.000410301 3.82948e-05 0.000270817 -0.000305841 7.24975e-06 -0.0001671 0.000132285 3.1706 2.51631 -1.23228 1.48404 -1.81087 -1.57915 2.51179 0.000953438 0.000407457 -2.43187e-05 0.000861645 -0.000935555 -9.58443e-05 0.000323057 3.28542 0.650125 -2.91884 -1.36078 -0.489538 0.0899774 0.150979 3.26468 0.641158 -2.89642 -1.36302 -0.474288 0.134204 0.146404 24 4240.27 0.184 1.46972e+09 0.182113 1 0 14.3059 -6.80495 3.22915 -12.1624 0.781684 -0.655042 -0.384525 14.3059 -6.80495 3.22915 -12.1624 0.781684 -0.655042 -0.384525 14.3059 -6.80495 3.22915 -12.1624 0.781684 -0.655042 -0.384525 14.3059 -6.80495 3.22915 -12.1624 0.781684 -0.655042 -0.384525 0 0 0 0 0 0 0 0 0 0 0 0 0 0 3.30628 0.638916 -2.93005 -1.39216 -0.474288 -0.106753 0.157079 3.30628 0.638916 -2.93005 -1.39216 -0.474288 -0.106753 0.157079 3.30628 0.638916 -2.93005 -1.39216 -0.474288 -0.106753 0.157079 3.30628 0.638916 -2.93005 -1.39216 -0.474288 -0.106753 0.157079 0 0 0 0 0 0 0 0 0 0 0 0 0 0 22 0.0594595 0.443538 14.3059 -6.80495 3.22915 -12.1624 0.781684 -0.655042 -0.384525 3.30628 0.638916 -2.93005 -1.39216 -0.474288 -0.106753 0.157079 
12.4293 -6.45026 -0.109792 -10.624 -0.174635 0.399239 -0.135544 3.40816 1.40415 -2.67506 1.57733 -2.13269 2.61635 -0.370895 0.697221 0.563324 -0.270707 0.309031 -2.20875 -2.21874 0.00558201 0.000411802 2.79368e-05 0.000265187 -0.000313809 -0.000160358 0.000118197 -0.000206464 3.17131 2.51667 -1.23231 1.48493 -1.81177 -1.57901 2.51227 0.000956895 0.000359774 -3.57628e-05 0.000885963 -0.000898838 0.000131607 0.000478745 3.22766 0.533551 -2.85831 -1.40113 -0.440737 -0.321784 0.0884524 3.23005 0.542518 -2.85158 -1.41682 -0.455987 -0.338559 0.0976026 25 4240.28 0.192 1.46972e+09 0.190169 1 0 14.1573 -7.96881 0.825334 -11.6725 1.02683 -0.96322 -0.101436 14.1573 -7.96881 0.825334 -11.6725 1.02683 -0.96322 -0.101436 14.1573 -7.96881 0.825334 -11.6725 1.02683 -0.96322 -0.101436 14.1573 -7.96881 0.825334 -11.6725 1.02683 -0.96322 -0.101436 0 0 0 0 0 0 0 0 0 0 0 0 0 0 3.28587 0.632191 -2.9009 -1.40786 -0.468188 -0.118953 0.204356 3.28587 0.632191 -2.9009 -1.40786 -0.468188 -0.118953 0.204356 3.28587 0.632191 -2.9009 -1.40786 -0.468188 -0.118953 0.204356 3.28587 0.632191 -2.9009 -1.40786 -0.468188 -0.118953 0.204356 0 0 0 0 0 0 0 0 0 0 0 0 0 0 23 0.0621622 0.442176 14.1573 -7.96881 0.825334 -11.6725 1.02683 -0.96322 -0.101436 3.28587 0.632191 -2.9009 -1.40786 -0.468188 -0.118953 0.204356 
15.226 -7.86116 4.37766 -12.2829 2.33139 -2.56243 -0.799793 4.98796 -1.4109 4.48746 -1.65888 2.50603 -2.96167 -0.66425 0.697037 0.563386 -0.270395 0.308778 -2.20884 -2.21911 0.00573923 0.000406694 6.19785e-05 0.000312566 -0.000252708 -8.65558e-05 -0.000367049 0.000157225 3.17212 2.51716 -1.23238 1.48577 -1.81284 -1.57916 2.51263 0.000974178 0.000491858 -7.20024e-05 0.000837803 -0.00106668 -0.000143528 0.000359058 3.21861 0.641158 -2.82692 -1.39889 -0.385835 0.0610016 0.0838773 3.21942 0.650125 -2.82468 -1.40113 -0.376685 0.00152504 0.074727 26 4240.29 0.2 1.46972e+09 0.197296 1 0 15.1866 -9.52054 0.866306 -11.8001 1.08328 -1.21407 0.364233 15.1866 -9.52054 0.866306 -11.8001 1.08328 -1.21407 0.364233 15.1866 -9.52054 0.866306 -11.8001 1.08328 -1.21407 0.364233 15.1866 -9.52054 0.866306 -11.8001 1.08328 -1.21407 0.364233 0 0 0 0 0 0 0 0 0 0 0 0 0 0 3.1947 0.665818 -2.8202 -1.34509 -0.379735 -0.102178 0.189105 3.1947 0.665818 -2.8202 -1.34509 -0.379735 -0.102178 0.189105 3.1947 0.665818 -2.8202 -1.34509 -0.379735 -0.102178 0.189105 3.1947 0.665818 -2.8202 -1.34509 -0.379735 -0.102178 0.189105 0 0 0 0 0 0 0 0 0 0 0 0 0 0 24 0.0648649 0.44087 15.1866 -9.52054 0.866306 -11.8001 1.08328 -1.21407 0.364233 3.1947 0.665818 -2.8202 -1.34509 -0.379735 -0.102178 0.189105 
16.8793 -10.1674 3.01937 -13.1307 -0.929019 -1.09946 -0.803571 2.80762 -2.30627 -1.35829 -0.847877 -3.26041 1.46297 -0.00377776 0.696809 0.563424 -0.270173 0.308388 -2.20889 -2.21893 0.00569309 0.000450395 3.78215e-05 0.000221949 -0.000390081 -5.10975e-05 0.000174961 -4.61448e-05 3.17275 2.51748 -1.23229 1.48664 -1.81372 -1.57911 2.51305 0.000936916 0.000323534 9.58443e-05 0.000874043 -0.000886917 4.81606e-05 0.000419378 3.16381 0.652367 -2.81571 -1.2868 -0.417861 -0.173855 0.0838773 3.15496 0.661334 -2.80675 -1.28007 -0.420911 -0.0869273 0.0899774 27 4240.3 0.208 1.46972e+09 0.205842 1 0 15.6084 -9.87185 0.488354 -12.0802 0.450359 -1.87564 0.217527 15.6084 -9.87185 0.488354 -12.0802 0.450359 -1.87564 0.217527 15.6084 -9.87185 0.488354 -12.0802 0.450359 -1.87564 0.217527 15.6084 -9.87185 0.488354 -12.0802 0.450359 -1.87564 0.217527 0 0 0 0 0 0 0 0 0 0 0 0 0 0 3.13969 0.670301 -2.78433 -1.2868 -0.390411 -0.0945526 0.161654 3.13969 0.670301 -2.78433 -1.2868 -0.390411 -0.0945526 0.161654 3.13969 0.670301 -2.78433 -1.2868 -0.390411 -0.0945526 0.161654 3.13969 0.670301 -2.78433 -1.2868 -0.390411 -0.0945526 0.161654 0 0 0 0 0 0 0 0 0 0 0 0 0 0 25 0.0675676 0.439454 15.6084 -9.87185 0.488354 -12.0802 0.450359 -1.87564 0.217527 3.13969 0.670301 -2.78433 -1.2868 -0.390411 -0.0945526 0.161654 
11.6352 -6.32269 0.934412 -9.72255 1.44446 -1.59494 -0.820897 5.54481 3.84474 -2.08496 3.4082 2.37347 -0.49548 -0.0173257 0.696593 0.563463 -0.269874 0.308089 -2.2089 -2.21907 0.00552413 0.000424032 3.93287e-05 0.000298466 -0.00029862 -1.52023e-05 -0.000134885 -0.000168955 3.17353 2.5179 -1.23235 1.48754 -1.81468 -1.57901 2.51341 0.000993018 0.000419855 -6.00815e-05 0.000897884 -0.00095892 9.53674e-05 0.00035882 3.08618 0.712896 -2.69017 -1.33388 -0.340084 -0.227231 0.0655768 3.08672 0.70617 -2.70138 -1.31594 -0.349234 -0.332459 0.0716769 28 4240.3 0.216 1.46972e+09 0.214051 1 0 13.1979 -8.30679 0.0997238 -10.2554 0.579353 -1.47544 -0.0519849 13.1979 -8.30679 0.0997238 -10.2554 0.579353 -1.47544 -0.0519849 13.1979 -8.30679 0.0997238 -10.2554 0.579353 -1.47544 -0.0519849 13.1979 -8.30679 0.0997238 -10.2554 0.579353 -1.47544 -0.0519849 0 0 0 0 0 0 0 0 0 0 0 0 0 0 3.01622 0.699445 -2.64758 -1.26438 -0.402611 -0.0915025 0.0869273 3.01622 0.699445 -2.64758 -1.26438 -0.402611 -0.0915025 0.0869273 3.01622 0.699445 -2.64758 -1.26438 -0.402611 -0.0915025 0.0869273 3.01622 0.699445 -2.64758 -1.26438 -0.402611 -0.0915025 0.0869273 0 0 0 0 0 0 0 0 0 0 0 0 0 0 26 0.0702703 0.438144 13.1979 -8.30679 0.0997238 -10.2554 0.579353 -1.47544 -0.0519849 3.01622 0.699445 -2.64758 -1.26438 -0.402611 -0.0915025 0.0869273 
17.5643 -12.7842 2.779 -11.7196 1.17521 -3.21879 -1.01467 7.01008 -6.46147 1.84459 -1.99704 -0.269249 -1.62384 -0.193773 0.696375 0.56351 -0.269599 0.30775 -2.20891 -2.21909 0.00564011 0.000439423 4.69017e-05 0.000275652 -0.000338982 -1.07555e-05 -2.5289e-05 0.000115979 3.17426 2.51832 -1.23232 1.4884 -1.81558 -1.57909 2.51382 0.000959439 0.000419378 2.38419e-05 0.000862598 -0.000899315 -7.15256e-05 0.000407219 3.09259 0.742039 -2.65879 -1.39441 -0.481913 0.0244007 0.074727 3.0935 0.746523 -2.66327 -1.38544 -0.478863 0.0960776 0.0610016 29 4240.31 0.224 1.46972e+09 0.222268 1 0 13.788 -10.9984 2.03542 -8.06234 0.569122 -1.42118 -0.788398 13.788 -10.9984 2.03542 -8.06234 0.569122 -1.42118 -0.788398 13.788 -10.9984 2.03542 -8.06234 0.569122 -1.42118 -0.788398 13.788 -10.9984 2.03542 -8.06234 0.569122 -1.42118 -0.788398 0 0 0 0 0 0 0 0 0 0 0 0 0 0 3.08156 0.746523 -2.68569 -1.3137 -0.439212 -0.0930275 0.0884524 3.08156 0.746523 -2.68569 -1.3137 -0.439212 -0.0930275 0.0884524 3.08156 0.746523 -2.68569 -1.3137 -0.439212 -0.0930275 0.0884524 3.08156 0.746523 -2.68569 -1.3137 -0.439212 -0.0930275 0.0884524 0 0 0 0 0 0 0 0 0 0 0 0 0 0 27 0.072973 0.436713 13.788 -10.9984 2.03542 -8.06234 0.569122 -1.42118 -0.788398 3.08156 0.746523 -2.68569 -1.3137 -0.439212 -0.0930275 0.0884524 
18.4187 -15.5907 3.50351 -9.16005 0.0376089 -0.6848 -0.899652 3.86686 -2.80651 0.724512 2.55953 -1.1376 2.53399 0.115018 0.696134 0.563536 -0.269322 0.307402 -2.2088 -2.21913 0.00558549 0.000445424 2.52871e-05 0.000276301 -0.000348454 0.000110262 -3.60591e-05 -5.46236e-05 3.175 2.51871 -1.23234 1.48932 -1.81645 -1.57904 2.51413 0.000998086 0.000383854 -1.14441e-05 0.000921249 -0.000863075 4.76837e-05 0.000311613 3.19506 0.694961 -2.71932 -1.52667 -0.38126 -0.329409 0.108278 3.19373 0.692719 -2.71707 -1.52891 -0.390411 -0.344659 0.115903 30 4240.32 0.232 1.46972e+09 0.229333 1 0 14.57 -11.6331 1.20972 -8.6886 0.823432 -1.23556 -0.774489 14.57 -11.6331 1.20972 -8.6886 0.823432 -1.23556 -0.774489 14.57 -11.6331 1.20972 -8.6886 0.823432 -1.23556 -0.774489 14.57 -11.6331 1.20972 -8.6886 0.823432 -1.23556 -0.774489 0 0 0 0 0 0 0 0 0 0 0 0 0 0 3.11321 0.768941 -2.69241 -1.36078 -0.436162 -0.0899774 0.0793021 3.11321 0.768941 -2.69241 -1.36078 -0.436162 -0.0899774 0.0793021 3.11321 0.768941 -2.69241 -1.36078 -0.436162 -0.0899774 0.0793021 3.11321 0.768941 -2.69241 -1.36078 -0.436162 -0.0899774 0.0793021 0 0 0 0 0 0 0 0 0 0 0 0 0 0 28 0.0756757 0.435448 14.57 -11.6331 1.20972 -8.6886 0.823432 -1.23556 -0.774489 3.11321 0.768941 -2.69241 -1.36078 -0.436162 -0.0899774 0.0793021 
25.1967 -19.1896 5.72624 -15.2919 1.76242 -4.27912 -0.602295 7.44931 -3.59893 2.22272 -6.13184 1.72481 -3.59432 0.297356 0.695909 0.563571 -0.269069 0.307048 -2.20896 -2.21901 0.00575816 0.000436575 3.57896e-05 0.000252817 -0.000354119 -0.000159815 0.000115457 0.000172673 3.17571 2.51909 -1.2323 1.49021 -1.81738 -1.57915 2.51463 0.000966643 0.000383854 3.57628e-05 0.00088644 -0.000934601 -0.000107765 0.000502586 3.2644 0.777908 -2.76864 -1.54461 -0.509364 0.106753 0.114378 3.23106 0.798085 -2.73725 -1.51995 -0.501739 0.0915025 0.126578 31 4240.33 0.24 1.46972e+09 0.237446 1 0 17.208 -14.0089 2.00299 -9.79041 0.646494 -1.52912 -0.864255 17.208 -14.0089 2.00299 -9.79041 0.646494 -1.52912 -0.864255 17.208 -14.0089 2.00299 -9.79041 0.646494 -1.52912 -0.864255 17.208 -14.0089 2.00299 -9.79041 0.646494 -1.52912 -0.864255 0 0 0 0 0 0 0 0 0 0 0 0 0 0 3.20408 0.75549 -2.7238 -1.50874 -0.500214 -0.074727 0.102178 3.20408 0.75549 -2.7238 -1.50874 -0.500214 -0.074727 0.102178 3.20408 0.75549 -2.7238 -1.50874 -0.500214 -0.074727 0.102178 3.20408 0.75549 -2.7238 -1.50874 -0.500214 -0.074727 0.102178 0 0 0 0 0 0 0 0 0 0 0 0 0 0 29 0.0783784 0.434083 17.208 -14.0089 2.00299 -9.79041 0.646494 -1.52912 -0.864255 3.20408 0.75549 -2.7238 -1.50874 -0.500214 -0.074727 0.102178 
23.493 -19.3041 3.69477 -12.8693 -0.65943 -0.60944 -0.491758 3.16368 -0.114524 -2.03147 2.42258 -2.42185 3.66968 0.110537 0.695667 0.563621 -0.268778 0.306662 -2.20881 -2.21895 0.00563513 0.000485622 4.98658e-05 0.000291504 -0.000385186 0.000156569 6.31861e-05 -0.000123032 3.17644 2.51951 -1.23224 1.49111 -1.8182 -1.57904 2.515 0.000992356 0.000419378 5.96046e-05 0.000897408 -0.000815392 0.000107765 0.000370979 3.12594 0.721863 -2.66103 -1.47287 -0.512414 -0.289758 0.154029 3.13462 0.715138 -2.67672 -1.46614 -0.520039 -0.276032 0.149454 32 4240.34 0.248 1.46972e+09 0.245313 1 0 22.3911 -18.4847 4.0325 -11.9757 0.602624 -1.47036 -0.637573 22.3911 -18.4847 4.0325 -11.9757 0.602624 -1.47036 -0.637573 22.3911 -18.4847 4.0325 -11.9757 0.602624 -1.47036 -0.637573 22.3911 -18.4847 4.0325 -11.9757 0.602624 -1.47036 -0.637573 0 0 0 0 0 0 0 0 0 0 0 0 0 0 3.27554 0.798085 -2.81123 -1.47959 -0.498688 -0.0854023 0.0671018 3.27554 0.798085 -2.81123 -1.47959 -0.498688 -0.0854023 0.0671018 3.27554 0.798085 -2.81123 -1.47959 -0.498688 -0.0854023 0.0671018 3.27554 0.798085 -2.81123 -1.47959 -0.498688 -0.0854023 0.0671018 0 0 0 0 0 0 0 0 0 0 0 0 0 0 30 0.0810811 0.432794 22.3911 -18.4847 4.0325 -11.9757 0.602624 -1.47036 -0.637573 3.27554 0.798085 -2.81123 -1.47959 -0.498688 -0.0854023 0.0671018 
22.4725 -19.4873 4.4223 -10.2813 2.58642 -2.6608 -0.144281 2.6946 -0.183166 0.727533 2.58805 3.24585 -2.05136 0.347477 0.695462 0.563664 -0.268548 0.306321 -2.20884 -2.21897 0.0056519 0.000413895 4.2468e-05 0.000230212 -0.000341333 -3.50153e-05 -2.16019e-05 1.67719e-05 3.17708 2.51986 -1.23218 1.49193 -1.81912 -1.57905 2.51535 0.000898068 0.000347614 6.00815e-05 0.000825882 -0.000923157 -1.19209e-05 0.000347614 3.32622 0.663576 -2.91211 -1.4639 -0.510889 -0.0838773 0.100653 3.33763 0.685994 -2.92332 -1.45718 -0.500214 -0.164704 0.103703 33 4240.34 0.256 1.46972e+09 0.253923 1 0 19.7401 -15.5071 2.26133 -12.0037 0.823349 -1.28888 -0.992353 19.7401 -15.5071 2.26133 -12.0037 0.823349 -1.28888 -0.992353 19.7401 -15.5071 2.26133 -12.0037 0.823349 -1.28888 -0.992353 19.7401 -15.5071 2.26133 -12.0037 0.823349 -1.28888 -0.992353 0 0 0 0 0 0 0 0 0 0 0 0 0 0 3.36737 0.701687 -2.94126 -1.48184 -0.532239 -0.0686269 0.120478 3.36737 0.701687 -2.94126 -1.48184 -0.532239 -0.0686269 0.120478 3.36737 0.701687 -2.94126 -1.48184 -0.532239 -0.0686269 0.120478 3.36737 0.701687 -2.94126 -1.48184 -0.532239 -0.0686269 0.120478 0 0 0 0 0 0 0 0 0 0 0 0 0 0 31 0.0837838 0.4315 19.7401 -15.5071 2.26133 -12.0037 0.823349 -1.28888 -0.992353 3.36737 0.701687 -2.94126 -1.48184 -0.532239 -0.0686269 0.120478 
16.8511 -11.491 2.81699 -11.9992 0.987794 -0.949402 -0.647131 8.33476 7.99624 -1.60532 -1.7179 -1.59863 1.7114 -0.50285 0.695231 0.563691 -0.268234 0.306021 -2.20876 -2.21904 0.00568168 0.000434935 2.76358e-05 0.000313596 -0.000300104 8.07363e-05 -6.93584e-05 2.97752e-05 3.17787 2.5203 -1.23225 1.49282 -1.81992 -1.57906 2.51572 0.000993542 0.000443935 -7.15256e-05 0.000885963 -0.000802994 -1.19209e-05 0.000370741 3.39361 0.721863 -3.00851 -1.39441 -0.484963 0.0411761 0.106753 3.38419 0.728588 -2.9973 -1.39216 -0.488013 0.122003 0.102178 34 4240.35 0.264 1.46972e+09 0.262308 1 0 16.62 -10.8948 1.27929 -12.4857 0.943007 -0.580297 -0.453905 16.62 -10.8948 1.27929 -12.4857 0.943007 -0.580297 -0.453905 16.62 -10.8948 1.27929 -12.4857 0.943007 -0.580297 -0.453905 16.62 -10.8948 1.27929 -12.4857 0.943007 -0.580297 -0.453905 0 0 0 0 0 0 0 0 0 0 0 0 0 0 3.35692 0.739797 -2.9278 -1.46614 -0.443787 -0.0899774 0.144879 3.35692 0.739797 -2.9278 -1.46614 -0.443787 -0.0899774 0.144879 3.35692 0.739797 -2.9278 -1.46614 -0.443787 -0.0899774 0.144879 3.35692 0.739797 -2.9278 -1.46614 -0.443787 -0.0899774 0.144879 0 0 0 0 0 0 0 0 0 0 0 0 0 0 32 0.0864865 0.430201 16.62 -10.8948 1.27929 -12.4857 0.943007 -0.580297 -0.453905 3.35692 0.739797 -2.9278 -1.46614 -0.443787 -0.0899774 0.144879 
13.8686 -7.00273 -0.789305 -11.9448 0.109068 -0.0393044 -0.581832 5.75788 4.48831 -3.60629 0.0543906 -0.878726 0.910098 0.0652991 0.695007 0.563725 -0.267998 0.305658 -2.20879 -2.21892 0.00559375 0.000434919 3.31191e-05 0.000236413 -0.000363547 -2.46022e-05 0.00012013 -8.79281e-05 3.17852 2.52064 -1.23219 1.49368 -1.82078 -1.57899 2.51611 0.000926733 0.000335932 5.96046e-05 0.000861645 -0.000862598 7.15256e-05 0.00039506 3.36025 0.607531 -2.93229 -1.52443 -0.454462 -0.417861 0.114378 3.36977 0.612014 -2.94574 -1.51771 -0.460562 -0.455987 0.117428 35 4240.36 0.272 1.46972e+09 0.26965 1 0 18.5324 -11.9669 0.698623 -14.1335 0.566761 -1.62124 -0.214968 18.5324 -11.9669 0.698623 -14.1335 0.566761 -1.62124 -0.214968 18.5324 -11.9669 0.698623 -14.1335 0.566761 -1.62124 -0.214968 18.5324 -11.9669 0.698623 -14.1335 0.566761 -1.62124 -0.214968 0 0 0 0 0 0 0 0 0 0 0 0 0 0 3.20074 0.715138 -2.75743 -1.45942 -0.504789 -0.0869273 0.163179 3.20074 0.715138 -2.75743 -1.45942 -0.504789 -0.0869273 0.163179 3.20074 0.715138 -2.75743 -1.45942 -0.504789 -0.0869273 0.163179 3.20074 0.715138 -2.75743 -1.45942 -0.504789 -0.0869273 0.163179 0 0 0 0 0 0 0 0 0 0 0 0 0 0 33 0.0891892 0.428855 18.5324 -11.9669 0.698623 -14.1335 0.566761 -1.62124 -0.214968 3.20074 0.715138 -2.75743 -1.45942 -0.504789 -0.0869273 0.163179 
20.2467 -12.7214 4.4606 -15.1062 2.97841 -3.60839 -0.544465 8.38211 -5.7187 5.24991 -3.16144 2.86934 -3.56909 0.0373661 0.694788 0.563757 -0.267706 0.305355 -2.20883 -2.21903 0.00572558 0.000421237 3.24875e-05 0.00029176 -0.000302095 -4.55309e-05 -0.000113235 0.000131835 3.1793 2.52107 -1.23224 1.49457 -1.82172 -1.57909 2.51651 0.000986973 0.000431299 -4.81606e-05 0.00088644 -0.000935078 -9.53674e-05 0.00039506 3.23801 0.560453 -2.9009 -1.32491 -0.515464 0.123528 0.122003 3.24317 0.562694 -2.90314 -1.33164 -0.500214 0.108278 0.112853 36 4240.37 0.28 1.46972e+09 0.277986 1 0 19.5769 -15.8363 2.52927 -11.2281 0.89673 -1.21873 -0.0356163 19.5769 -15.8363 2.52927 -11.2281 0.89673 -1.21873 -0.0356163 19.5769 -15.8363 2.52927 -11.2281 0.89673 -1.21873 -0.0356163 19.5769 -15.8363 2.52927 -11.2281 0.89673 -1.21873 -0.0356163 0 0 0 0 0 0 0 0 0 0 0 0 0 0 3.14102 0.641158 -2.75294 -1.36975 -0.465138 -0.0716769 0.131154 3.14102 0.641158 -2.75294 -1.36975 -0.465138 -0.0716769 0.131154 3.14102 0.641158 -2.75294 -1.36975 -0.465138 -0.0716769 0.131154 3.14102 0.641158 -2.75294 -1.36975 -0.465138 -0.0716769 0.131154 0 0 0 0 0 0 0 0 0 0 0 0 0 0 34 0.0918919 0.427563 19.5769 -15.8363 2.52927 -11.2281 0.89673 -1.21873 -0.0356163 3.14102 0.641158 -2.75294 -1.36975 -0.465138 -0.0716769 0.131154 
10.0677 -4.65433 1.2453 -8.84 -0.356432 1.10339 -0.413212 10.7089 8.0671 -3.21531 6.2662 -3.33484 4.71179 0.131253 0.694578 0.563795 -0.267435 0.305045 -2.20887 -2.21906 0.00557117 0.000414224 3.80206e-05 0.000271099 -0.000310872 -3.93923e-05 -2.58783e-05 -0.000154416 3.18001 2.52145 -1.23225 1.49542 -1.82262 -1.57899 2.51689 0.000932809 0.000383615 -1.14441e-05 0.000850201 -0.000899315 9.53674e-05 0.000383139 3.1941 0.538035 -2.83813 -1.36302 -0.527664 -0.18758 0.135729 3.20114 0.531309 -2.85158 -1.35405 -0.539865 -0.0899774 0.141829 37 4240.38 0.288 1.46972e+09 0.286456 1 0 15.4797 -11.6057 2.76122 -9.86426 0.607906 -0.983367 -0.34757 15.4797 -11.6057 2.76122 -9.86426 0.607906 -0.983367 -0.34757 15.4797 -11.6057 2.76122 -9.86426 0.607906 -0.983367 -0.34757 15.4797 -11.6057 2.76122 -9.86426 0.607906 -0.983367 -0.34757 0 0 0 0 0 0 0 0 0 0 0 0 0 0 3.07649 0.591838 -2.68121 -1.38768 -0.506314 -0.0579516 0.114378 3.07649 0.591838 -2.68121 -1.38768 -0.506314 -0.0579516 0.114378 3.07649 0.591838 -2.68121 -1.38768 -0.506314 -0.0579516 0.114378 3.07649 0.591838 -2.68121 -1.38768 -0.506314 -0.0579516 0.114378 0 0 0 0 0 0 0 0 0 0 0 0 0 0 35 0.0945946 0.42623 15.4797 -11.6057 2.76122 -9.86426 0.607906 -0.983367 -0.34757 3.07649 0.591838 -2.68121 -1.38768 -0.506314 -0.0579516 0.114378 
12.2113 -7.78499 3.32903 -8.79926 2.01043 -0.817792 -0.3116 3.76094 -3.13066 2.08374 0.0407375 2.36686 -1.92118 0.101612 0.694338 0.56385 -0.267128 0.304666 -2.20871 -2.21915 0.00555388 0.000490286 5.47935e-05 0.000306483 -0.000378743 0.000161322 -9.22184e-05 -1.7286e-05 3.18078 2.52191 -1.2322 1.49634 -1.82354 -1.57897 2.51723 0.0010295 0.000456095 4.76837e-05 0.000921726 -0.00092268 2.43187e-05 0.000335217 3.16533 0.499924 -2.82244 -1.34284 -0.448362 -0.283658 0.134204 3.1464 0.499924 -2.80226 -1.3406 -0.430062 -0.399561 0.131154 38 4240.38 0.296 1.46972e+09 0.294113 1 0 16.2694 -12.7226 4.70671 -8.98194 0.619401 -0.599189 -0.519002 16.2694 -12.7226 4.70671 -8.98194 0.619401 -0.599189 -0.519002 16.2694 -12.7226 4.70671 -8.98194 0.619401 -0.599189 -0.519002 16.2694 -12.7226 4.70671 -8.98194 0.619401 -0.599189 -0.519002 0 0 0 0 0 0 0 0 0 0 0 0 0 0 3.03078 0.564936 -2.67 -1.31818 -0.489538 -0.0777771 0.106753 3.03078 0.564936 -2.67 -1.31818 -0.489538 -0.0777771 0.106753 3.03078 0.564936 -2.67 -1.31818 -0.489538 -0.0777771 0.106753 3.03078 0.564936 -2.67 -1.31818 -0.489538 -0.0777771 0.106753 0 0 0 0 0 0 0 0 0 0 0 0 0 0 36 0.0972973 0.424972 16.2694 -12.7226 4.70671 -8.98194 0.619401 -0.599189 -0.519002 3.03078 0.564936 -2.67 -1.31818 -0.489538 -0.0777771 0.106753 
12.9111 -7.0951 3.66743 -10.1443 2.25053 -2.06246 -0.328291 1.54902 0.689888 0.338392 -1.34499 0.240101 -1.24467 -0.0166908 0.69411 0.563887 -0.266835 0.304334 -2.20872 -2.21907 0.00565233 0.000444572 3.68865e-05 0.00029318 -0.000332158 -1.06305e-05 7.89156e-05 9.8448e-05 3.18153 2.52234 -1.2322 1.4972 -1.82434 -1.57901 2.51769 0.000963561 0.000431299 0 0.000861645 -0.000802994 -4.81606e-05 0.000466585 3.0949 0.49544 -2.74622 -1.33836 -0.57189 0.167755 0.183005 3.10231 0.511133 -2.74622 -1.34957 -0.574941 0.186055 0.17843 39 4240.39 0.304 1.46972e+09 0.302496 1 0 13.794 -10.6555 4.48452 -7.52491 0.777117 -0.563755 -0.58658 13.794 -10.6555 4.48452 -7.52491 0.777117 -0.563755 -0.58658 13.794 -10.6555 4.48452 -7.52491 0.777117 -0.563755 -0.58658 13.794 -10.6555 4.48452 -7.52491 0.777117 -0.563755 -0.58658 0 0 0 0 0 0 0 0 0 0 0 0 0 0 3.04343 0.47078 -2.65206 -1.41682 -0.54139 -0.0457512 0.138779 3.04343 0.47078 -2.65206 -1.41682 -0.54139 -0.0457512 0.138779 3.04343 0.47078 -2.65206 -1.41682 -0.54139 -0.0457512 0.138779 3.04343 0.47078 -2.65206 -1.41682 -0.54139 -0.0457512 0.138779 0 0 0 0 0 0 0 0 0 0 0 0 0 0 37 0.1 0.423623 13.794 -10.6555 4.48452 -7.52491 0.777117 -0.563755 -0.58658 3.04343 0.47078 -2.65206 -1.41682 -0.54139 -0.0457512 0.138779 
11.6304 -8.95713 3.77664 -6.38544 -0.455449 1.6212 0.196964 4.19616 -1.86203 0.109218 3.75881 -2.70598 3.68367 0.525255 0.693891 0.563923 -0.266542 0.304024 -2.20866 -2.21913 0.0056051 0.000427908 3.66211e-05 0.000292924 -0.000309774 6.25284e-05 -5.76502e-05 -4.72278e-05 3.18227 2.52276 -1.23223 1.49805 -1.82517 -1.57898 2.51805 0.000948413 0.000419617 -2.38419e-05 0.000850201 -0.000827312 3.57628e-05 0.000359535 3.14297 0.526825 -2.71259 -1.49753 -0.518514 -0.268407 0.234856 3.1334 0.524584 -2.70811 -1.48632 -0.523089 -0.211981 0.239431 40 4240.4 0.312 1.46972e+09 0.309803 1 0 17.7616 -13.7197 7.51298 -8.41422 0.521722 -0.289599 -0.266976 17.7616 -13.7197 7.51298 -8.41422 0.521722 -0.289599 -0.266976 17.7616 -13.7197 7.51298 -8.41422 0.521722 -0.289599 -0.266976 17.7616 -13.7197 7.51298 -8.41422 0.521722 -0.289599 -0.266976 0 0 0 0 0 0 0 0 0 0 0 0 0 0 3.07732 0.535793 -2.66551 -1.44148 -0.545965 -0.0472763 0.160129 3.07732 0.535793 -2.66551 -1.44148 -0.545965 -0.0472763 0.160129 3.07732 0.535793 -2.66551 -1.44148 -0.545965 -0.0472763 0.160129 3.07732 0.535793 -2.66551 -1.44148 -0.545965 -0.0472763 0.160129 0 0 0 0 0 0 0 0 0 0 0 0 0 0 38 0.102703 0.422319 17.7616 -13.7197 7.51298 -8.41422 0.521722 -0.289599 -0.266976 3.07732 0.535793 -2.66551 -1.44148 -0.545965 -0.0472763 0.160129 
21.3327 -17.1637 6.14851 -11.0763 2.27483 -2.33922 0.659761 9.74567 -8.2066 2.37187 -4.69086 2.73028 -3.96042 0.462797 0.693648 0.563938 -0.266295 0.30366 -2.20875 -2.21905 0.00566827 0.000440317 1.43086e-05 0.000246874 -0.000364319 -9.30223e-05 7.9622e-05 6.31706e-05 3.18299 2.52311 -1.23222 1.499 -1.82613 -1.57901 2.51847 0.00100743 0.000347376 1.19209e-05 0.000945568 -0.000959396 -3.57628e-05 0.00041914 3.19469 0.576145 -2.75519 -1.51098 -0.584091 -0.160129 0.210456 3.17804 0.571662 -2.74173 -1.50201 -0.55664 -0.253157 0.195205 41 4240.41 0.32 1.46972e+09 0.317946 1 0 18.6689 -15.185 6.35523 -8.80653 0.663845 -0.449715 -0.0588531 18.6689 -15.185 6.35523 -8.80653 0.663845 -0.449715 -0.0588531 18.6689 -15.185 6.35523 -8.80653 0.663845 -0.449715 -0.0588531 18.6689 -15.185 6.35523 -8.80653 0.663845 -0.449715 -0.0588531 0 0 0 0 0 0 0 0 0 0 0 0 0 0 3.16952 0.529067 -2.80226 -1.3832 -0.570365 -0.0472763 0.155554 3.16952 0.529067 -2.80226 -1.3832 -0.570365 -0.0472763 0.155554 3.16952 0.529067 -2.80226 -1.3832 -0.570365 -0.0472763 0.155554 3.16952 0.529067 -2.80226 -1.3832 -0.570365 -0.0472763 0.155554 0 0 0 0 0 0 0 0 0 0 0 0 0 0 39 0.105405 0.421007 18.6689 -15.185 6.35523 -8.80653 0.663845 -0.449715 -0.0588531 3.16952 0.529067 -2.80226 -1.3832 -0.570365 -0.0472763 0.155554 
19.7088 -15.9667 5.07578 -10.3797 1.92513 -1.04983 0.427335 1.75187 1.19707 -1.07273 0.696628 -0.349703 1.28938 -0.232425 0.693403 0.56398 -0.26597 0.303306 -2.20855 -2.21913 0.00577496 0.000482863 4.21843e-05 0.000325889 -0.000353799 0.000201965 -8.14167e-05 0.000106687 3.1838 2.52359 -1.23222 1.49991 -1.82695 -1.57906 2.51882 0.00102917 0.000480175 0 0.000910282 -0.000814915 -4.76837e-05 0.000346899 3.12947 0.598563 -2.71483 -1.437 -0.530714 0.152504 0.155554 3.1152 0.596322 -2.70362 -1.42803 -0.524614 0.204356 0.152504 42 4240.42 0.328 1.46972e+09 0.326143 1 0 12.7898 -9.25066 3.78594 -7.97945 1.05214 0.32236 -0.10415 12.7898 -9.25066 3.78594 -7.97945 1.05214 0.32236 -0.10415 12.7898 -9.25066 3.78594 -7.97945 1.05214 0.32236 -0.10415 12.7898 -9.25066 3.78594 -7.97945 1.05214 0.32236 -0.10415 0 0 0 0 0 0 0 0 0 0 0 0 0 0 3.11001 0.567178 -2.73053 -1.37647 -0.536815 -0.036601 0.201305 3.11001 0.567178 -2.73053 -1.37647 -0.536815 -0.036601 0.201305 3.11001 0.567178 -2.73053 -1.37647 -0.536815 -0.036601 0.201305 3.11001 0.567178 -2.73053 -1.37647 -0.536815 -0.036601 0.201305 0 0 0 0 0 0 0 0 0 0 0 0 0 0 40 0.108108 0.419729 12.7898 -9.25066 3.78594 -7.97945 1.05214 0.32236 -0.10415 3.11001 0.567178 -2.73053 -1.37647 -0.536815 -0.036601 0.201305 
18.0341 -14.4947 4.74434 -9.62406 -0.788218 0.482851 -0.0801557 1.6874 1.47191 -0.331435 0.755618 -2.71334 1.53268 -0.507491 0.693169 0.564004 -0.265705 0.302958 -2.20848 -2.21908 0.0056158 0.000437968 2.44012e-05 0.000264514 -0.000348213 6.82745e-05 5.4902e-05 -0.000159159 3.1845 2.52395 -1.2322 1.50079 -1.82777 -1.57894 2.51917 0.000955769 0.000359535 1.19209e-05 0.000885487 -0.000827312 0.000119686 0.000347137 3.14083 0.679269 -2.68345 -1.48408 -0.516989 -0.37211 0.132679 3.13764 0.670301 -2.68569 -1.47735 -0.526139 -0.388885 0.125053 43 4240.42 0.336 1.46972e+09 0.333289 1 0 15.0533 -12.1708 3.68347 -8.05641 0.776187 -0.134522 0.355078 15.0533 -12.1708 3.68347 -8.05641 0.776187 -0.134522 0.355078 15.0533 -12.1708 3.68347 -8.05641 0.776187 -0.134522 0.355078 15.0533 -12.1708 3.68347 -8.05641 0.776187 -0.134522 0.355078 0 0 0 0 0 0 0 0 0 0 0 0 0 0 3.17057 0.674785 -2.77088 -1.38544 -0.545965 -0.0183005 0.227231 3.17057 0.674785 -2.77088 -1.38544 -0.545965 -0.0183005 0.227231 3.17057 0.674785 -2.77088 -1.38544 -0.545965 -0.0183005 0.227231 3.17057 0.674785 -2.77088 -1.38544 -0.545965 -0.0183005 0.227231 0 0 0 0 0 0 0 0 0 0 0 0 0 0 41 0.110811 0.418346 15.0533 -12.1708 3.68347 -8.05641 0.776187 -0.134522 0.355078 3.17057 0.674785 -2.77088 -1.38544 -0.545965 -0.0183005 0.227231 
21.6216 -18.2268 5.16064 -10.4233 3.21874 -2.9674 -0.365412 3.83929 -3.73203 0.416298 -0.799243 4.00695 -3.45025 -0.285257 0.692932 0.564041 -0.265416 0.302601 -2.20846 -2.21905 0.00576683 0.000460906 3.67218e-05 0.000289188 -0.00035701 1.67295e-05 2.81135e-05 0.000151028 3.18525 2.52438 -1.23218 1.50169 -1.82865 -1.57903 2.5196 0.000996918 0.000431538 2.38419e-05 0.000898361 -0.000874519 -8.39233e-05 0.000431299 3.08799 0.645641 -2.70138 -1.34957 -0.536815 -0.00152504 0.126578 3.07735 0.632191 -2.69241 -1.34957 -0.539865 -0.0777771 0.131154 44 4240.43 0.344 1.46972e+09 0.342367 1 0 15.2855 -12.6313 0.735996 -8.57647 0.9001 -0.0235655 0.608579 15.2855 -12.6313 0.735996 -8.57647 0.9001 -0.0235655 0.608579 15.2855 -12.6313 0.735996 -8.57647 0.9001 -0.0235655 0.608579 15.2855 -12.6313 0.735996 -8.57647 0.9001 -0.0235655 0.608579 0 0 0 0 0 0 0 0 0 0 0 0 0 0 3.1395 0.647883 -2.73949 -1.38992 -0.524614 -0.0518514 0.19978 3.1395 0.647883 -2.73949 -1.38992 -0.524614 -0.0518514 0.19978 3.1395 0.647883 -2.73949 -1.38992 -0.524614 -0.0518514 0.19978 3.1395 0.647883 -2.73949 -1.38992 -0.524614 -0.0518514 0.19978 0 0 0 0 0 0 0 0 0 0 0 0 0 0 42 0.113514 0.417076 15.2855 -12.6313 0.735996 -8.57647 0.9001 -0.0235655 0.608579 3.1395 0.647883 -2.73949 -1.38992 -0.524614 -0.0518514 0.19978 
14.5615 -12.1615 3.06818 -7.39735 0.725031 0.0297477 -0.38564 7.09379 6.06524 -2.09246 3.02595 -2.4937 2.99715 -0.0202276 0.692711 0.564057 -0.26515 0.302296 -2.2084 -2.21898 0.00581739 0.000404687 1.64049e-05 0.000265917 -0.000304616 5.92749e-05 6.75853e-05 5.05611e-05 3.18594 2.52475 -1.2322 1.5025 -1.82934 -1.57904 2.51997 0.00089513 0.000371695 -2.38419e-05 0.000813961 -0.000695705 -1.19209e-05 0.000370741 3.02405 0.652367 -2.58705 -1.42355 -0.567315 0.073202 0.131154 3.02677 0.659092 -2.58481 -1.43028 -0.582566 0.183005 0.128103 45 4240.44 0.352 1.46972e+09 0.349366 1 0 15.7473 -12.8809 2.17583 -8.7936 0.905292 -0.420558 0.326362 15.7473 -12.8809 2.17583 -8.7936 0.905292 -0.420558 0.326362 15.7473 -12.8809 2.17583 -8.7936 0.905292 -0.420558 0.326362 15.7473 -12.8809 2.17583 -8.7936 0.905292 -0.420558 0.326362 0 0 0 0 0 0 0 0 0 0 0 0 0 0 3.20533 0.733072 -2.76864 -1.43924 -0.542915 -0.036601 0.18148 3.20533 0.733072 -2.76864 -1.43924 -0.542915 -0.036601 0.18148 3.20533 0.733072 -2.76864 -1.43924 -0.542915 -0.036601 0.18148 3.20533 0.733072 -2.76864 -1.43924 -0.542915 -0.036601 0.18148 0 0 0 0 0 0 0 0 0 0 0 0 0 0 43 0.116216 0.415849 15.7473 -12.8809 2.17583 -8.7936 0.905292 -0.420558 0.326362 3.20533 0.733072 -2.76864 -1.43924 -0.542915 -0.036601 0.18148 
20.0701 -17.7699 5.63778 -7.43329 0.0481806 0.259515 -0.332901 6.16912 -5.60838 2.56959 -0.0359398 -0.67685 0.229767 0.0527386 0.692481 0.564124 -0.264861 0.3019 -2.20834 -2.21906 0.00563504 0.000494915 6.61393e-05 0.000288948 -0.000396328 6.71779e-05 -7.68611e-05 -0.00018235 3.18668 2.52518 -1.23211 1.50343 -1.83039 -1.57892 2.52033 0.00102245 0.000432014 9.58443e-05 0.000921726 -0.00104284 0.000119686 0.000359297 3.24251 0.661334 -2.82244 -1.45269 -0.436162 -0.442262 0.118953 3.23169 0.661334 -2.81347 -1.44597 -0.430062 -0.436162 0.117428 46 4240.45 0.36 1.46972e+09 0.357789 1 0 17.702 -14.7024 1.36022 -9.76485 0.900724 -0.402762 0.15389 17.702 -14.7024 1.36022 -9.76485 0.900724 -0.402762 0.15389 17.702 -14.7024 1.36022 -9.76485 0.900724 -0.402762 0.15389 17.702 -14.7024 1.36022 -9.76485 0.900724 -0.402762 0.15389 0 0 0 0 0 0 0 0 0 0 0 0 0 0 3.15268 0.692719 -2.69017 -1.4908 -0.478863 -0.0442262 0.141829 3.15268 0.692719 -2.69017 -1.4908 -0.478863 -0.0442262 0.141829 3.15268 0.692719 -2.69017 -1.4908 -0.478863 -0.0442262 0.141829 3.15268 0.692719 -2.69017 -1.4908 -0.478863 -0.0442262 0.141829 0 0 0 0 0 0 0 0 0 0 0 0 0 0 44 0.118919 0.414465 17.702 -14.7024 1.36022 -9.76485 0.900724 -0.402762 0.15389 3.15268 0.692719 -2.69017 -1.4908 -0.478863 -0.0442262 0.141829 
18.9581 -13.4271 3.42467 -12.9381 3.29458 -3.76585 -0.499414 7.35257 4.34281 -2.21311 -5.50477 3.2464 -4.02536 -0.166513 0.692283 0.564148 -0.264597 0.30163 -2.2085 -2.21916 0.00569 0.000377666 2.44142e-05 0.000263701 -0.000269253 -0.000167106 -0.000100675 5.49619e-05 3.1874 2.52557 -1.23217 1.50426 -1.83135 -1.57898 2.52074 0.000923712 0.000383377 -5.96046e-05 0.00083828 -0.00095892 -6.00815e-05 0.000407457 3.29977 0.650125 -2.86055 -1.51098 -0.503264 0.0274507 0.105228 3.29997 0.656851 -2.86279 -1.50425 -0.504789 -0.0274507 0.0976026 47 4240.46 0.368 1.46972e+09 0.365876 1 0 22.4003 -18.4165 4.69544 -11.8558 0.198594 -1.42452 -0.244463 22.4003 -18.4165 4.69544 -11.8558 0.198594 -1.42452 -0.244463 22.4003 -18.4165 4.69544 -11.8558 0.198594 -1.42452 -0.244463 22.4003 -18.4165 4.69544 -11.8558 0.198594 -1.42452 -0.244463 0 0 0 0 0 0 0 0 0 0 0 0 0 0 3.08859 0.659092 -2.60274 -1.52667 -0.484963 -0.0503264 0.149454 3.08859 0.659092 -2.60274 -1.52667 -0.484963 -0.0503264 0.149454 3.08859 0.659092 -2.60274 -1.52667 -0.484963 -0.0503264 0.149454 3.08859 0.659092 -2.60274 -1.52667 -0.484963 -0.0503264 0.149454 0 0 0 0 0 0 0 0 0 0 0 0 0 0 45 0.121622 0.41322 22.4003 -18.4165 4.69544 -11.8558 0.198594 -1.42452 -0.244463 3.08859 0.659092 -2.60274 -1.52667 -0.484963 -0.0503264 0.149454 
19.4562 -13.9034 4.04921 -12.9939 -0.154082 -0.588471 -0.585711 0.78741 -0.476274 0.624545 -0.0558696 -3.44866 3.17738 -0.0862969 0.69207 0.564177 -0.264318 0.301331 -2.20854 -2.21924 0.00562022 0.000410262 2.91872e-05 0.000279314 -0.000299077 -3.59747e-05 -7.74904e-05 -6.97765e-05 3.18814 2.52596 -1.2322 1.50513 -1.83226 -1.57894 2.52111 0.000948885 0.000395775 -3.62396e-05 0.000861645 -0.000911236 3.62396e-05 0.000370741 3.24581 0.5201 -2.81796 -1.52443 -0.433112 -0.0289758 0.140304 3.24297 0.535793 -2.8202 -1.50874 -0.443787 0.074727 0.137254 48 4240.46 0.376 1.46972e+09 0.374259 1 0 25.7473 -21.8055 6.87022 -11.8424 0.0975843 -1.69381 -0.161429 25.7473 -21.8055 6.87022 -11.8424 0.0975843 -1.69381 -0.161429 25.7473 -21.8055 6.87022 -11.8424 0.0975843 -1.69381 -0.161429 25.7473 -21.8055 6.87022 -11.8424 0.0975843 -1.69381 -0.161429 0 0 0 0 0 0 0 0 0 0 0 0 0 0 3.06779 0.560453 -2.67448 -1.39441 -0.431587 -0.0427012 0.114378 3.06779 0.560453 -2.67448 -1.39441 -0.431587 -0.0427012 0.114378 3.06779 0.560453 -2.67448 -1.39441 -0.431587 -0.0427012 0.114378 3.06779 0.560453 -2.67448 -1.39441 -0.431587 -0.0427012 0.114378 0 0 0 0 0 0 0 0 0 0 0 0 0 0 46 0.124324 0.411863 25.7473 -21.8055 6.87022 -11.8424 0.0975843 -1.69381 -0.161429 3.06779 0.560453 -2.67448 -1.39441 -0.431587 -0.0427012 0.114378 
21.7025 -14.7178 6.77295 -14.4399 -0.424755 -1.62644 -0.243617 3.1895 -0.814437 2.72373 -1.44598 -0.270673 -1.03797 0.342094 0.691822 0.564216 -0.264013 0.300958 -2.20846 -2.21927 0.00563822 0.000483468 3.86829e-05 0.000304599 -0.000373449 8.30529e-05 -3.65584e-05 1.79939e-05 3.18893 2.52641 -1.23218 1.50607 -1.83319 -1.57894 2.52149 0.0010451 0.000443459 2.38419e-05 0.000946045 -0.000935078 0 0.000383139 3.14895 0.473022 -2.74398 -1.47063 -0.410236 -0.35686 0.17538 3.15904 0.490957 -2.76191 -1.45269 -0.398036 -0.428537 0.17233 49 4240.47 0.384 1.46972e+09 0.381349 1 0 18.3069 -13.7905 5.93876 -10.4737 -0.10797 -1.29216 -0.504365 18.3069 -13.7905 5.93876 -10.4737 -0.10797 -1.29216 -0.504365 18.3069 -13.7905 5.93876 -10.4737 -0.10797 -1.29216 -0.504365 18.3069 -13.7905 5.93876 -10.4737 -0.10797 -1.29216 -0.504365 0 0 0 0 0 0 0 0 0 0 0 0 0 0 3.01342 0.540276 -2.65206 -1.32491 -0.420911 -0.0274507 0.105228 3.01342 0.540276 -2.65206 -1.32491 -0.420911 -0.0274507 0.105228 3.01342 0.540276 -2.65206 -1.32491 -0.420911 -0.0274507 0.105228 3.01342 0.540276 -2.65206 -1.32491 -0.420911 -0.0274507 0.105228 0 0 0 0 0 0 0 0 0 0 0 0 0 0 47 0.127027 0.410452 18.3069 -13.7905 5.93876 -10.4737 -0.10797 -1.29216 -0.504365 3.01342 0.540276 -2.65206 -1.32491 -0.420911 -0.0274507 0.105228 
21.1238 -14.467 7.15757 -13.6268 2.0786 -3.6029 0.0661211 0.933824 0.250863 0.384619 0.813119 2.50335 -1.97646 0.309738 0.691604 0.564248 -0.263736 0.300638 -2.20844 -2.21932 0.00571775 0.000424996 3.23728e-05 0.00027748 -0.000320279 1.9303e-05 -4.98537e-05 7.9532e-05 3.18965 2.52681 -1.23218 1.50692 -1.83405 -1.57899 2.52186 0.000943001 0.000407934 0 0.000850201 -0.000862598 -4.81606e-05 0.000371218 3.00699 0.459571 -2.66551 -1.3137 -0.390411 0.126578 0.157079 2.99872 0.430428 -2.66327 -1.30922 -0.398036 0.0686269 0.157079 50 4240.48 0.392 1.46972e+09 0.390167 1 0 15.8183 -11.7422 5.57868 -9.01217 -0.151758 -1.04345 -0.593837 15.8183 -11.7422 5.57868 -9.01217 -0.151758 -1.04345 -0.593837 15.8183 -11.7422 5.57868 -9.01217 -0.151758 -1.04345 -0.593837 15.8183 -11.7422 5.57868 -9.01217 -0.151758 -1.04345 -0.593837 0 0 0 0 0 0 0 0 0 0 0 0 0 0 3.00547 0.533551 -2.63189 -1.34957 -0.35381 -0.0213506 0.108278 3.00547 0.533551 -2.63189 -1.34957 -0.35381 -0.0213506 0.108278 3.00547 0.533551 -2.63189 -1.34957 -0.35381 -0.0213506 0.108278 3.00547 0.533551 -2.63189 -1.34957 -0.35381 -0.0213506 0.108278 0 0 0 0 0 0 0 0 0 0 0 0 0 0 48 0.12973 0.409154 15.8183 -11.7422 5.57868 -9.01217 -0.151758 -1.04345 -0.593837 3.00547 0.533551 -2.63189 -1.34957 -0.35381 -0.0213506 0.108278 
15.6374 -10.8581 6.02021 -9.50713 -1.56387 -0.429907 -0.0629195 5.59364 3.60883 -1.13736 4.11966 -3.64247 3.173 -0.129041 0.69138 0.564299 -0.26346 0.300271 -2.20847 -2.21923 0.00562499 0.000461831 5.06529e-05 0.000276247 -0.00036662 -2.80347e-05 9.1285e-05 -9.27646e-05 3.19035 2.52722 -1.23211 1.50778 -1.83495 -1.57892 2.52232 0.000956274 0.000407457 7.20024e-05 0.000862122 -0.000898838 7.20024e-05 0.000454903 3.05503 0.461813 -2.68569 -1.38096 -0.391936 -0.120478 0.147929 3.03613 0.448362 -2.67224 -1.36975 -0.404136 -0.00305008 0.120478 51 4240.49 0.4 1.46972e+09 0.398233 1 0 18.578 -13.6006 6.52368 -10.8447 -0.77715 -1.8341 -0.562442 18.578 -13.6006 6.52368 -10.8447 -0.77715 -1.8341 -0.562442 18.578 -13.6006 6.52368 -10.8447 -0.77715 -1.8341 -0.562442 18.578 -13.6006 6.52368 -10.8447 -0.77715 -1.8341 -0.562442 0 0 0 0 0 0 0 0 0 0 0 0 0 0 3.06386 0.448362 -2.69914 -1.37871 -0.414811 -0.0228756 0.141829 3.06386 0.448362 -2.69914 -1.37871 -0.414811 -0.0228756 0.141829 3.06386 0.448362 -2.69914 -1.37871 -0.414811 -0.0228756 0.141829 3.06386 0.448362 -2.69914 -1.37871 -0.414811 -0.0228756 0.141829 0 0 0 0 0 0 0 0 0 0 0 0 0 0 49 0.132432 0.407868 18.578 -13.6006 6.52368 -10.8447 -0.77715 -1.8341 -0.562442 3.06386 0.448362 -2.69914 -1.37871 -0.414811 -0.0228756 0.141829 
18.5 -12.9073 7.11501 -11.1815 0.23167 -2.10888 -0.172947 2.86383 -2.04922 1.0948 -1.67441 1.79554 -1.67897 -0.110028 0.691164 0.564337 -0.26318 0.299947 -2.20847 -2.21938 0.00556788 0.000430146 3.85194e-05 0.000279906 -0.000324337 -1.78734e-06 -0.000147405 -5.71085e-05 3.19109 2.52763 -1.23211 1.50867 -1.83595 -1.57889 2.52265 0.000974835 0.000407696 0 0.000885487 -0.000995159 2.38419e-05 0.000335217 3.01975 0.410251 -2.66551 -1.35854 -0.350759 -0.317209 0.131154 3.01816 0.399042 -2.67448 -1.3406 -0.37821 -0.469713 0.109803 52 4240.5 0.408 1.46972e+09 0.405578 1 0 17.4641 -11.8825 7.05936 -10.6755 -0.460451 -1.19927 -0.231845 17.4641 -11.8825 7.05936 -10.6755 -0.460451 -1.19927 -0.231845 17.4641 -11.8825 7.05936 -10.6755 -0.460451 -1.19927 -0.231845 17.4641 -11.8825 7.05936 -10.6755 -0.460451 -1.19927 -0.231845 0 0 0 0 0 0 0 0 0 0 0 0 0 0 3.11865 0.448362 -2.73949 -1.42131 -0.423961 -0.0274507 0.167755 3.11865 0.448362 -2.73949 -1.42131 -0.423961 -0.0274507 0.167755 3.11865 0.448362 -2.73949 -1.42131 -0.423961 -0.0274507 0.167755 3.11865 0.448362 -2.73949 -1.42131 -0.423961 -0.0274507 0.167755 0 0 0 0 0 0 0 0 0 0 0 0 0 0 50 0.135135 0.406512 17.4641 -11.8825 7.05936 -10.6755 -0.460451 -1.19927 -0.231845 3.11865 0.448362 -2.73949 -1.42131 -0.423961 -0.0274507 0.167755 
18.8178 -12.2357 8.50156 -11.4943 1.43026 -3.51982 -0.359683 1.57209 0.671632 1.38656 -0.312773 1.19859 -1.41094 -0.186735 0.690939 0.56435 -0.262937 0.299615 -2.20852 -2.21928 0.00569862 0.000411555 1.31476e-05 0.000243167 -0.000331774 -4.80966e-05 9.40297e-05 0.000130746 3.19177 2.52798 -1.2321 1.50952 -1.83676 -1.57897 2.52306 0.000918596 0.000347614 1.19209e-05 0.000850201 -0.000815392 -7.15256e-05 0.000406742 3.05345 0.490957 -2.69466 -1.34957 -0.460562 0.19368 0.105228 3.07093 0.488715 -2.71707 -1.34509 -0.454462 0.186055 0.100653 53 4240.5 0.416 1.46972e+09 0.413711 1 0 18.7217 -12.725 6.98923 -11.8206 -0.442558 -1.32228 0.02262 18.7217 -12.725 6.98923 -11.8206 -0.442558 -1.32228 0.02262 18.7217 -12.725 6.98923 -11.8206 -0.442558 -1.32228 0.02262 18.7217 -12.725 6.98923 -11.8206 -0.442558 -1.32228 0.02262 0 0 0 0 0 0 0 0 0 0 0 0 0 0 3.05738 0.399042 -2.6543 -1.4639 -0.433112 -0.0335509 0.152504 3.05738 0.399042 -2.6543 -1.4639 -0.433112 -0.0335509 0.152504 3.05738 0.399042 -2.6543 -1.4639 -0.433112 -0.0335509 0.152504 3.05738 0.399042 -2.6543 -1.4639 -0.433112 -0.0335509 0.152504 0 0 0 0 0 0 0 0 0 0 0 0 0 0 51 0.137838 0.405242 18.7217 -12.725 6.98923 -11.8206 -0.442558 -1.32228 0.02262 3.05738 0.399042 -2.6543 -1.4639 -0.433112 -0.0335509 0.152504 
15.7261 -11.2141 6.50422 -8.90232 -1.71293 0.530336 -0.565593 3.42805 1.02166 -1.99734 2.59198 -3.14319 4.05016 -0.20591 0.690713 0.564359 -0.26268 0.299302 -2.2086 -2.21925 0.00566036 0.000404225 8.49025e-06 0.000256073 -0.000312654 -8.3018e-05 3.49624e-05 -3.82648e-05 3.19247 2.52832 -1.23213 1.51041 -1.83765 -1.57894 2.52345 0.000952477 0.000347853 -3.57628e-05 0.000885963 -0.000886917 2.38419e-05 0.00039506 3.13464 0.567178 -2.70587 -1.47735 -0.414811 -0.204356 0.125053 3.13763 0.567178 -2.70811 -1.47959 -0.416336 -0.123528 0.120478 54 4240.51 0.424 1.46972e+09 0.422188 1 0 24.1981 -16.7244 11.0894 -13.5228 -0.760693 -1.7959 -0.157989 24.1981 -16.7244 11.0894 -13.5228 -0.760693 -1.7959 -0.157989 24.1981 -16.7244 11.0894 -13.5228 -0.760693 -1.7959 -0.157989 24.1981 -16.7244 11.0894 -13.5228 -0.760693 -1.7959 -0.157989 0 0 0 0 0 0 0 0 0 0 0 0 0 0 3.04163 0.56942 -2.65655 -1.3675 -0.439212 -0.0335509 0.0960776 3.04163 0.56942 -2.65655 -1.3675 -0.439212 -0.0335509 0.0960776 3.04163 0.56942 -2.65655 -1.3675 -0.439212 -0.0335509 0.0960776 3.04163 0.56942 -2.65655 -1.3675 -0.439212 -0.0335509 0.0960776 0 0 0 0 0 0 0 0 0 0 0 0 0 0 52 0.140541 0.403858 24.1981 -16.7244 11.0894 -13.5228 -0.760693 -1.7959 -0.157989 3.04163 0.56942 -2.65655 -1.3675 -0.439212 -0.0335509 0.0960776 
22.1012 -16.4701 6.89749 -13.0239 0.942224 -2.82635 -0.422274 6.69089 -5.25604 0.393271 -4.12158 2.65515 -3.35668 0.143318 0.690491 0.564392 -0.262398 0.298976 -2.20861 -2.21929 0.00564064 0.000432879 3.30908e-05 0.000282457 -0.000326354 -5.83389e-06 -4.60749e-05 -1.97162e-05 3.19321 2.52873 -1.23213 1.51128 -1.83856 -1.57893 2.52384 0.00096412 0.000407934 0 0.000873566 -0.000911236 1.19209e-05 0.000383615 3.14044 0.647883 -2.74398 -1.3832 -0.477338 -0.16928 0.0991277 3.1244 0.636674 -2.73277 -1.37423 -0.468188 -0.292808 0.108278 55 4240.52 0.432 1.46972e+09 0.429824 1 0 16.6276 -12.7326 5.26353 -9.30879 0.0336152 -1.04554 -0.682772 16.6276 -12.7326 5.26353 -9.30879 0.0336152 -1.04554 -0.682772 16.6276 -12.7326 5.26353 -9.30879 0.0336152 -1.04554 -0.682772 16.6276 -12.7326 5.26353 -9.30879 0.0336152 -1.04554 -0.682772 0 0 0 0 0 0 0 0 0 0 0 0 0 0 3.08309 0.578387 -2.68121 -1.40786 -0.495638 -0.0183005 0.123528 3.08309 0.578387 -2.68121 -1.40786 -0.495638 -0.0183005 0.123528 3.08309 0.578387 -2.68121 -1.40786 -0.495638 -0.0183005 0.123528 3.08309 0.578387 -2.68121 -1.40786 -0.495638 -0.0183005 0.123528 0 0 0 0 0 0 0 0 0 0 0 0 0 0 53 0.143243 0.402574 16.6276 -12.7326 5.26353 -9.30879 0.0336152 -1.04554 -0.682772 3.08309 0.578387 -2.68121 -1.40786 -0.495638 -0.0183005 0.123528 
16.0667 -12.2338 3.50032 -9.80916 1.50009 -1.55344 -0.669779 6.31041 4.23627 -3.39717 3.21474 0.557871 1.2729 -0.247505 0.690247 0.564416 -0.262098 0.29863 -2.20852 -2.21923 0.00575539 0.000458711 2.421e-05 0.000300305 -0.0003459 8.53417e-05 6.78295e-05 0.000114748 3.19397 2.52916 -1.23213 1.51217 -1.83933 -1.57898 2.52426 0.000985901 0.000431538 0 0.00088644 -0.000766754 -4.81606e-05 0.000418663 3.07818 0.724105 -2.66327 -1.36302 -0.53834 0.183005 0.150979 3.06998 0.73083 -2.65655 -1.35405 -0.539865 0.247057 0.131154 56 4240.53 0.44 1.46972e+09 0.438892 1 0 17.4615 -13.7985 5.10945 -9.40205 0.247118 -0.621403 -0.41315 17.4615 -13.7985 5.10945 -9.40205 0.247118 -0.621403 -0.41315 17.4615 -13.7985 5.10945 -9.40205 0.247118 -0.621403 -0.41315 17.4615 -13.7985 5.10945 -9.40205 0.247118 -0.621403 -0.41315 0 0 0 0 0 0 0 0 0 0 0 0 0 0 3.09761 0.70617 -2.65655 -1.42803 -0.516989 -0.00762521 0.115903 3.09761 0.70617 -2.65655 -1.42803 -0.516989 -0.00762521 0.115903 3.09761 0.70617 -2.65655 -1.42803 -0.516989 -0.00762521 0.115903 3.09761 0.70617 -2.65655 -1.42803 -0.516989 -0.00762521 0.115903 0 0 0 0 0 0 0 0 0 0 0 0 0 0 54 0.145946 0.401235 17.4615 -13.7985 5.10945 -9.40205 0.247118 -0.621403 -0.41315 3.09761 0.70617 -2.65655 -1.42803 -0.516989 -0.00762521 0.115903 
16.5093 -14.7156 1.72296 -7.28274 -0.699554 0.9124 -0.124634 3.96245 -2.48177 -1.77737 2.52642 -2.19965 2.46584 0.545145 0.690003 0.564459 -0.26181 0.298238 -2.20839 -2.21914 0.00573053 0.000488262 4.30304e-05 0.000287565 -0.000392243 0.000132379 9.14952e-05 -2.4863e-05 3.19469 2.52958 -1.23205 1.51305 -1.84014 -1.57893 2.52465 0.000983366 0.000419378 8.39233e-05 0.000885487 -0.000815392 4.81606e-05 0.00039506 3.04715 0.764457 -2.6005 -1.39216 -0.452937 -0.329409 0.19368 3.0312 0.757732 -2.58257 -1.39441 -0.455987 -0.312633 0.189105 57 4240.54 0.448 1.46972e+09 0.445875 1 0 19.0175 -16.3677 3.54381 -9.01144 0.443295 -0.573203 -0.483525 19.0175 -16.3677 3.54381 -9.01144 0.443295 -0.573203 -0.483525 19.0175 -16.3677 3.54381 -9.01144 0.443295 -0.573203 -0.483525 19.0175 -16.3677 3.54381 -9.01144 0.443295 -0.573203 -0.483525 0 0 0 0 0 0 0 0 0 0 0 0 0 0 3.18611 0.75549 -2.70138 -1.51098 -0.480388 -0.0122003 0.122003 3.18611 0.75549 -2.70138 -1.51098 -0.480388 -0.0122003 0.122003 3.18611 0.75549 -2.70138 -1.51098 -0.480388 -0.0122003 0.122003 3.18611 0.75549 -2.70138 -1.51098 -0.480388 -0.0122003 0.122003 0 0 0 0 0 0 0 0 0 0 0 0 0 0 55 0.148649 0.399979 19.0175 -16.3677 3.54381 -9.01144 0.443295 -0.573203 -0.483525 3.18611 0.75549 -2.70138 -1.51098 -0.480388 -0.0122003 0.122003 
21.7148 -19.5016 2.42007 -9.23917 2.73854 -3.18754 0.239905 5.21723 -4.78601 0.697113 -1.95643 3.43809 -4.09994 0.364539 0.689776 0.56447 -0.261577 0.297897 -2.20852 -2.21907 0.00574437 0.000412749 1.02326e-05 0.000232923 -0.000340593 -0.000135442 6.21621e-05 1.38418e-05 3.19537 2.52991 -1.23204 1.51395 -1.8411 -1.57894 2.52506 0.00095508 0.000324011 1.19209e-05 0.000898361 -0.00095892 -1.19209e-05 0.000406981 3.19488 0.777908 -2.73949 -1.44821 -0.452937 -0.0671018 0.215031 3.19132 0.786875 -2.73277 -1.44821 -0.455987 -0.146404 0.207406 58 4240.54 0.456 1.46972e+09 0.454514 1 0 23.1201 -19.2864 3.70344 -12.2009 0.0492054 -1.36555 -0.433531 23.1201 -19.2864 3.70344 -12.2009 0.0492054 -1.36555 -0.433531 23.1201 -19.2864 3.70344 -12.2009 0.0492054 -1.36555 -0.433531 23.1201 -19.2864 3.70344 -12.2009 0.0492054 -1.36555 -0.433531 0 0 0 0 0 0 0 0 0 0 0 0 0 0 3.09542 0.764457 -2.59377 -1.5065 -0.466663 -0.00915025 0.141829 3.09542 0.764457 -2.59377 -1.5065 -0.466663 -0.00915025 0.141829 3.09542 0.764457 -2.59377 -1.5065 -0.466663 -0.00915025 0.141829 3.09542 0.764457 -2.59377 -1.5065 -0.466663 -0.00915025 0.141829 0 0 0 0 0 0 0 0 0 0 0 0 0 0 56 0.151351 0.398654 23.1201 -19.2864 3.70344 -12.2009 0.0492054 -1.36555 -0.433531 3.09542 0.764457 -2.59377 -1.5065 -0.466663 -0.00915025 0.141829 
21.5869 -18.2574 1.12493 -11.4628 0.622478 -1.7795 0.47843 2.85833 1.24423 -1.29514 -2.22363 -2.11606 1.40803 0.238524 0.689547 0.564492 -0.26129 0.297576 -2.20844 -2.21906 0.00578989 0.000431245 2.2305e-05 0.000287111 -0.000321002 8.14159e-05 1.20504e-05 4.55229e-05 3.1961 2.53031 -1.23205 1.5148 -1.84187 -1.57895 2.52543 0.000942544 0.000407696 -1.19209e-05 0.000849724 -0.000767231 -1.19209e-05 0.000371218 3.25454 0.782392 -2.82468 -1.41458 -0.503264 0.0274507 0.19978 3.22664 0.775666 -2.80226 -1.39889 -0.503264 0.129628 0.18453 59 4240.55 0.464 1.46972e+09 0.462144 1 0 25.744 -22.5278 4.6687 -11.5523 -0.0751328 -1.68641 -0.238817 25.744 -22.5278 4.6687 -11.5523 -0.0751328 -1.68641 -0.238817 25.744 -22.5278 4.6687 -11.5523 -0.0751328 -1.68641 -0.238817 25.744 -22.5278 4.6687 -11.5523 -0.0751328 -1.68641 -0.238817 0 0 0 0 0 0 0 0 0 0 0 0 0 0 3.18063 0.766699 -2.67 -1.54909 -0.497163 -0.0122003 0.158604 3.18063 0.766699 -2.67 -1.54909 -0.497163 -0.0122003 0.158604 3.18063 0.766699 -2.67 -1.54909 -0.497163 -0.0122003 0.158604 3.18063 0.766699 -2.67 -1.54909 -0.497163 -0.0122003 0.158604 0 0 0 0 0 0 0 0 0 0 0 0 0 0 57 0.154054 0.397273 25.744 -22.5278 4.6687 -11.5523 -0.0751328 -1.68641 -0.238817 3.18063 0.766699 -2.67 -1.54909 -0.497163 -0.0122003 0.158604 
17.7513 -14.5003 -0.454384 -10.2296 0.345067 -0.422544 0.337026 4.25802 3.75708 -1.57931 1.23323 -0.277411 1.35696 -0.141403 0.689321 0.564535 -0.260989 0.297236 -2.20845 -2.2191 0.00563825 0.000456389 4.27826e-05 0.00030116 -0.000340239 -4.53173e-06 -4.34902e-05 -0.000151646 3.19686 2.53075 -1.23204 1.5157 -1.84283 -1.57886 2.52584 0.000996275 0.000431538 1.19209e-05 0.000897884 -0.00095892 9.58443e-05 0.000406981 3.3125 0.717379 -2.80226 -1.6141 -0.483438 -0.401086 0.152504 3.28583 0.719621 -2.78433 -1.58944 -0.483438 -0.423961 0.146404 60 4240.56 0.472 1.46972e+09 0.470745 1 0 26.023 -22.3523 4.25931 -12.6266 0.104311 -1.53174 -0.0747283 26.023 -22.3523 4.25931 -12.6266 0.104311 -1.53174 -0.0747283 26.023 -22.3523 4.25931 -12.6266 0.104311 -1.53174 -0.0747283 26.023 -22.3523 4.25931 -12.6266 0.104311 -1.53174 -0.0747283 0 0 0 0 0 0 0 0 0 0 0 0 0 0 3.34237 0.802568 -2.88297 -1.48856 -0.54749 0.00610016 0.211981 3.34237 0.802568 -2.88297 -1.48856 -0.54749 0.00610016 0.211981 3.34237 0.802568 -2.88297 -1.48856 -0.54749 0.00610016 0.211981 3.34237 0.802568 -2.88297 -1.48856 -0.54749 0.00610016 0.211981 0 0 0 0 0 0 0 0 0 0 0 0 0 0 58 0.156757 0.395996 26.023 -22.3523 4.25931 -12.6266 0.104311 -1.53174 -0.0747283 3.34237 0.802568 -2.88297 -1.48856 -0.54749 0.00610016 0.211981 
26.3967 -20.9547 5.10163 -15.2203 2.91709 -3.8867 -0.173455 9.87097 -6.45443 5.55602 -4.9907 2.57203 -3.46416 -0.510482 0.689083 0.564532 -0.260734 0.296911 -2.20855 -2.21909 0.00585906 0.000412995 -2.20248e-06 0.000254565 -0.000325203 -0.000102979 1.42611e-05 0.000220814 3.1976 2.53111 -1.23207 1.51662 -1.84375 -1.579 2.52624 0.000990029 0.000359535 -3.62396e-05 0.000921726 -0.00092268 -0.000144005 0.000407219 3.23517 0.70617 -2.74846 -1.55357 -0.532239 0.117428 0.0930275 3.22824 0.703929 -2.74846 -1.54012 -0.520039 0.0655768 0.0854023 61 4240.57 0.48 1.46972e+09 0.478759 1 0 18.9126 -14.8465 -0.956032 -11.677 0.700558 -0.304769 0.452061 18.9126 -14.8465 -0.956032 -11.677 0.700558 -0.304769 0.452061 18.9126 -14.8465 -0.956032 -11.677 0.700558 -0.304769 0.452061 18.9126 -14.8465 -0.956032 -11.677 0.700558 -0.304769 0.452061 0 0 0 0 0 0 0 0 0 0 0 0 0 0 3.311 0.739797 -2.88073 -1.45494 -0.491063 -0.00915025 0.213506 3.311 0.739797 -2.88073 -1.45494 -0.491063 -0.00915025 0.213506 3.311 0.739797 -2.88073 -1.45494 -0.491063 -0.00915025 0.213506 3.311 0.739797 -2.88073 -1.45494 -0.491063 -0.00915025 0.213506 0 0 0 0 0 0 0 0 0 0 0 0 0 0 59 0.159459 0.394725 18.9126 -14.8465 -0.956032 -11.677 0.700558 -0.304769 0.452061 3.311 0.739797 -2.88073 -1.45494 -0.491063 -0.00915025 0.213506 
23.4231 -19.2291 5.25683 -12.2983 -0.823017 -0.220604 -0.704194 3.39698 1.7256 0.155198 2.92194 -3.74011 3.6661 -0.530738 0.688852 0.564577 -0.260411 0.296573 -2.20851 -2.21902 0.00579515 0.000469679 4.5041e-05 0.000323116 -0.000337884 3.69083e-05 7.29945e-05 -6.39138e-05 3.19837 2.53157 -1.23206 1.51748 -1.84456 -1.57894 2.52672 0.000980624 0.000468016 1.23978e-05 0.000861645 -0.000803471 6.00815e-05 0.000478506 3.17519 0.66806 -2.73725 -1.4639 -0.503264 -0.0960776 0.114378 3.16862 0.683752 -2.73053 -1.45494 -0.530714 0.00610016 0.109803 62 4240.58 0.488 1.46972e+09 0.486668 1 0 18.2338 -13.5022 -0.167759 -12.2529 0.423972 -0.790256 0.467112 18.2338 -13.5022 -0.167759 -12.2529 0.423972 -0.790256 0.467112 18.2338 -13.5022 -0.167759 -12.2529 0.423972 -0.790256 0.467112 18.2338 -13.5022 -0.167759 -12.2529 0.423972 -0.790256 0.467112 0 0 0 0 0 0 0 0 0 0 0 0 0 0 3.24891 0.807052 -2.81123 -1.41458 -0.521564 0.0152504 0.186055 3.24891 0.807052 -2.81123 -1.41458 -0.521564 0.0152504 0.186055 3.24891 0.807052 -2.81123 -1.41458 -0.521564 0.0152504 0.186055 3.24891 0.807052 -2.81123 -1.41458 -0.521564 0.0152504 0.186055 0 0 0 0 0 0 0 0 0 0 0 0 0 0 60 0.162162 0.393397 18.2338 -13.5022 -0.167759 -12.2529 0.423972 -0.790256 0.467112 3.24891 0.807052 -2.81123 -1.41458 -0.521564 0.0152504 0.186055 
19.706 -15.9592 4.29535 -10.7322 0.883464 -1.24981 -0.516649 3.75099 3.26996 -0.961481 1.56615 1.70648 -1.0292 0.187545 0.688616 0.564622 -0.260145 0.296173 -2.20844 -2.21901 0.00578268 0.000481986 4.41214e-05 0.000265778 -0.000399657 7.53754e-05 9.97821e-06 -1.2467e-05 3.19907 2.53197 -1.23195 1.51838 -1.8455 -1.57892 2.52708 0.000987427 0.000395536 0.000107288 0.000898361 -0.000946999 2.38419e-05 0.000359535 3.13093 0.690478 -2.72604 -1.37647 -0.529189 -0.300433 0.115903 3.1261 0.685994 -2.71707 -1.38544 -0.524614 -0.417861 0.108278 63 4240.58 0.496 1.46972e+09 0.49404 1 0 17.443 -14.2507 -0.680373 -10.0357 0.566181 -0.302903 0.204812 17.443 -14.2507 -0.680373 -10.0357 0.566181 -0.302903 0.204812 17.443 -14.2507 -0.680373 -10.0357 0.566181 -0.302903 0.204812 17.443 -14.2507 -0.680373 -10.0357 0.566181 -0.302903 0.204812 0 0 0 0 0 0 0 0 0 0 0 0 0 0 3.18416 0.768941 -2.76191 -1.38544 -0.577991 0.00610016 0.122003 3.18416 0.768941 -2.76191 -1.38544 -0.577991 0.00610016 0.122003 3.18416 0.768941 -2.76191 -1.38544 -0.577991 0.00610016 0.122003 3.18416 0.768941 -2.76191 -1.38544 -0.577991 0.00610016 0.122003 0 0 0 0 0 0 0 0 0 0 0 0 0 0 61 0.164865 0.392045 17.443 -14.2507 -0.680373 -10.0357 0.566181 -0.302903 0.204812 3.18416 0.768941 -2.76191 -1.38544 -0.577991 0.00610016 0.122003 
15.6786 -13.1641 2.52839 -8.13206 2.98111 -1.7736 -0.525615 4.20655 2.79505 -1.76696 2.60012 2.09765 -0.523797 -0.00896624 0.688407 0.564635 -0.259872 0.2959 -2.20857 -2.2191 0.00578606 0.000386177 1.36379e-05 0.00027304 -0.000272756 -0.000133321 -9.34504e-05 3.38038e-06 3.19981 2.53235 -1.23203 1.51924 -1.84645 -1.57894 2.52748 0.000946264 0.000383377 -7.20024e-05 0.000862122 -0.000946999 -2.38419e-05 0.000395298 3.01506 0.634432 -2.63637 -1.31818 -0.581041 0.170805 0.0915025 3.00968 0.641158 -2.63861 -1.29801 -0.577991 0.179955 0.0854023 64 4240.59 0.504 1.46972e+09 0.50234 1 0 14.9529 -12.7196 0.354754 -7.85343 0.987132 0.399721 -0.436987 14.9529 -12.7196 0.354754 -7.85343 0.987132 0.399721 -0.436987 14.9529 -12.7196 0.354754 -7.85343 0.987132 0.399721 -0.436987 14.9529 -12.7196 0.354754 -7.85343 0.987132 0.399721 -0.436987 0 0 0 0 0 0 0 0 0 0 0 0 0 0 3.12596 0.733072 -2.71932 -1.3563 -0.56884 -0.00457512 0.115903 3.12596 0.733072 -2.71932 -1.3563 -0.56884 -0.00457512 0.115903 3.12596 0.733072 -2.71932 -1.3563 -0.56884 -0.00457512 0.115903 3.12596 0.733072 -2.71932 -1.3563 -0.56884 -0.00457512 0.115903 0 0 0 0 0 0 0 0 0 0 0 0 0 0 62 0.167568 0.390774 14.9529 -12.7196 0.354754 -7.85343 0.987132 0.399721 -0.436987 3.12596 0.733072 -2.71932 -1.3563 -0.56884 -0.00457512 0.115903 
13.9472 -12.4362 3.8125 -5.03287 -0.456488 1.59296 -0.714844 3.43276 0.727962 1.28411 3.09919 -3.4376 3.36657 -0.189228 0.688202 0.56467 -0.259593 0.295604 -2.20862 -2.21919 0.00576869 0.000408396 3.44261e-05 0.000279202 -0.000296055 -4.72409e-05 -8.98869e-05 -1.73666e-05 3.20053 2.53276 -1.23204 1.52007 -1.84736 -1.57894 2.52786 0.000921207 0.000407934 -1.14441e-05 0.000825882 -0.000911236 0 0.000382662 2.98737 0.526825 -2.63413 -1.30698 -0.498688 -0.242482 0.144879 2.99884 0.535793 -2.64534 -1.30698 -0.492588 -0.173855 0.138779 65 4240.6 0.512 1.46972e+09 0.509634 1 0 13.9718 -12.1032 0.992863 -6.90925 1.02179 0.392487 -0.489823 13.9718 -12.1032 0.992863 -6.90925 1.02179 0.392487 -0.489823 13.9718 -12.1032 0.992863 -6.90925 1.02179 0.392487 -0.489823 13.9718 -12.1032 0.992863 -6.90925 1.02179 0.392487 -0.489823 0 0 0 0 0 0 0 0 0 0 0 0 0 0 3.10369 0.650125 -2.70587 -1.37423 -0.498688 0.0213506 0.112853 3.10369 0.650125 -2.70587 -1.37423 -0.498688 0.0213506 0.112853 3.10369 0.650125 -2.70587 -1.37423 -0.498688 0.0213506 0.112853 3.10369 0.650125 -2.70587 -1.37423 -0.498688 0.0213506 0.112853 0 0 0 0 0 0 0 0 0 0 0 0 0 0 63 0.17027 0.389437 13.9718 -12.1032 0.992863 -6.90925 1.02179 0.392487 -0.489823 3.10369 0.650125 -2.70587 -1.37423 -0.498688 0.0213506 0.112853 
14.3489 -11.7117 5.08327 -6.54895 2.1894 -1.43703 -0.237659 2.10671 0.724473 1.27077 -1.51608 2.64589 -3.03 0.477185 0.687971 0.564704 -0.259298 0.29526 -2.20856 -2.2192 0.00582366 0.000454635 3.40484e-05 0.000294762 -0.000344455 5.37815e-05 -1.39597e-05 5.4961e-05 3.20128 2.53319 -1.23201 1.52094 -1.84822 -1.57897 2.52825 0.000975155 0.000431776 2.3365e-05 0.000874043 -0.000863075 -2.38419e-05 0.000395536 2.99139 0.549244 -2.6274 -1.32043 -0.489538 -0.176905 0.160129 2.99829 0.549244 -2.63861 -1.3137 -0.491063 -0.274507 0.163179 66 4240.61 0.52 1.46972e+09 0.517992 1 0 15.8154 -12.6698 3.20796 -8.90565 0.126491 -0.230235 -0.52313 15.8154 -12.6698 3.20796 -8.90565 0.126491 -0.230235 -0.52313 15.8154 -12.6698 3.20796 -8.90565 0.126491 -0.230235 -0.52313 15.8154 -12.6698 3.20796 -8.90565 0.126491 -0.230235 -0.52313 0 0 0 0 0 0 0 0 0 0 0 0 0 0 3.06425 0.589596 -2.70811 -1.30698 -0.521564 -0.0259257 0.112853 3.06425 0.589596 -2.70811 -1.30698 -0.521564 -0.0259257 0.112853 3.06425 0.589596 -2.70811 -1.30698 -0.521564 -0.0259257 0.112853 3.06425 0.589596 -2.70811 -1.30698 -0.521564 -0.0259257 0.112853 0 0 0 0 0 0 0 0 0 0 0 0 0 0 64 0.172973 0.388083 15.8154 -12.6698 3.20796 -8.90565 0.126491 -0.230235 -0.52313 3.06425 0.589596 -2.70811 -1.30698 -0.521564 -0.0259257 0.112853 
15.1318 -12.4547 4.61137 -7.25172 1.64433 -1.27875 -0.0718859 1.12635 -0.743039 -0.471904 -0.702761 -0.545074 0.158288 0.165773 0.687747 0.564716 -0.259067 0.294918 -2.20869 -2.21903 0.00584171 0.000413299 1.19636e-05 0.000231789 -0.000341975 -0.000128388 0.000174523 1.80535e-05 3.20192 2.53352 -1.23198 1.52179 -1.84907 -1.57897 2.52871 0.000909955 0.000323534 3.62396e-05 0.000849724 -0.000850677 0 0.000454664 2.98202 0.524584 -2.62516 -1.3137 -0.593241 0.134204 0.183005 2.98065 0.522342 -2.62292 -1.31594 -0.587141 0.18453 0.176905 67 4240.62 0.528 1.46972e+09 0.526402 1 0 11.9903 -9.29381 3.05012 -6.93467 0.745914 0.114224 -0.527203 11.9903 -9.29381 3.05012 -6.93467 0.745914 0.114224 -0.527203 11.9903 -9.29381 3.05012 -6.93467 0.745914 0.114224 -0.527203 11.9903 -9.29381 3.05012 -6.93467 0.745914 0.114224 -0.527203 0 0 0 0 0 0 0 0 0 0 0 0 0 0 3.08878 0.551485 -2.6969 -1.40113 -0.552065 -0.0274507 0.126578 3.08878 0.551485 -2.6969 -1.40113 -0.552065 -0.0274507 0.126578 3.08878 0.551485 -2.6969 -1.40113 -0.552065 -0.0274507 0.126578 3.08878 0.551485 -2.6969 -1.40113 -0.552065 -0.0274507 0.126578 0 0 0 0 0 0 0 0 0 0 0 0 0 0 65 0.175676 0.38678 11.9903 -9.29381 3.05012 -6.93467 0.745914 0.114224 -0.527203 3.08878 0.551485 -2.6969 -1.40113 -0.552065 -0.0274507 0.126578 
13.4057 -11.8321 4.45128 -4.46083 -0.124955 1.56802 0.185766 2.86396 0.622577 -0.160089 2.79088 -1.76928 2.84677 0.257652 0.687509 0.564762 -0.258732 0.294567 -2.20854 -2.21913 0.00569106 0.000487341 4.66436e-05 0.000334835 -0.000351014 0.000154795 -9.80025e-05 -0.000150648 3.20273 2.534 -1.23197 1.5227 -1.84997 -1.57886 2.52907 0.00102912 0.000479937 1.19209e-05 0.000910282 -0.000898838 0.000107765 0.000359058 3.01278 0.490957 -2.60947 -1.42355 -0.521564 -0.323309 0.166229 3.03009 0.484231 -2.63189 -1.42131 -0.53834 -0.317209 0.163179 68 4240.62 0.536 1.46972e+09 0.53358 1 0 15.6319 -12.3811 5.09541 -8.0686 0.693216 0.00390724 -0.39156 15.6319 -12.3811 5.09541 -8.0686 0.693216 0.00390724 -0.39156 15.6319 -12.3811 5.09541 -8.0686 0.693216 0.00390724 -0.39156 15.6319 -12.3811 5.09541 -8.0686 0.693216 0.00390724 -0.39156 0 0 0 0 0 0 0 0 0 0 0 0 0 0 3.03938 0.506649 -2.6274 -1.44148 -0.552065 -0.0610016 0.166229 3.03938 0.506649 -2.6274 -1.44148 -0.552065 -0.0610016 0.166229 3.03938 0.506649 -2.6274 -1.44148 -0.552065 -0.0610016 0.166229 3.03938 0.506649 -2.6274 -1.44148 -0.552065 -0.0610016 0.166229 0 0 0 0 0 0 0 0 0 0 0 0 0 0 66 0.178378 0.38546 15.6319 -12.3811 5.09541 -8.0686 0.693216 0.00390724 -0.39156 3.03938 0.506649 -2.6274 -1.44148 -0.552065 -0.0610016 0.166229 
19.7251 -16.2001 7.58812 -8.30998 2.6465 -2.21903 -0.0267087 6.61325 -4.368 3.13684 -3.84915 2.77145 -3.78705 -0.212474 0.687303 0.56479 -0.258464 0.294269 -2.20865 -2.2192 0.00575966 0.000401748 2.72947e-05 0.000268228 -0.000297843 -0.0001123 -7.34854e-05 6.86027e-05 3.20345 2.53439 -1.23198 1.52354 -1.85092 -1.57892 2.52947 0.000926885 0.000395298 -1.19209e-05 0.00083828 -0.000947475 -6.00815e-05 0.000406981 3.06339 0.538035 -2.69017 -1.36302 -0.515464 0.0244007 0.114378 3.06485 0.540276 -2.68569 -1.37423 -0.506314 -0.0320259 0.114378 69 4240.63 0.544 1.46972e+09 0.542417 1 0 19.1162 -15.6963 6.94877 -8.41243 0.787569 -0.488148 -0.00352988 19.1162 -15.6963 6.94877 -8.41243 0.787569 -0.488148 -0.00352988 19.1162 -15.6963 6.94877 -8.41243 0.787569 -0.488148 -0.00352988 19.1162 -15.6963 6.94877 -8.41243 0.787569 -0.488148 -0.00352988 0 0 0 0 0 0 0 0 0 0 0 0 0 0 3.15566 0.542518 -2.73277 -1.48184 -0.509364 -0.0457512 0.192155 3.15566 0.542518 -2.73277 -1.48184 -0.509364 -0.0457512 0.192155 3.15566 0.542518 -2.73277 -1.48184 -0.509364 -0.0457512 0.192155 3.15566 0.542518 -2.73277 -1.48184 -0.509364 -0.0457512 0.192155 0 0 0 0 0 0 0 0 0 0 0 0 0 0 67 0.181081 0.384154 19.1162 -15.6963 6.94877 -8.41243 0.787569 -0.488148 -0.00352988 3.15566 0.542518 -2.73277 -1.48184 -0.509364 -0.0457512 0.192155 
15.0526 -11.5383 5.40815 -8.01258 0.021917 0.105251 -0.500604 5.15497 4.66187 -2.17996 0.297396 -2.62458 2.32428 -0.473896 0.687066 0.564805 -0.258193 0.293924 -2.20868 -2.21908 0.00570998 0.000438287 1.50384e-05 0.00027021 -0.000344755 -2.70055e-05 0.000117077 -4.96854e-05 3.20416 2.53476 -1.23197 1.52442 -1.85176 -1.57887 2.52991 0.000960501 0.000371933 1.19209e-05 0.000885487 -0.000839233 4.81606e-05 0.000431061 3.08004 0.54476 -2.68121 -1.41458 -0.460562 -0.0259257 0.125053 3.06049 0.551485 -2.66327 -1.40337 -0.478863 0.0686269 0.115903 70 4240.64 0.552 1.46972e+09 0.550011 1 0 19.9371 -15.4259 5.75684 -11.2423 0.408949 -0.966808 0.25374 19.9371 -15.4259 5.75684 -11.2423 0.408949 -0.966808 0.25374 19.9371 -15.4259 5.75684 -11.2423 0.408949 -0.966808 0.25374 19.9371 -15.4259 5.75684 -11.2423 0.408949 -0.966808 0.25374 0 0 0 0 0 0 0 0 0 0 0 0 0 0 3.22252 0.598563 -2.81123 -1.45718 -0.446837 -0.0411761 0.189105 3.22252 0.598563 -2.81123 -1.45718 -0.446837 -0.0411761 0.189105 3.22252 0.598563 -2.81123 -1.45718 -0.446837 -0.0411761 0.189105 3.22252 0.598563 -2.81123 -1.45718 -0.446837 -0.0411761 0.189105 0 0 0 0 0 0 0 0 0 0 0 0 0 0 68 0.183784 0.382718 19.9371 -15.4259 5.75684 -11.2423 0.408949 -0.966808 0.25374 3.22252 0.598563 -2.81123 -1.45718 -0.446837 -0.0411761 0.189105 
18.4867 -14.1418 6.01804 -10.2738 -0.0655462 -1.00533 -0.399985 3.50189 -2.60352 0.609883 -2.26118 -0.0874632 -1.11058 0.100619 0.686847 0.564846 -0.257905 0.293586 -2.20868 -2.21923 0.00559394 0.000446588 4.13146e-05 0.00028814 -0.000338688 -5.9746e-06 -0.00014947 -0.000116042 3.20491 2.53518 -1.23194 1.52532 -1.8528 -1.57881 2.53025 0.000991283 0.000419378 2.38419e-05 0.000897884 -0.00104237 5.96046e-05 0.000347376 3.05972 0.560453 -2.63637 -1.44821 -0.442262 -0.329409 0.146404 3.03948 0.560453 -2.62516 -1.42579 -0.433112 -0.414811 0.137254 71 4240.65 0.56 1.46972e+09 0.558431 1 0 19.1783 -13.7818 3.53658 -12.8594 0.137904 -1.4417 0.224087 19.1783 -13.7818 3.53658 -12.8594 0.137904 -1.4417 0.224087 19.1783 -13.7818 3.53658 -12.8594 0.137904 -1.4417 0.224087 19.1783 -13.7818 3.53658 -12.8594 0.137904 -1.4417 0.224087 0 0 0 0 0 0 0 0 0 0 0 0 0 0 3.22703 0.600805 -2.79105 -1.50425 -0.466663 -0.0274507 0.147929 3.22703 0.600805 -2.79105 -1.50425 -0.466663 -0.0274507 0.147929 3.22703 0.600805 -2.79105 -1.50425 -0.466663 -0.0274507 0.147929 3.22703 0.600805 -2.79105 -1.50425 -0.466663 -0.0274507 0.147929 0 0 0 0 0 0 0 0 0 0 0 0 0 0 69 0.186486 0.381381 19.1783 -13.7818 3.53658 -12.8594 0.137904 -1.4417 0.224087 3.22703 0.600805 -2.79105 -1.50425 -0.466663 -0.0274507 0.147929 
21.7755 -17.2522 6.97964 -11.3058 2.16072 -3.20158 -0.222453 3.41529 -3.11036 0.961605 -1.03208 2.22626 -2.19624 0.177532 0.686601 0.564856 -0.25764 0.293223 -2.20876 -2.21914 0.00579695 0.00044883 1.05064e-05 0.000265061 -0.000362051 -7.67469e-05 9.24458e-05 0.000203019 3.20564 2.53557 -1.23192 1.52624 -1.85371 -1.57893 2.53071 0.000998745 0.000383854 2.38419e-05 0.000921726 -0.000911236 -0.000119686 0.000454903 3.14766 0.679269 -2.67896 -1.5065 -0.494113 0.166229 0.150979 3.14103 0.679269 -2.68121 -1.48856 -0.484963 0.160129 0.135729 72 4240.66 0.568 1.46972e+09 0.565223 1 0 20.5612 -14.8889 4.89381 -13.3091 0.0114416 -1.33621 -0.180165 20.5612 -14.8889 4.89381 -13.3091 0.0114416 -1.33621 -0.180165 20.5612 -14.8889 4.89381 -13.3091 0.0114416 -1.33621 -0.180165 20.5612 -14.8889 4.89381 -13.3091 0.0114416 -1.33621 -0.180165 0 0 0 0 0 0 0 0 0 0 0 0 0 0 3.18196 0.724105 -2.64758 -1.60962 -0.472763 -0.0198255 0.118953 3.18196 0.724105 -2.64758 -1.60962 -0.472763 -0.0198255 0.118953 3.18196 0.724105 -2.64758 -1.60962 -0.472763 -0.0198255 0.118953 3.18196 0.724105 -2.64758 -1.60962 -0.472763 -0.0198255 0.118953 0 0 0 0 0 0 0 0 0 0 0 0 0 0 70 0.189189 0.380013 20.5612 -14.8889 4.89381 -13.3091 0.0114416 -1.33621 -0.180165 3.18196 0.724105 -2.64758 -1.60962 -0.472763 -0.0198255 0.118953 
22.9574 -19.199 4.95309 -11.5719 -1.3534 -0.220283 -0.127471 2.82275 -1.94685 -2.02656 -0.26609 -3.51412 2.98129 0.0949821 0.686362 0.564869 -0.257351 0.292891 -2.20876 -2.21915 0.0057277 0.000440845 1.30163e-05 0.000288734 -0.000332879 2.64034e-06 -1.17244e-05 -6.9251e-05 3.2064 2.53596 -1.23194 1.52717 -1.85463 -1.57888 2.53109 0.00100329 0.000395536 -2.38419e-05 0.000921726 -0.000911236 4.81606e-05 0.000382662 3.17049 0.650125 -2.72156 -1.4908 -0.343134 -0.237906 0.135729 3.14691 0.656851 -2.69241 -1.4908 -0.343134 -0.167755 0.141829 73 4240.66 0.576 1.46972e+09 0.573292 1 0 28.8895 -24.2826 6.86261 -14.0664 -0.2151 -2.08063 -0.467535 28.8895 -24.2826 6.86261 -14.0664 -0.2151 -2.08063 -0.467535 28.8895 -24.2826 6.86261 -14.0664 -0.2151 -2.08063 -0.467535 28.8895 -24.2826 6.86261 -14.0664 -0.2151 -2.08063 -0.467535 0 0 0 0 0 0 0 0 0 0 0 0 0 0 3.14075 0.78015 -2.67672 -1.44597 -0.379735 -0.00762521 0.155554 3.14075 0.78015 -2.67672 -1.44597 -0.379735 -0.00762521 0.155554 3.14075 0.78015 -2.67672 -1.44597 -0.379735 -0.00762521 0.155554 3.14075 0.78015 -2.67672 -1.44597 -0.379735 -0.00762521 0.155554 0 0 0 0 0 0 0 0 0 0 0 0 0 0 71 0.191892 0.378759 28.8895 -24.2826 6.86261 -14.0664 -0.2151 -2.08063 -0.467535 3.14075 0.78015 -2.67672 -1.44597 -0.379735 -0.00762521 0.155554 
24.3884 -18.3141 5.30929 -15.2053 0.828606 -3.89602 -0.317848 3.7565 0.884944 0.356201 -3.63335 2.18201 -3.67573 -0.190377 0.686141 0.564928 -0.257047 0.292527 -2.20864 -2.21926 0.00575886 0.00047814 5.88274e-05 0.000304536 -0.00036389 0.000118306 -0.000107982 3.11566e-05 3.20714 2.53643 -1.23186 1.52802 -1.85555 -1.57889 2.53145 0.000974012 0.000467777 8.39233e-05 0.000850201 -0.000923157 -1.23978e-05 0.000359535 3.14403 0.620982 -2.71707 -1.45494 -0.411761 -0.19978 0.161654 3.14717 0.636674 -2.71707 -1.45494 -0.402611 -0.297383 0.163179 74 4240.67 0.584 1.46972e+09 0.581944 1 0 23.4303 -19.1217 2.54077 -13.2997 -0.426751 -2.27959 -0.105046 23.4303 -19.1217 2.54077 -13.2997 -0.426751 -2.27959 -0.105046 23.4303 -19.1217 2.54077 -13.2997 -0.426751 -2.27959 -0.105046 23.4303 -19.1217 2.54077 -13.2997 -0.426751 -2.27959 -0.105046 0 0 0 0 0 0 0 0 0 0 0 0 0 0 3.23382 0.816019 -2.75967 -1.47511 -0.391936 -0.0137254 0.150979 3.23382 0.816019 -2.75967 -1.47511 -0.391936 -0.0137254 0.150979 3.23382 0.816019 -2.75967 -1.47511 -0.391936 -0.0137254 0.150979 3.23382 0.816019 -2.75967 -1.47511 -0.391936 -0.0137254 0.150979 0 0 0 0 0 0 0 0 0 0 0 0 0 0 72 0.194595 0.377399 23.4303 -19.1217 2.54077 -13.2997 -0.426751 -2.27959 -0.105046 3.23382 0.816019 -2.75967 -1.47511 -0.391936 -0.0137254 0.150979 
21.439 -16.4951 4.90357 -12.7866 1.11194 -2.8328 -0.0596314 3.05338 1.81894 -0.405717 2.41868 0.283336 1.06322 0.258217 0.685906 0.564947 -0.256763 0.29219 -2.20874 -2.21919 0.00583847 0.00044068 1.86562e-05 0.000284184 -0.00033629 -0.000101058 6.9029e-05 7.96108e-05 3.2079 2.53684 -1.23186 1.52891 -1.85646 -1.57894 2.53193 0.000986642 0.000407934 0 0.000898361 -0.000910759 -4.76837e-05 0.000478983 3.14929 0.578387 -2.6969 -1.51995 -0.431587 0.19063 0.19673 3.15563 0.596322 -2.69914 -1.52219 -0.440737 0.234856 0.19063 75 4240.68 0.592 1.46972e+09 0.590233 1 0 23.2731 -18.2448 1.39126 -14.3815 -0.272986 -2.2241 -0.158827 23.2731 -18.2448 1.39126 -14.3815 -0.272986 -2.2241 -0.158827 23.2731 -18.2448 1.39126 -14.3815 -0.272986 -2.2241 -0.158827 23.2731 -18.2448 1.39126 -14.3815 -0.272986 -2.2241 -0.158827 0 0 0 0 0 0 0 0 0 0 0 0 0 0 3.23692 0.717379 -2.80226 -1.45269 -0.367535 -0.0289758 0.138779 3.23692 0.717379 -2.80226 -1.45269 -0.367535 -0.0289758 0.138779 3.23692 0.717379 -2.80226 -1.45269 -0.367535 -0.0289758 0.138779 3.23692 0.717379 -2.80226 -1.45269 -0.367535 -0.0289758 0.138779 0 0 0 0 0 0 0 0 0 0 0 0 0 0 73 0.197297 0.376023 23.2731 -18.2448 1.39126 -14.3815 -0.272986 -2.2241 -0.158827 3.23692 0.717379 -2.80226 -1.45269 -0.367535 -0.0289758 0.138779 
24.4287 -19.3274 6.22993 -13.5793 -2.10851 -0.770609 0.328746 3.22638 -2.83229 1.32636 -0.792726 -3.22045 2.06219 0.388378 0.685696 0.564977 -0.256485 0.291883 -2.20876 -2.21926 0.00573396 0.000415408 3.0077e-05 0.00027763 -0.000307539 -2.52854e-05 -6.50121e-05 -0.000104511 3.20861 2.53723 -1.23186 1.52975 -1.85737 -1.57888 2.5323 0.000925946 0.000395298 0 0.000837326 -0.000911236 6.00815e-05 0.000370979 3.11482 0.580629 -2.69466 -1.45045 -0.394986 -0.298908 0.186055 3.12615 0.571662 -2.70362 -1.46166 -0.402611 -0.282133 0.192155 76 4240.69 0.6 1.46972e+09 0.597325 1 0 21.3871 -15.2071 2.43548 -14.8399 -0.405275 -2.29312 -0.276694 21.3871 -15.2071 2.43548 -14.8399 -0.405275 -2.29312 -0.276694 21.3871 -15.2071 2.43548 -14.8399 -0.405275 -2.29312 -0.276694 21.3871 -15.2071 2.43548 -14.8399 -0.405275 -2.29312 -0.276694 0 0 0 0 0 0 0 0 0 0 0 0 0 0 3.23384 0.677027 -2.83813 -1.39441 -0.440737 -0.0183005 0.17843 3.23384 0.677027 -2.83813 -1.39441 -0.440737 -0.0183005 0.17843 3.23384 0.677027 -2.83813 -1.39441 -0.440737 -0.0183005 0.17843 3.23384 0.677027 -2.83813 -1.39441 -0.440737 -0.0183005 0.17843 0 0 0 0 0 0 0 0 0 0 0 0 0 0 74 0.2 0.374791 21.3871 -15.2071 2.43548 -14.8399 -0.405275 -2.29312 -0.276694 3.23384 0.677027 -2.83813 -1.39441 -0.440737 -0.0183005 0.17843 
